;FLAVOR:Marlin
;TIME:13916
;Filament used: 29.7085m
;Layer height: 0.3
;MINX:29.879
;MINY:55.199
;MINZ:0.36
;MAXX:180.11
;MAXY:154.8
;MAXZ:25.56
;Generated with Cura_SteamEngine 4.2.1
M140 S60
M105
M190 S60
M104 S200
M105
M109 S200
M82 ;absolute extrusion mode
G21 ;metric values
G90 ;absolute positioning
M82 ;set extruder to absolute mode
M107 ;start with the fan off
G28 X0 Y0 ;move X/Y to min endstops
G28 Z0 ;move Z to min endstops
G1 Z15.0 F100 ;move the platform down 15mm
G92 E0 ;zero the extruded length
G1 F200 E3 ;extrude 3mm of feed stock
G92 E0 ;zero the extruded length again
G1 F100
M117 Printing...
G5
M141 S28
G92 E0
G92 E0
G1 F2400 E-6
;LAYER_COUNT:80
;LAYER:-6
M107
M204 S3000
M205 X10 Y10
G0 F6000 X43.666 Y58.327 Z0.36
M204 S1800
M205 X8 Y8
;TYPE:SUPPORT-INTERFACE
G1 F2400 E0
G1 F1350 X43.817 Y58.219 E0.02223
G1 X44.55 Y57.731 E0.12767
G1 X44.705 Y57.635 E0.1495
G1 X45.464 Y57.207 E0.25383
G1 X45.637 Y57.118 E0.27713
G1 X46.443 Y56.738 E0.38382
G1 X46.599 Y56.671 E0.40415
G1 X47.776 Y56.23 E0.55465
G1 X48.121 Y56.12 E0.59801
G1 X49.021 Y55.862 E0.71011
G1 X49.193 Y55.819 E0.73134
G1 X50.047 Y55.64 E0.83581
G1 X50.223 Y55.61 E0.85719
G1 X51.283 Y55.474 E0.98515
G1 X52.407 Y55.413 E1.11993
G1 X53.201 Y55.4 E1.21502
G1 X120.119 Y55.4 E9.22754
G1 X134.004 Y55.406 E10.89009
G1 X134.978 Y55.441 E11.00678
G1 X135.16 Y55.455 E11.02864
G1 X136.011 Y55.55 E11.13117
G1 X136.233 Y55.583 E11.15804
G1 X137.7 Y55.882 E11.33731
G1 X138.098 Y55.987 E11.38659
G1 X139.13 Y56.298 E11.51565
G1 X140.136 Y56.684 E11.64467
G1 X140.975 Y57.073 E11.7554
G1 X141.123 Y57.149 E11.77532
G1 X141.876 Y57.569 E11.87856
G1 X142.056 Y57.679 E11.90382
G1 X143.141 Y58.41 E12.06047
G1 X143.361 Y58.574 E12.09332
G1 X144.112 Y59.171 E12.20819
G1 X144.219 Y59.263 E12.22509
G1 X144.88 Y59.872 E12.33271
G1 X144.996 Y59.987 E12.35227
G1 X145.623 Y60.656 E12.46205
G1 X145.736 Y60.787 E12.48277
G1 X146.644 Y61.952 E12.65962
G1 X146.84 Y62.234 E12.70074
G1 X147.436 Y63.16 E12.8326
G1 X147.939 Y64.079 E12.95804
G1 X148.212 Y64.656 E13.03447
G1 X175.671 Y126.139 E21.09707
G1 X175.706 Y126.218 E21.10741
G1 X178.596 Y132.701 E21.9573
G1 X178.995 Y133.7 E22.0861
G1 X179.275 Y134.574 E22.19599
G1 X179.319 Y134.738 E22.21632
G1 X179.636 Y136.147 E22.38925
G1 X179.711 Y136.583 E22.44222
G1 X179.832 Y137.459 E22.54811
G1 X179.856 Y137.688 E22.57568
G1 X179.91 Y138.525 E22.6761
G1 X179.916 Y138.718 E22.69922
G1 X179.909 Y139.596 E22.80436
G1 X179.9 Y139.797 E22.82845
G1 X179.829 Y140.667 E22.93296
G1 X179.805 Y140.859 E22.95613
G1 X179.567 Y142.258 E23.12605
G1 X179.504 Y142.537 E23.1603
G1 X179.255 Y143.49 E23.27824
G1 X179.208 Y143.646 E23.29775
G1 X178.923 Y144.481 E23.40339
G1 X178.848 Y144.677 E23.42852
G1 X178.509 Y145.477 E23.53255
G1 X178.437 Y145.63 E23.5528
G1 X177.956 Y146.564 E23.67859
G1 X177.838 Y146.771 E23.70712
G1 X177.355 Y147.563 E23.8182
G1 X177.245 Y147.729 E23.84204
G1 X176.737 Y148.439 E23.94657
G1 X176.617 Y148.595 E23.97014
G1 X175.945 Y149.395 E24.09524
G1 X175.353 Y150.017 E24.19805
G1 X174.656 Y150.678 E24.31307
G1 X174.533 Y150.786 E24.33267
G1 X173.847 Y151.35 E24.43901
G1 X173.704 Y151.455 E24.46025
G1 X172.372 Y152.353 E24.6526
G1 X172.269 Y152.413 E24.66687
G1 X171.47 Y152.859 E24.77644
G1 X171.301 Y152.946 E24.79919
G1 X170.345 Y153.385 E24.92515
G1 X169.52 Y153.698 E25.03081
G1 X169.319 Y153.765 E25.05618
G1 X167.896 Y154.162 E25.23307
G1 X167.484 Y154.252 E25.28356
G1 X166.583 Y154.421 E25.39333
G1 X166.405 Y154.447 E25.41487
G1 X165.529 Y154.546 E25.52042
G1 X165.359 Y154.559 E25.54084
G1 X164.324 Y154.598 E25.66485
G1 X158.346 Y154.6 E26.38064
G1 X45.715 Y154.6 E39.86668
G1 X45.68 Y154.599 E39.87087
G1 X44.556 Y154.554 E40.00556
G1 X43.638 Y154.452 E40.11616
G1 X43.461 Y154.426 E40.13758
G1 X42.43 Y154.232 E40.26319
G1 X42.034 Y154.143 E40.31179
G1 X41.093 Y153.896 E40.42828
G1 X40.959 Y153.855 E40.44506
G1 X40.093 Y153.558 E40.55468
G1 X39.955 Y153.505 E40.57238
G1 X39.132 Y153.154 E40.67951
G1 X38.948 Y153.067 E40.70388
G1 X38.173 Y152.667 E40.80831
G1 X38.01 Y152.576 E40.83066
G1 X37.133 Y152.035 E40.95404
G1 X36.622 Y151.678 E41.02868
G1 X36.339 Y151.471 E41.07066
G1 X35.567 Y150.865 E41.18818
G1 X35.428 Y150.747 E41.21001
G1 X34.791 Y150.167 E41.31316
G1 X34.651 Y150.03 E41.33661
G1 X34.035 Y149.381 E41.44375
G1 X33.936 Y149.268 E41.46174
G1 X33.265 Y148.445 E41.58889
G1 X32.763 Y147.737 E41.69281
G1 X32.253 Y146.94 E41.8061
G1 X32.161 Y146.783 E41.82789
G1 X31.729 Y145.983 E41.93675
G1 X31.677 Y145.876 E41.951
G1 X31.302 Y145.041 E42.0606
G1 X31.227 Y144.85 E42.08517
G1 X30.729 Y143.392 E42.26965
G1 X30.627 Y143.032 E42.31445
G1 X30.402 Y142.118 E42.42715
G1 X30.367 Y141.945 E42.44829
G1 X30.217 Y141.067 E42.55494
G1 X30.194 Y140.892 E42.57607
G1 X30.11 Y140.007 E42.68252
G1 X30.1 Y139.844 E42.70207
G1 X30.08 Y138.945 E42.80974
G1 X30.082 Y138.767 E42.83106
G1 X30.118 Y137.954 E42.9285
G1 X30.198 Y136.951 E43.04897
G1 X37.169 Y69.844 E51.12737
G1 X37.281 Y68.935 E51.23703
G1 X37.425 Y68.032 E51.34652
G1 X37.46 Y67.859 E51.36765
G1 X37.662 Y66.999 E51.47343
G1 X37.715 Y66.806 E51.49739
G1 X37.978 Y65.97 E51.60233
G1 X38.045 Y65.786 E51.62578
G1 X38.367 Y64.973 E51.73048
G1 X38.435 Y64.816 E51.75096
G1 X38.689 Y64.274 E51.82263
G1 X38.852 Y63.943 E51.86681
G1 X39.318 Y63.076 E51.98467
G1 X39.398 Y62.94 E52.00356
G1 X39.885 Y62.174 E52.11225
G1 X39.979 Y62.036 E52.13224
G1 X40.511 Y61.321 E52.23895
G1 X40.622 Y61.183 E52.26016
G1 X41.204 Y60.508 E52.36687
G1 X41.309 Y60.394 E52.38543
G1 X42.065 Y59.644 E52.51294
G1 X42.617 Y59.158 E52.601
G1 X42.934 Y58.895 E52.65032
G1 X43.666 Y58.327 E52.76126
M204 S3000
M205 X10 Y10
G0 F6000 X43.2 Y58.688
M204 S1800
M205 X8 Y8
G1 F1350 X43.2 Y154.376 E64.2186
M204 S3000
M205 X10 Y10
G0 F6000 X44.8 Y154.563
M204 S1800
M205 X8 Y8
G1 F1350 X44.8 Y57.581 E75.83089
M204 S3000
M205 X10 Y10
G0 F6000 X46.4 Y56.758
M204 S1800
M205 X8 Y8
G1 F1350 X46.4 Y154.6 E87.54614
M204 S3000
M205 X10 Y10
G0 F6000 X48 Y154.6
M204 S1800
M205 X8 Y8
G1 F1350 X48 Y56.158 E99.33324
M204 S3000
M205 X10 Y10
G0 F6000 X49.6 Y55.733
M204 S1800
M205 X8 Y8
G1 F1350 X49.6 Y154.6 E111.17123
M204 S3000
M205 X10 Y10
G0 F6000 X51.2 Y154.6
M204 S1800
M205 X8 Y8
G1 F1350 X51.2 Y55.484 E123.03903
M204 S3000
M205 X10 Y10
G0 F6000 X52.8 Y55.406
M204 S1800
M205 X8 Y8
G1 F1350 X52.8 Y154.6 E134.91617
M204 S3000
M205 X10 Y10
G0 F6000 X54.4 Y154.6
M204 S1800
M205 X8 Y8
G1 F1350 X54.4 Y55.4 E146.79403
M204 S3000
M205 X10 Y10
G0 F6000 X56 Y55.4
M204 S1800
M205 X8 Y8
G1 F1350 X56 Y154.6 E158.67189
M204 S3000
M205 X10 Y10
G0 F6000 X57.6 Y154.6
M204 S1800
M205 X8 Y8
G1 F1350 X57.6 Y55.4 E170.54975
M204 S3000
M205 X10 Y10
G0 F6000 X59.2 Y55.4
M204 S1800
M205 X8 Y8
G1 F1350 X59.2 Y154.6 E182.42761
M204 S3000
M205 X10 Y10
G0 F6000 X60.8 Y154.6
M204 S1800
M205 X8 Y8
G1 F1350 X60.8 Y55.4 E194.30547
M204 S3000
M205 X10 Y10
G0 F6000 X62.4 Y55.4
M204 S1800
M205 X8 Y8
G1 F1350 X62.4 Y154.6 E206.18333
M204 S3000
M205 X10 Y10
G0 F6000 X64 Y154.6
M204 S1800
M205 X8 Y8
G1 F1350 X64 Y55.4 E218.06119
M204 S3000
M205 X10 Y10
G0 F6000 X65.6 Y55.4
M204 S1800
M205 X8 Y8
G1 F1350 X65.6 Y154.6 E229.93905
M204 S3000
M205 X10 Y10
G0 F6000 X67.2 Y154.6
M204 S1800
M205 X8 Y8
G1 F1350 X67.2 Y55.4 E241.81691
M204 S3000
M205 X10 Y10
G0 F6000 X68.8 Y55.4
M204 S1800
M205 X8 Y8
G1 F1350 X68.8 Y154.6 E253.69477
M204 S3000
M205 X10 Y10
G0 F6000 X70.4 Y154.6
M204 S1800
M205 X8 Y8
G1 F1350 X70.4 Y55.4 E265.57263
M204 S3000
M205 X10 Y10
G0 F6000 X72 Y55.4
M204 S1800
M205 X8 Y8
G1 F1350 X72 Y154.6 E277.45049
M204 S3000
M205 X10 Y10
G0 F6000 X73.6 Y154.6
M204 S1800
M205 X8 Y8
G1 F1350 X73.6 Y55.4 E289.32834
M204 S3000
M205 X10 Y10
G0 F6000 X75.2 Y55.4
M204 S1800
M205 X8 Y8
G1 F1350 X75.2 Y154.6 E301.2062
M204 S3000
M205 X10 Y10
G0 F6000 X76.8 Y154.6
M204 S1800
M205 X8 Y8
G1 F1350 X76.8 Y55.4 E313.08406
M204 S3000
M205 X10 Y10
G0 F6000 X78.4 Y55.4
M204 S1800
M205 X8 Y8
G1 F1350 X78.4 Y154.6 E324.96192
M204 S3000
M205 X10 Y10
G0 F6000 X80 Y154.6
M204 S1800
M205 X8 Y8
G1 F1350 X80 Y55.4 E336.83978
M204 S3000
M205 X10 Y10
G0 F6000 X81.6 Y55.4
M204 S1800
M205 X8 Y8
G1 F1350 X81.6 Y154.6 E348.71764
M204 S3000
M205 X10 Y10
G0 F6000 X83.2 Y154.6
M204 S1800
M205 X8 Y8
G1 F1350 X83.2 Y55.4 E360.5955
M204 S3000
M205 X10 Y10
G0 F6000 X84.8 Y55.4
M204 S1800
M205 X8 Y8
G1 F1350 X84.8 Y154.6 E372.47336
M204 S3000
M205 X10 Y10
G0 F6000 X86.4 Y154.6
M204 S1800
M205 X8 Y8
G1 F1350 X86.4 Y55.4 E384.35122
M204 S3000
M205 X10 Y10
G0 F6000 X88 Y55.4
M204 S1800
M205 X8 Y8
G1 F1350 X88 Y154.6 E396.22908
M204 S3000
M205 X10 Y10
G0 F6000 X89.6 Y154.6
M204 S1800
M205 X8 Y8
G1 F1350 X89.6 Y55.4 E408.10694
M204 S3000
M205 X10 Y10
G0 F6000 X91.2 Y55.4
M204 S1800
M205 X8 Y8
G1 F1350 X91.2 Y154.6 E419.9848
M204 S3000
M205 X10 Y10
G0 F6000 X92.8 Y154.6
M204 S1800
M205 X8 Y8
G1 F1350 X92.8 Y55.4 E431.86266
M204 S3000
M205 X10 Y10
G0 F6000 X94.4 Y55.4
M204 S1800
M205 X8 Y8
G1 F1350 X94.4 Y154.6 E443.74052
M204 S3000
M205 X10 Y10
G0 F6000 X96 Y154.6
M204 S1800
M205 X8 Y8
G1 F1350 X96 Y55.4 E455.61838
M204 S3000
M205 X10 Y10
G0 F6000 X97.6 Y55.4
M204 S1800
M205 X8 Y8
G1 F1350 X97.6 Y154.6 E467.49624
M204 S3000
M205 X10 Y10
G0 F6000 X99.2 Y154.6
M204 S1800
M205 X8 Y8
G1 F1350 X99.2 Y55.4 E479.3741
M204 S3000
M205 X10 Y10
G0 F6000 X100.8 Y55.4
M204 S1800
M205 X8 Y8
G1 F1350 X100.8 Y154.6 E491.25195
M204 S3000
M205 X10 Y10
G0 F6000 X102.4 Y154.6
M204 S1800
M205 X8 Y8
G1 F1350 X102.4 Y55.4 E503.12981
M204 S3000
M205 X10 Y10
G0 F6000 X104 Y55.4
M204 S1800
M205 X8 Y8
G1 F1350 X104 Y154.6 E515.00767
M204 S3000
M205 X10 Y10
G0 F6000 X105.6 Y154.6
M204 S1800
M205 X8 Y8
G1 F1350 X105.6 Y55.4 E526.88553
M204 S3000
M205 X10 Y10
G0 F6000 X107.2 Y55.4
M204 S1800
M205 X8 Y8
G1 F1350 X107.2 Y154.6 E538.76339
M204 S3000
M205 X10 Y10
G0 F6000 X108.8 Y154.6
M204 S1800
M205 X8 Y8
G1 F1350 X108.8 Y55.4 E550.64125
M204 S3000
M205 X10 Y10
G0 F6000 X110.4 Y55.4
M204 S1800
M205 X8 Y8
G1 F1350 X110.4 Y154.6 E562.51911
M204 S3000
M205 X10 Y10
G0 F6000 X112 Y154.6
M204 S1800
M205 X8 Y8
G1 F1350 X112 Y55.4 E574.39697
M204 S3000
M205 X10 Y10
G0 F6000 X113.6 Y55.4
M204 S1800
M205 X8 Y8
G1 F1350 X113.6 Y154.6 E586.27483
M204 S3000
M205 X10 Y10
G0 F6000 X115.2 Y154.6
M204 S1800
M205 X8 Y8
G1 F1350 X115.2 Y55.4 E598.15269
M204 S3000
M205 X10 Y10
G0 F6000 X116.8 Y55.4
M204 S1800
M205 X8 Y8
G1 F1350 X116.8 Y154.6 E610.03055
M204 S3000
M205 X10 Y10
G0 F6000 X118.4 Y154.6
M204 S1800
M205 X8 Y8
G1 F1350 X118.4 Y55.4 E621.90841
M204 S3000
M205 X10 Y10
G0 F6000 X120 Y55.4
M204 S1800
M205 X8 Y8
G1 F1350 X120 Y154.6 E633.78627
M204 S3000
M205 X10 Y10
G0 F6000 X121.6 Y154.6
M204 S1800
M205 X8 Y8
G1 F1350 X121.6 Y55.401 E645.66401
M204 S3000
M205 X10 Y10
G0 F6000 X123.2 Y55.402
M204 S1800
M205 X8 Y8
G1 F1350 X123.2 Y154.6 E657.54163
M204 S3000
M205 X10 Y10
G0 F6000 X124.8 Y154.6
M204 S1800
M205 X8 Y8
G1 F1350 X124.8 Y55.403 E669.41913
M204 S3000
M205 X10 Y10
G0 F6000 X126.4 Y55.403
M204 S1800
M205 X8 Y8
G1 F1350 X126.4 Y154.6 E681.29663
M204 S3000
M205 X10 Y10
G0 F6000 X128 Y154.6
M204 S1800
M205 X8 Y8
G1 F1350 X128 Y55.404 E693.17401
M204 S3000
M205 X10 Y10
G0 F6000 X129.6 Y55.405
M204 S1800
M205 X8 Y8
G1 F1350 X129.6 Y154.6 E705.05127
M204 S3000
M205 X10 Y10
G0 F6000 X131.2 Y154.6
M204 S1800
M205 X8 Y8
G1 F1350 X131.2 Y55.405 E716.92853
M204 S3000
M205 X10 Y10
G0 F6000 X132.8 Y55.406
M204 S1800
M205 X8 Y8
G1 F1350 X132.8 Y154.6 E728.80567
M204 S3000
M205 X10 Y10
G0 F6000 X134.4 Y154.6
M204 S1800
M205 X8 Y8
G1 F1350 X134.4 Y55.421 E740.68102
M204 S3000
M205 X10 Y10
G0 F6000 X136 Y55.549
M204 S1800
M205 X8 Y8
G1 F1350 X136 Y154.6 E752.54103
M204 S3000
M205 X10 Y10
G0 F6000 X137.6 Y154.6
M204 S1800
M205 X8 Y8
G1 F1350 X137.6 Y55.862 E764.36358
M204 S3000
M205 X10 Y10
G0 F6000 X139.2 Y56.325
M204 S1800
M205 X8 Y8
G1 F1350 X139.2 Y154.6 E776.13068
M204 S3000
M205 X10 Y10
G0 F6000 X140.8 Y154.6
M204 S1800
M205 X8 Y8
G1 F1350 X140.8 Y56.992 E787.81792
M204 S3000
M205 X10 Y10
G0 F6000 X142.4 Y57.911
M204 S1800
M205 X8 Y8
G1 F1350 X142.4 Y154.6 E799.39512
M204 S3000
M205 X10 Y10
G0 F6000 X144 Y154.6
M204 S1800
M205 X8 Y8
G1 F1350 X144 Y59.082 E810.83211
M204 S3000
M205 X10 Y10
G0 F6000 X145.6 Y60.632
M204 S1800
M205 X8 Y8
G1 F1350 X145.6 Y154.6 E822.08351
M204 S3000
M205 X10 Y10
G0 F6000 X147.2 Y154.6
M204 S1800
M205 X8 Y8
G1 F1350 X147.2 Y62.794 E833.07603
M204 S3000
M205 X10 Y10
G0 F6000 X148.8 Y65.973
M204 S1800
M205 X8 Y8
G1 F1350 X148.8 Y154.6 E843.68792
M204 S3000
M205 X10 Y10
G0 F6000 X150.4 Y154.6
M204 S1800
M205 X8 Y8
G1 F1350 X150.4 Y69.556 E853.87079
M204 S3000
M205 X10 Y10
G0 F6000 X152 Y73.138
M204 S1800
M205 X8 Y8
G1 F1350 X152 Y154.6 E863.62476
M204 S3000
M205 X10 Y10
G0 F6000 X153.6 Y154.6
M204 S1800
M205 X8 Y8
G1 F1350 X153.6 Y76.721 E872.94972
M204 S3000
M205 X10 Y10
G0 F6000 X155.2 Y80.303
M204 S1800
M205 X8 Y8
G1 F1350 X155.2 Y154.6 E881.84578
M204 S3000
M205 X10 Y10
G0 F6000 X156.8 Y154.6
M204 S1800
M205 X8 Y8
G1 F1350 X156.8 Y83.886 E890.31283
M204 S3000
M205 X10 Y10
G0 F6000 X158.4 Y87.468
M204 S1800
M205 X8 Y8
G1 F1350 X158.4 Y154.6 E898.35098
M204 S3000
M205 X10 Y10
G0 F6000 X160 Y154.6
M204 S1800
M205 X8 Y8
G1 F1350 X160 Y91.051 E905.96011
M204 S3000
M205 X10 Y10
G0 F6000 X161.6 Y94.633
M204 S1800
M205 X8 Y8
G1 F1350 X161.6 Y154.599 E913.14023
M204 S3000
M205 X10 Y10
G0 F6000 X163.2 Y154.599
M204 S1800
M205 X8 Y8
G1 F1350 X163.2 Y98.216 E919.89133
M204 S3000
M205 X10 Y10
G0 F6000 X164.8 Y101.798
M204 S1800
M205 X8 Y8
G1 F1350 X164.8 Y154.581 E926.21138
M204 S3000
M205 X10 Y10
G0 F6000 X166.4 Y154.448
M204 S1800
M205 X8 Y8
G1 F1350 X166.4 Y105.381 E932.08649
M204 S3000
M205 X10 Y10
G0 F6000 X168 Y108.963
M204 S1800
M205 X8 Y8
G1 F1350 X168 Y154.133 E937.49499
M204 S3000
M205 X10 Y10
G0 F6000 X169.6 Y153.668
M204 S1800
M205 X8 Y8
G1 F1350 X169.6 Y112.546 E942.4188
M204 S3000
M205 X10 Y10
G0 F6000 X171.2 Y116.129
M204 S1800
M205 X8 Y8
G1 F1350 X171.2 Y152.993 E946.83276
M204 S3000
M205 X10 Y10
G0 F6000 X172.8 Y152.065
M204 S1800
M205 X8 Y8
G1 F1350 X172.8 Y119.711 E950.70672
M204 S3000
M205 X10 Y10
G0 F6000 X174.4 Y123.294
M204 S1800
M205 X8 Y8
G1 F1350 X174.4 Y150.896 E954.01168
M204 S3000
M205 X10 Y10
G0 F6000 X176 Y149.33
M204 S1800
M205 X8 Y8
G1 F1350 X176 Y126.878 E956.70001
M204 S3000
M205 X10 Y10
G0 F6000 X177.6 Y130.467
M204 S1800
M205 X8 Y8
G1 F1350 X177.6 Y147.162 E958.69901
M204 S3000
M205 X10 Y10
G0 F6000 X179.2 Y143.67
M204 S1800
M205 X8 Y8
G1 F1350 X179.2 Y134.34 E959.81615
M204 S3000
M205 X10 Y10
G0 F6000 X41.6 Y154.029
M204 S1800
M205 X8 Y8
G1 F1350 X41.6 Y60.105 E971.06228
M204 S3000
M205 X10 Y10
G0 F6000 X40 Y62.007
M204 S1800
M205 X8 Y8
G1 F1350 X40 Y153.522 E982.01996
M204 S3000
M205 X10 Y10
G0 F6000 X38.4 Y152.784
M204 S1800
M205 X8 Y8
G1 F1350 X38.4 Y64.896 E992.54336
M204 S3000
M205 X10 Y10
G0 F6000 X36.8 Y73.396
M204 S1800
M205 X8 Y8
G1 F1350 X36.8 Y151.802 E1001.93142
M204 S3000
M205 X10 Y10
G0 F6000 X35.2 Y150.539
M204 S1800
M205 X8 Y8
G1 F1350 X35.2 Y88.798 E1009.32407
M204 S3000
M205 X10 Y10
G0 F6000 X33.6 Y104.201
M204 S1800
M205 X8 Y8
G1 F1350 X33.6 Y148.855 E1014.67078
M204 S3000
M205 X10 Y10
G0 F6000 X32 Y146.484
M204 S1800
M205 X8 Y8
G1 F1350 X32 Y119.603 E1017.88942
M204 S3000
M205 X10 Y10
G0 F6000 X30.4 Y135.006
M204 S1800
M205 X8 Y8
G1 F1350 X30.4 Y142.108 E1018.73979
M204 S3000
M205 X10 Y10
G0 F600 X30.4 Y142.108 Z0.81
G0 F6000 X32.079 Y146.63
;TIME_ELAPSED:387.895990
;LAYER:-5
M140 S60
M204 S1800
M205 X8 Y8
;TYPE:SUPPORT
G1 F1350 X38.041 Y152.592 E1020.00174
G1 X38.173 Y152.666 E1020.02439
G1 X38.948 Y153.066 E1020.15493
G1 X39.131 Y153.152 E1020.18519
G1 X39.955 Y153.503 E1020.31924
G1 X40.092 Y153.556 E1020.34123
G1 X40.59 Y153.727 E1020.42003
G1 X30.975 Y144.112 E1022.45521
G1 X30.729 Y143.391 E1022.56923
G1 X30.626 Y143.031 E1022.62527
G1 X30.404 Y142.127 E1022.76459
G1 X42.526 Y154.248 E1025.3303
G1 X43.46 Y154.425 E1025.47258
G1 X43.637 Y154.451 E1025.49936
G1 X44.205 Y154.514 E1025.58489
G1 X30.153 Y140.461 E1028.55933
G1 X30.11 Y140.005 E1028.62789
G1 X30.1 Y139.843 E1028.65218
G1 X30.079 Y138.974 E1028.78228
G1 X45.704 Y154.598 E1032.08946
