;FLAVOR:Marlin
;TIME:10778
;Filament used: 23.5433m
;Layer height: 0.3
;MINX:38.298
;MINY:63.6
;MINZ:0.3
;MAXX:171.709
;MAXY:146.4
;MAXZ:24
;Generated with Cura_SteamEngine 4.2.1
M140 S60
M105
M190 S60
M104 S200
M105
M109 S200
M82 ;absolute extrusion mode
G21 ;metric values
G90 ;absolute positioning
M82 ;set extruder to absolute mode
M107 ;start with the fan off
G28 X0 Y0 ;move X/Y to min endstops
G28 Z0 ;move Z to min endstops
G1 Z15.0 F100 ;move the platform down 15mm
G92 E0 ;zero the extruded length
G1 F200 E3 ;extrude 3mm of feed stock
G92 E0 ;zero the extruded length again
G1 F100
M117 Printing...
G5
M141 S28
G92 E0
G92 E0
G1 F2400 E-6
;LAYER_COUNT:80
;LAYER:0
M106 S255
M204 S3000
M205 X10 Y10
G0 F3000 X48.485 Y64.963 Z0.3
M204 S1800
M205 X8 Y8
;TYPE:SKIRT
G1 F2400 E0
G1 X49.088 Y64.578 E0.04997
G1 X49.988 Y64.16 E0.11928
G1 X50.342 Y64.028 E0.14567
G1 X51.025 Y63.816 E0.19562
G1 X51.728 Y63.682 E0.24561
G1 X52.325 Y63.63 E0.28746
G1 X52.83 Y63.61 E0.32276
G1 X53.026 Y63.605 E0.33646
G1 X53.589 Y63.6 E0.37578
G1 X120.116 Y63.6 E5.02244
G1 X133.343 Y63.605 E5.9463
G1 X133.436 Y63.606 E5.9528
G1 X134.044 Y63.615 E5.99527
G1 X134.757 Y63.665 E6.04519
G1 X135.325 Y63.764 E6.08546
G1 X135.77 Y63.862 E6.11729
G1 X136.459 Y64.054 E6.16725
G1 X137.122 Y64.323 E6.21722
G1 X138.045 Y64.856 E6.29167
G1 X138.284 Y65.022 E6.31199
G1 X138.848 Y65.462 E6.36195
G1 X139.359 Y65.962 E6.41189
G1 X139.785 Y66.482 E6.45884
G1 X139.981 Y66.748 E6.48192
G1 X140.373 Y67.346 E6.53186
G1 X140.597 Y67.771 E6.56542
G1 X140.922 Y68.447 E6.61781
G1 X140.998 Y68.61 E6.63037
G1 X168.217 Y129.557 E11.29253
G1 X170.799 Y135.34 E11.73488
G1 X170.835 Y135.423 E11.7412
G1 X171.11 Y136.063 E11.78985
G1 X171.355 Y136.735 E11.83981
G1 X171.494 Y137.278 E11.87896
G1 X171.574 Y137.66 E11.90622
G1 X171.681 Y138.367 E11.95616
G1 X171.709 Y139.082 E12.00614
G1 X171.635 Y139.949 E12.06692
G1 X171.58 Y140.305 E12.09208
G1 X171.431 Y141.005 E12.14207
G1 X171.206 Y141.684 E12.19203
G1 X170.961 Y142.228 E12.2337
G1 X170.837 Y142.472 E12.25282
G1 X170.477 Y143.09 E12.30277
G1 X170.051 Y143.665 E12.35276
G1 X169.805 Y143.944 E12.37874
G1 X169.631 Y144.13 E12.39653
G1 X169.114 Y144.624 E12.44647
G1 X168.535 Y145.065 E12.49731
G1 X168.357 Y145.185 E12.5123
G1 X167.742 Y145.551 E12.56229
G1 X167.091 Y145.846 E12.61221
G1 X166.399 Y146.07 E12.66301
G1 X165.99 Y146.177 E12.69254
G1 X165.289 Y146.319 E12.7425
G1 X164.473 Y146.384 E12.79967
G1 X163.666 Y146.397 E12.85604
G1 X163.565 Y146.398 E12.8631
G1 X158.343 Y146.4 E13.22784
G1 X46.377 Y146.4 E21.04825
G1 X46.284 Y146.399 E21.05474
G1 X45.599 Y146.389 E21.10259
G1 X44.885 Y146.339 E21.15258
G1 X44.52 Y146.282 E21.17839
G1 X44.214 Y146.225 E21.20013
G1 X43.519 Y146.055 E21.2501
G1 X42.848 Y145.808 E21.30004
G1 X42.189 Y145.477 E21.35155
G1 X41.785 Y145.244 E21.38413
G1 X41.186 Y144.853 E21.43409
G1 X40.635 Y144.397 E21.48404
G1 X40.138 Y143.882 E21.53403
G1 X39.89 Y143.577 E21.56149
G1 X39.705 Y143.334 E21.58282
G1 X39.304 Y142.741 E21.63282
G1 X38.972 Y142.108 E21.68275
G1 X38.68 Y141.34 E21.74013
G1 X38.571 Y140.986 E21.76601
G1 X38.399 Y140.292 E21.81595
G1 X38.306 Y139.583 E21.86589
G1 X38.298 Y138.743 E21.92456
G1 X38.322 Y138.317 E21.95437
G1 X38.337 Y138.106 E21.96914
G1 X38.425 Y137.123 E22.03807
G1 X38.434 Y137.033 E22.04439
G1 X45.283 Y71.098 E26.67449
G1 X45.29 Y71.033 E26.67905
G1 X45.353 Y70.481 E26.71786
G1 X45.371 Y70.338 E26.72792
G1 X45.428 Y69.922 E26.75725
G1 X45.565 Y69.22 E26.80721
G1 X45.779 Y68.538 E26.85713
G1 X45.937 Y68.154 E26.88614
G1 X46.107 Y67.778 E26.91496
G1 X46.438 Y67.144 E26.96491
G1 X46.837 Y66.551 E27.01483
G1 X47.3 Y66.006 E27.06478
G1 X47.644 Y65.67 E27.09837
G1 X47.929 Y65.412 E27.12522
G1 X48.485 Y64.963 E27.17514
M204 S3000
M205 X10 Y10
G0 F3000 X48.837 Y65.399
M204 S1800
M205 X8 Y8
G1 F2400 X49.416 Y65.036 E27.22287
G1 X50.184 Y64.685 E27.28185
G1 X50.538 Y64.553 E27.30824
G1 X51.191 Y64.352 E27.35596
G1 X51.863 Y64.229 E27.40367
G1 X52.347 Y64.19 E27.43759
G1 X52.852 Y64.17 E27.47289
G1 X53.031 Y64.165 E27.4854
G1 X53.594 Y64.16 E27.52472
G1 X120.116 Y64.16 E32.17104
G1 X133.343 Y64.165 E33.09489
G1 X133.427 Y64.166 E33.10076
G1 X134.035 Y64.175 E33.14323
G1 X134.717 Y64.225 E33.19099
G1 X135.205 Y64.311 E33.2256
G1 X135.65 Y64.409 E33.25743
G1 X136.308 Y64.594 E33.30517
G1 X136.939 Y64.856 E33.35289
G1 X137.725 Y65.315 E33.41647
G1 X137.964 Y65.481 E33.43679
G1 X138.502 Y65.903 E33.48455
G1 X138.986 Y66.385 E33.53226
G1 X139.335 Y66.814 E33.57089
G1 X139.531 Y67.08 E33.59397
G1 X139.903 Y67.653 E33.64168
G1 X140.092 Y68.014 E33.67014
G1 X140.417 Y68.69 E33.72253
G1 X140.486 Y68.839 E33.734
G1 X167.705 Y129.786 E38.39616
G1 X170.287 Y135.569 E38.83851
G1 X170.321 Y135.644 E38.84427
G1 X170.596 Y136.284 E38.89292
G1 X170.828 Y136.927 E38.94066
G1 X170.946 Y137.393 E38.97424
G1 X171.026 Y137.775 E39.0015
G1 X171.127 Y138.451 E39.04924
G1 X171.148 Y139.134 E39.09697
G1 X171.082 Y139.864 E39.14816
G1 X171.027 Y140.22 E39.17332
G1 X170.883 Y140.888 E39.22105
G1 X170.662 Y141.534 E39.26874
G1 X170.461 Y141.974 E39.30253
G1 X170.337 Y142.218 E39.32164
G1 X169.993 Y142.808 E39.36935
G1 X169.396 Y143.562 E39.43652
G1 X169.222 Y143.748 E39.45431
G1 X168.727 Y144.218 E39.50199
G1 X168.222 Y144.6 E39.54621
G1 X168.044 Y144.72 E39.56121
G1 X167.456 Y145.068 E39.60893
G1 X166.831 Y145.346 E39.65671
G1 X166.257 Y145.528 E39.69877
G1 X165.848 Y145.635 E39.7283
G1 X165.178 Y145.769 E39.77602
G1 X164.464 Y145.824 E39.82604
G1 X163.657 Y145.837 E39.88241
G1 X163.565 Y145.838 E39.88884
G1 X158.343 Y145.84 E40.25357
G1 X46.377 Y145.84 E48.07398
G1 X46.292 Y145.839 E48.07992
G1 X45.607 Y145.829 E48.12777
G1 X44.623 Y145.731 E48.19684
G1 X44.317 Y145.674 E48.21858
G1 X43.653 Y145.51 E48.26635
G1 X43.014 Y145.27 E48.31403
G1 X42.468 Y144.992 E48.35682
G1 X42.064 Y144.759 E48.3894
G1 X41.493 Y144.384 E48.43711
G1 X40.97 Y143.944 E48.48485
G1 X40.335 Y143.238 E48.55117
G1 X40.15 Y142.995 E48.5725
G1 X39.769 Y142.428 E48.62022
G1 X39.456 Y141.82 E48.66798
G1 X39.216 Y141.176 E48.71598
G1 X39.107 Y140.822 E48.74185
G1 X38.944 Y140.158 E48.78961
G1 X38.86 Y139.48 E48.83733
G1 X38.857 Y138.775 E48.88657
G1 X38.881 Y138.349 E48.91637
G1 X38.895 Y138.156 E48.92989
G1 X38.983 Y137.173 E48.99882
G1 X38.991 Y137.091 E49.00457
G1 X45.84 Y71.156 E53.63467
G1 X45.847 Y71.097 E53.63882
G1 X45.91 Y70.545 E53.67762
G1 X45.926 Y70.414 E53.68684
G1 X45.983 Y69.998 E53.71617
G1 X46.115 Y69.328 E53.76387
G1 X46.448 Y68.385 E53.83372
G1 X46.618 Y68.009 E53.86254
G1 X46.935 Y67.404 E53.91024
G1 X47.321 Y66.84 E53.95798
G1 X47.77 Y66.325 E54.0057
G1 X48.02 Y66.086 E54.02986
G1 X48.305 Y65.828 E54.05671
G1 X48.837 Y65.399 E54.10445
M204 S3000
M205 X10 Y10
G0 F3000 X49.188 Y65.837
M204 S1800
M205 X8 Y8
G1 F2400 X49.741 Y65.497 E54.14979
G1 X50.379 Y65.21 E54.19865
G1 X50.733 Y65.078 E54.22504
G1 X51.355 Y64.889 E54.27044
G1 X51.995 Y64.777 E54.31583
G1 X52.369 Y64.749 E54.34202
G1 X52.874 Y64.729 E54.37732
G1 X53.036 Y64.725 E54.38864
G1 X53.599 Y64.72 E54.42796
G1 X120.116 Y64.72 E59.07393
G1 X133.343 Y64.725 E59.99779
G1 X133.419 Y64.726 E60.0031
G1 X134.027 Y64.735 E60.04557
G1 X134.675 Y64.784 E60.09096
G1 X135.085 Y64.858 E60.12006
G1 X135.53 Y64.956 E60.15188
G1 X136.154 Y65.134 E60.1972
G1 X136.752 Y65.388 E60.24258
G1 X137.406 Y65.775 E60.29566
G1 X137.645 Y65.941 E60.31599
G1 X138.155 Y66.344 E60.36139
G1 X138.611 Y66.806 E60.40673
G1 X138.884 Y67.146 E60.43718
G1 X139.08 Y67.412 E60.46026
G1 X139.432 Y67.958 E60.50564
G1 X139.588 Y68.256 E60.52913
G1 X139.913 Y68.932 E60.58152
G1 X139.975 Y69.067 E60.59189
G1 X167.194 Y130.014 E65.25405
G1 X169.776 Y135.797 E65.69641
G1 X169.806 Y135.866 E65.70166
G1 X170.081 Y136.506 E65.75032
G1 X170.3 Y137.117 E65.79565
G1 X170.398 Y137.508 E65.82381
G1 X170.478 Y137.89 E65.85107
G1 X170.572 Y138.533 E65.89645
G1 X170.586 Y139.182 E65.9418
G1 X170.528 Y139.778 E65.98362
G1 X170.473 Y140.134 E66.00878
G1 X170.335 Y140.769 E66.05417
G1 X170.119 Y141.382 E66.09956
G1 X169.962 Y141.72 E66.12559
G1 X169.838 Y141.964 E66.14471
G1 X169.509 Y142.524 E66.19008
G1 X168.987 Y143.179 E66.24858
G1 X168.813 Y143.365 E66.26637
G1 X168.341 Y143.811 E66.31172
G1 X167.908 Y144.136 E66.34954
G1 X167.73 Y144.256 E66.36453
G1 X167.171 Y144.585 E66.40984
G1 X166.574 Y144.843 E66.45526
G1 X166.115 Y144.986 E66.48884
G1 X165.706 Y145.093 E66.51837
G1 X165.069 Y145.219 E66.56372
G1 X164.455 Y145.264 E66.60673
G1 X163.648 Y145.277 E66.6631
G1 X163.565 Y145.278 E66.6689
G1 X158.343 Y145.28 E67.03363
G1 X46.377 Y145.28 E74.85404
G1 X46.3 Y145.279 E74.85942
G1 X45.615 Y145.269 E74.90727
G1 X44.725 Y145.181 E74.96974
G1 X44.419 Y145.124 E74.99148
G1 X43.789 Y144.966 E75.03684
G1 X43.183 Y144.731 E75.08224
G1 X42.748 Y144.507 E75.11642
G1 X42.344 Y144.274 E75.14899
G1 X41.802 Y143.915 E75.1944
G1 X41.309 Y143.493 E75.23973
G1 X40.781 Y142.898 E75.29529
G1 X40.596 Y142.655 E75.31662
G1 X40.235 Y142.115 E75.36199
G1 X39.943 Y141.535 E75.40734
G1 X39.751 Y141.011 E75.44632
G1 X39.642 Y140.657 E75.47219
G1 X39.489 Y140.025 E75.51761
G1 X39.415 Y139.38 E75.56296
G1 X39.416 Y138.806 E75.60305
G1 X39.44 Y138.38 E75.63285
G1 X39.453 Y138.206 E75.64504
G1 X39.541 Y137.223 E75.71397
G1 X39.548 Y137.148 E75.71923
G1 X46.397 Y71.213 E80.34933
G1 X46.403 Y71.16 E80.35305
G1 X46.466 Y70.608 E80.39186
G1 X46.481 Y70.49 E80.40017
G1 X46.538 Y70.074 E80.42949
G1 X46.665 Y69.437 E80.47486
G1 X46.958 Y68.616 E80.53575
G1 X47.128 Y68.24 E80.56457
G1 X47.431 Y67.665 E80.60997
G1 X47.803 Y67.133 E80.65531
G1 X48.395 Y66.501 E80.71579
G1 X48.68 Y66.243 E80.74264
G1 X49.188 Y65.837 E80.78806
M204 S3000
M205 X10 Y10
G1 F2400 E74.78806
;MESH:soflekeybaord-palm-R.stl
G0 F3000 X53.184 Y69.336
G0 X53.212 Y70.86
G0 X163.28 Y138.598
M204 S1800
M205 X8 Y8
;TYPE:WALL-INNER
G1 F2400 E80.78806
G1 F1800 X158.341 Y138.6 E81.13303
G1 X46.404 Y138.6 E88.95142
G1 X46.114 Y138.6 E88.97167
G1 X46.117 Y138.564 E88.9742
G1 X46.146 Y138.276 E88.98739
G1 X53.082 Y71.513 E93.67564
G1 X53.096 Y71.402 E93.68345
G1 X53.223 Y71.4 E93.69232
G1 X120.114 Y71.4 E98.36441
G1 X133.705 Y71.405 E99.31369
G1 X161.095 Y132.737 E104.00528
G1 X163.536 Y138.205 E104.42352
G1 X163.711 Y138.598 E104.45357
G1 X163.281 Y138.598 E104.47102
G1 X163.28 Y138.598 E104.47109
M204 S3000
M205 X10 Y10
G0 F3000 X164.092 Y139.158
M204 S1800
M205 X8 Y8
G1 F1800 X158.341 Y139.16 E104.87277
G1 X45.902 Y139.16 E112.72622
G1 X45.755 Y139.16 E112.73649
G1 X45.617 Y139.132 E112.74632
G1 X45.553 Y139.087 E112.75179
G1 X45.524 Y138.993 E112.75866
G1 X45.534 Y138.847 E112.76888
G1 X45.558 Y138.524 E112.7915
G1 X52.526 Y71.444 E117.502
G1 X52.582 Y70.993 E117.53374
G1 X52.619 Y70.915 E117.53977
G1 X52.667 Y70.873 E117.54423
G1 X52.736 Y70.849 E117.54933
G1 X53.212 Y70.84 E117.58258
G1 X120.114 Y70.84 E122.25544
G1 X133.91 Y70.845 E123.21904
G1 X134.039 Y70.877 E123.22832
G1 X134.052 Y70.886 E123.22943
G1 X134.141 Y71.01 E123.24009
G1 X161.606 Y132.509 E127.94446
G1 X164.377 Y138.717 E128.4193
G1 X164.444 Y138.867 E128.43077
G1 X164.472 Y139.015 E128.44129
G1 X164.462 Y139.063 E128.44472
G1 X164.45 Y139.086 E128.44653
G1 X164.417 Y139.12 E128.44984
G1 X164.257 Y139.158 E128.46132
G1 X164.092 Y139.158 E128.47285
M204 S3000
M205 X10 Y10
G0 F3000 X164.092 Y139.058
G0 X133.898 Y70.944
G0 X133.979 Y70.285
M204 S1800
M205 X8 Y8
;TYPE:WALL-OUTER
G1 F1800 X134.272 Y70.357 E128.49392
G1 X134.452 Y70.482 E128.50923
G1 X134.628 Y70.729 E128.53041
G1 X162.117 Y132.281 E133.23885
G1 X164.982 Y138.7 E133.72982
G1 X165.043 Y139.02 E133.75257
G1 X164.995 Y139.254 E133.76926
G1 X164.908 Y139.417 E133.78216
G1 X164.771 Y139.561 E133.79605
G1 X164.649 Y139.641 E133.80624
G1 X164.321 Y139.718 E133.82977
G1 X158.341 Y139.72 E134.24745
G1 X45.697 Y139.72 E142.11521
G1 X45.392 Y139.658 E142.13695
G1 X45.143 Y139.484 E142.15817
G1 X45.051 Y139.36 E142.16896
G1 X44.957 Y139.056 E142.19118
G1 X44.999 Y138.483 E142.23131
G1 X51.97 Y71.375 E146.94377
G1 X52.037 Y70.833 E146.98192
G1 X52.163 Y70.571 E147.00223
G1 X52.38 Y70.38 E147.02242
G1 X52.636 Y70.291 E147.04135
G1 X53.201 Y70.28 E147.08082
G1 X120.114 Y70.28 E151.75444
G1 X133.979 Y70.285 E152.72286
M204 S3000
M205 X10 Y10
G0 F3000 X134.173 Y70.332
G0 X133.998 Y70.967
G0 X133.347 Y71.955
M204 S1800
M205 X8 Y8
;TYPE:SKIN
G1 F1800 X160.592 Y132.961 E157.38952
G1 X162.862 Y138.048 E157.7786
G1 X158.341 Y138.05 E158.09438
G1 X46.724 Y138.05 E165.89041
G1 X53.591 Y71.95 E170.5321
G1 X120.114 Y71.95 E175.17848
G1 X133.347 Y71.955 E176.10276
M204 S3000
M205 X10 Y10
G0 F3000 X132.403 Y72.214
M204 S1800
M205 X8 Y8
G1 F1800 X133.801 Y73.612 E176.24085
G1 X133.871 Y73.682
M204 S3000
M205 X10 Y10
G0 F3000 X134.44 Y75.043
M204 S1800
M205 X8 Y8
G1 F1800 X131.611 Y72.214 E176.52029
M204 S3000
M205 X10 Y10
G0 F3000 X130.818 Y72.213
M204 S1800
M205 X8 Y8
G1 F1800 X135.08 Y76.475 E176.94128
G1 X135.15 Y76.545
M204 S3000
M205 X10 Y10
G0 F3000 X135.719 Y77.906
M204 S1800
M205 X8 Y8
G1 F1800 X130.027 Y72.213 E177.50357
M204 S3000
M205 X10 Y10
G0 F3000 X129.234 Y72.213
M204 S1800
M205 X8 Y8
G1 F1800 X136.357 Y79.336 E178.20716
G1 X136.427 Y79.406
M204 S3000
M205 X10 Y10
G0 F3000 X136.996 Y80.767
M204 S1800
M205 X8 Y8
G1 F1800 X128.442 Y72.213 E179.05211
M204 S3000
M205 X10 Y10
G0 F3000 X127.65 Y72.213
M204 S1800
M205 X8 Y8
G1 F1800 X137.636 Y82.199 E180.0385
G1 X137.706 Y82.269
M204 S3000
M205 X10 Y10
G0 F3000 X138.275 Y83.63
M204 S1800
M205 X8 Y8
G1 F1800 X126.857 Y72.212 E181.16634
M204 S3000
M205 X10 Y10
G0 F3000 X126.065 Y72.212
M204 S1800
M205 X8 Y8
G1 F1800 X138.914 Y85.061 E182.43554
G1 X138.984 Y85.131
M204 S3000
M205 X10 Y10
G0 F3000 X139.553 Y86.491
M204 S1800
M205 X8 Y8
G1 F1800 X125.273 Y72.211 E183.84608
M204 S3000
M205 X10 Y10
G0 F3000 X124.481 Y72.211
M204 S1800
M205 X8 Y8
G1 F1800 X140.192 Y87.923 E185.39802
G1 X140.262 Y87.993
M204 S3000
M205 X10 Y10
G0 F3000 X140.831 Y89.354
M204 S1800
M205 X8 Y8
G1 F1800 X123.688 Y72.211 E187.09137
M204 S3000
M205 X10 Y10
G0 F3000 X122.896 Y72.211
M204 S1800
M205 X8 Y8
G1 F1800 X141.47 Y90.785 E188.92606
G1 X141.54 Y90.855
M204 S3000
M205 X10 Y10
G0 F3000 X142.11 Y92.216
M204 S1800
M205 X8 Y8
G1 F1800 X122.104 Y72.211 E190.90216
M204 S3000
M205 X10 Y10
G0 F3000 X121.311 Y72.21
M204 S1800
M205 X8 Y8
G1 F1800 X142.748 Y93.647 E193.01965
G1 X142.818 Y93.717
M204 S3000
M205 X10 Y10
G0 F3000 X143.387 Y95.078
M204 S1800
M205 X8 Y8
G1 F1800 X120.519 Y72.21 E195.2785
M204 S3000
M205 X10 Y10
G0 F3000 X119.727 Y72.209
M204 S1800
M205 X8 Y8
G1 F1800 X144.027 Y96.509 E197.67879
G1 X144.097 Y96.579
M204 S3000
M205 X10 Y10
G0 F3000 X144.666 Y97.94
M204 S1800
M205 X8 Y8
G1 F1800 X118.935 Y72.209 E200.22044
M204 S3000
M205 X10 Y10
G0 F3000 X118.143 Y72.209
M204 S1800
M205 X8 Y8
G1 F1800 X145.305 Y99.371 E202.90343
G1 X145.375 Y99.441
M204 S3000
M205 X10 Y10
G0 F3000 X145.944 Y100.802
M204 S1800
M205 X8 Y8
G1 F1800 X117.351 Y72.209 E205.72778
M204 S3000
M205 X10 Y10
G0 F3000 X116.559 Y72.209
M204 S1800
M205 X8 Y8
G1 F1800 X146.583 Y102.233 E208.69348
G1 X146.653 Y102.303
M204 S3000
M205 X10 Y10
G0 F3000 X147.222 Y103.664
M204 S1800
M205 X8 Y8
G1 F1800 X115.767 Y72.209 E211.80052
M204 S3000
M205 X10 Y10
G0 F3000 X114.975 Y72.209
M204 S1800
M205 X8 Y8
G1 F1800 X147.861 Y105.095 E215.04892
G1 X147.931 Y105.165
M204 S3000
M205 X10 Y10
G0 F3000 X148.5 Y106.526
M204 S1800
M205 X8 Y8
G1 F1800 X114.183 Y72.209 E218.43867
M204 S3000
M205 X10 Y10
G0 F3000 X113.391 Y72.209
M204 S1800
M205 X8 Y8
G1 F1800 X149.139 Y107.957 E221.96977
G1 X149.209 Y108.027
M204 S3000
M205 X10 Y10
G0 F3000 X149.778 Y109.388
M204 S1800
M205 X8 Y8
G1 F1800 X112.599 Y72.209 E225.64222
M204 S3000
M205 X10 Y10
G0 F3000 X111.807 Y72.209
M204 S1800
M205 X8 Y8
G1 F1800 X150.417 Y110.819 E229.45603
G1 X150.487 Y110.889
M204 S3000
M205 X10 Y10
G0 F3000 X151.057 Y112.251
M204 S1800
M205 X8 Y8
G1 F1800 X111.015 Y72.209 E233.41128
M204 S3000
M205 X10 Y10
G0 F3000 X110.223 Y72.209
M204 S1800
M205 X8 Y8
G1 F1800 X151.695 Y113.681 E237.50778
G1 X151.765 Y113.751
M204 S3000
M205 X10 Y10
G0 F3000 X152.334 Y115.112
M204 S1800
M205 X8 Y8
G1 F1800 X109.431 Y72.209 E241.74563
