;FLAVOR:Marlin
;TIME:10725
;Filament used: 23.5579m
;Layer height: 0.3
;MINX:38.286
;MINY:63.6
;MINZ:0.3
;MAXX:171.712
;MAXY:146.4
;MAXZ:24
;Generated with Cura_SteamEngine 4.2.1
M140 S60
M105
M190 S60
M104 S200
M105
M109 S200
M82 ;absolute extrusion mode
G21 ;metric values
G90 ;absolute positioning
M82 ;set extruder to absolute mode
M107 ;start with the fan off
G28 X0 Y0 ;move X/Y to min endstops
G28 Z0 ;move Z to min endstops
G1 Z15.0 F100 ;move the platform down 15mm
G92 E0 ;zero the extruded length
G1 F200 E3 ;extrude 3mm of feed stock
G92 E0 ;zero the extruded length again
G1 F100
M117 Printing...
G5
M141 S28
G92 E0
G92 E0
G1 F2400 E-6
;LAYER_COUNT:80
;LAYER:0
M106 S255
M204 S3000
M205 X10 Y10
G0 F3000 X70.574 Y66.034 Z0.3
M204 S1800
M205 X8 Y8
;TYPE:SKIRT
G1 F2400 E0
G1 X71.077 Y65.526 E0.04993
G1 X71.633 Y65.076 E0.09989
G1 X71.954 Y64.86 E0.12692
G1 X72.236 Y64.682 E0.15021
G1 X72.861 Y64.335 E0.20014
G1 X73.521 Y64.059 E0.25011
G1 X74.283 Y63.842 E0.30545
G1 X74.662 Y63.759 E0.33254
G1 X75.368 Y63.645 E0.3825
G1 X75.937 Y63.612 E0.4223
G1 X76.689 Y63.601 E0.47483
G1 X76.783 Y63.6 E0.4814
G1 X156.094 Y63.6 E6.02098
G1 X156.634 Y63.603 E6.0587
G1 X156.734 Y63.604 E6.06568
G1 X157.536 Y63.621 E6.12171
G1 X158.249 Y63.677 E6.17166
G1 X158.951 Y63.811 E6.22158
G1 X159.515 Y63.98 E6.26271
G1 X159.872 Y64.105 E6.28913
G1 X160.533 Y64.378 E6.33908
G1 X161.159 Y64.724 E6.38903
G1 X161.934 Y65.296 E6.45631
G1 X162.223 Y65.545 E6.48296
G1 X162.738 Y66.042 E6.53295
G1 X163.195 Y66.593 E6.58295
G1 X163.587 Y67.191 E6.63289
G1 X163.77 Y67.532 E6.65992
G1 X163.933 Y67.858 E6.68538
G1 X164.217 Y68.514 E6.7353
G1 X164.426 Y69.199 E6.78533
G1 X164.543 Y69.8 E6.82809
G1 X164.647 Y70.516 E6.87863
G1 X164.671 Y70.702 E6.89173
G1 X164.712 Y71.057 E6.91669
G1 X164.72 Y71.13 E6.92182
G1 X171.584 Y137.211 E11.56216
G1 X171.591 Y137.282 E11.56714
G1 X171.661 Y138.038 E11.62017
G1 X171.673 Y138.185 E11.63048
G1 X171.703 Y138.617 E11.66072
G1 X171.712 Y139.332 E11.71067
G1 X171.642 Y140.044 E11.76064
G1 X171.486 Y140.766 E11.81223
G1 X171.382 Y141.142 E11.83948
G1 X171.153 Y141.82 E11.88946
G1 X170.85 Y142.468 E11.93943
G1 X170.502 Y143.041 E11.98625
G1 X170.337 Y143.283 E12.00671
G1 X169.902 Y143.851 E12.05668
G1 X169.406 Y144.366 E12.10662
G1 X168.78 Y144.878 E12.1631
G1 X168.564 Y145.033 E12.18167
G1 X168.464 Y145.103 E12.1902
G1 X168.374 Y145.165 E12.19783
G1 X167.763 Y145.538 E12.24783
G1 X167.114 Y145.839 E12.2978
G1 X166.136 Y146.142 E12.36931
G1 X165.719 Y146.235 E12.39916
G1 X165.013 Y146.351 E12.44913
G1 X164.428 Y146.387 E12.49007
G1 X163.672 Y146.399 E12.54288
G1 X163.57 Y146.4 E12.55
G1 X46.377 Y146.4 E20.7355
G1 X46.285 Y146.399 E20.74192
G1 X45.587 Y146.389 E20.79068
G1 X44.861 Y146.337 E20.84152
G1 X44.605 Y146.304 E20.85955
G1 X43.902 Y146.174 E20.90948
G1 X43.096 Y145.919 E20.96853
G1 X42.891 Y145.839 E20.9839
G1 X42.241 Y145.542 E21.03381
G1 X41.529 Y145.107 E21.09209
G1 X41.305 Y144.949 E21.11124
G1 X40.745 Y144.505 E21.16115
G1 X40.237 Y144.001 E21.21113
G1 X39.943 Y143.65 E21.24311
G1 X39.785 Y143.447 E21.26108
G1 X39.378 Y142.859 E21.31103
G1 X38.974 Y142.083 E21.37214
G1 X38.854 Y141.809 E21.39303
G1 X38.604 Y141.139 E21.44298
G1 X38.43 Y140.445 E21.49295
G1 X38.365 Y140.029 E21.52236
G1 X38.335 Y139.787 E21.53939
G1 X38.286 Y139.074 E21.58931
G1 X38.318 Y138.359 E21.6393
G1 X38.382 Y137.898 E21.67181
G1 X38.425 Y137.652 E21.68925
G1 X38.587 Y136.955 E21.73923
G1 X38.77 Y136.42 E21.77872
G1 X39.083 Y135.621 E21.83866
G1 X39.198 Y135.345 E21.85955
G1 X66.412 Y74.407 E26.52099
G1 X68.998 Y68.618 E26.96384
G1 X69.03 Y68.547 E26.96928
G1 X69.304 Y67.953 E27.01497
G1 X69.64 Y67.322 E27.0649
G1 X69.877 Y66.958 E27.09524
G1 X70.131 Y66.596 E27.12613
G1 X70.574 Y66.034 E27.17611
M204 S3000
M205 X10 Y10
G0 F3000 X71.014 Y66.382
M204 S1800
M205 X8 Y8
G1 F2400 X71.498 Y65.9 E27.22382
G1 X72.253 Y65.334 E27.28972
G1 X72.535 Y65.156 E27.31302
G1 X73.133 Y64.825 E27.36076
G1 X73.765 Y64.567 E27.40844
G1 X74.403 Y64.389 E27.4547
G1 X74.782 Y64.306 E27.4818
G1 X75.456 Y64.199 E27.52946
G1 X75.946 Y64.172 E27.56374
G1 X76.698 Y64.161 E27.61627
G1 X76.783 Y64.16 E27.62221
G1 X156.09 Y64.16 E33.16151
G1 X156.63 Y64.163 E33.19923
G1 X156.722 Y64.164 E33.20565
G1 X157.524 Y64.181 E33.26168
G1 X158.205 Y64.236 E33.3094
G1 X158.875 Y64.369 E33.35711
G1 X159.33 Y64.508 E33.39034
G1 X159.687 Y64.633 E33.41676
G1 X160.317 Y64.896 E33.46444
G1 X160.913 Y65.231 E33.5122
G1 X161.569 Y65.721 E33.56939
G1 X161.858 Y65.97 E33.59603
G1 X162.349 Y66.445 E33.64375
G1 X162.78 Y66.975 E33.69146
G1 X163.269 Y67.782 E33.75737
G1 X163.432 Y68.108 E33.78283
G1 X163.702 Y68.736 E33.83057
G1 X163.896 Y69.391 E33.87829
G1 X163.988 Y69.881 E33.91311
G1 X164.092 Y70.597 E33.96364
G1 X164.114 Y70.766 E33.97555
G1 X164.155 Y71.121 E34.00051
G1 X164.163 Y71.188 E34.00522
G1 X171.027 Y137.269 E38.64557
G1 X171.033 Y137.334 E38.65012
G1 X171.103 Y138.09 E38.70315
G1 X171.114 Y138.223 E38.71248
G1 X171.144 Y138.655 E38.74272
G1 X171.151 Y139.339 E38.7905
G1 X171.079 Y140.018 E38.83819
G1 X170.947 Y140.617 E38.88103
G1 X170.843 Y140.993 E38.90828
G1 X170.622 Y141.64 E38.95603
G1 X170.328 Y142.256 E39.00371
G1 X170.039 Y142.726 E39.04225
G1 X169.874 Y142.968 E39.0627
G1 X169.457 Y143.509 E39.11041
G1 X168.979 Y143.997 E39.15813
G1 X168.454 Y144.423 E39.20535
G1 X168.238 Y144.578 E39.22392
G1 X168.146 Y144.642 E39.23174
G1 X168.056 Y144.704 E39.23938
G1 X167.472 Y145.058 E39.28708
G1 X166.85 Y145.342 E39.33484
G1 X166.014 Y145.595 E39.39584
G1 X165.597 Y145.688 E39.42568
G1 X164.923 Y145.797 E39.47337
G1 X164.419 Y145.827 E39.50864
G1 X163.663 Y145.839 E39.56145
G1 X163.57 Y145.84 E39.56794
G1 X46.377 Y145.84 E47.75344
G1 X46.293 Y145.839 E47.75931
G1 X45.595 Y145.829 E47.80806
G1 X44.932 Y145.782 E47.85449
G1 X44.676 Y145.749 E47.87252
G1 X44.005 Y145.622 E47.92022
G1 X43.3 Y145.397 E47.9719
G1 X43.095 Y145.317 E47.98728
G1 X42.474 Y145.032 E48.035
G1 X41.852 Y144.649 E48.08602
G1 X41.628 Y144.491 E48.10517
G1 X41.094 Y144.065 E48.15288
G1 X40.613 Y143.58 E48.20059
G1 X40.385 Y143.306 E48.22548
G1 X40.227 Y143.103 E48.24345
G1 X39.84 Y142.54 E48.29117
G1 X39.487 Y141.859 E48.34475
G1 X39.367 Y141.585 E48.36564
G1 X39.13 Y140.944 E48.41337
G1 X38.92 Y139.96 E48.48365
G1 X38.89 Y139.718 E48.50068
G1 X38.846 Y139.037 E48.54835
G1 X38.882 Y138.354 E48.59612
G1 X38.933 Y137.994 E48.62151
G1 X38.976 Y137.748 E48.63895
G1 X39.133 Y137.083 E48.68668
G1 X39.291 Y136.624 E48.72059
G1 X39.604 Y135.825 E48.78052
G1 X39.71 Y135.574 E48.79955
G1 X66.924 Y74.636 E53.461
G1 X69.51 Y68.847 E53.90385
G1 X69.539 Y68.782 E53.90882
G1 X69.813 Y68.188 E53.95451
G1 X70.135 Y67.585 E54.00225
G1 X70.335 Y67.28 E54.02773
G1 X70.589 Y66.918 E54.05861
G1 X71.014 Y66.382 E54.10639
M204 S3000
M205 X10 Y10
G0 F3000 X71.453 Y66.732
M204 S1800
M205 X8 Y8
G1 F2400 X71.917 Y66.277 E54.15178
G1 X72.552 Y65.807 E54.20696
G1 X72.834 Y65.629 E54.23026
G1 X73.403 Y65.317 E54.27558
G1 X74.007 Y65.077 E54.32098
G1 X74.522 Y64.936 E54.35827
G1 X74.901 Y64.853 E54.38537
G1 X75.543 Y64.754 E54.43074
G1 X75.954 Y64.732 E54.45949
G1 X76.706 Y64.721 E54.51202
G1 X76.783 Y64.72 E54.5174
G1 X156.087 Y64.72 E60.05649
G1 X156.627 Y64.723 E60.09421
G1 X156.71 Y64.724 E60.1
G1 X157.512 Y64.741 E60.15603
G1 X158.159 Y64.795 E60.20138
G1 X158.795 Y64.928 E60.24676
G1 X159.145 Y65.037 E60.27237
G1 X159.502 Y65.162 E60.29879
G1 X160.101 Y65.414 E60.34418
G1 X160.664 Y65.737 E60.38951
G1 X161.203 Y66.145 E60.43673
G1 X161.492 Y66.394 E60.46337
G1 X161.958 Y66.847 E60.50877
G1 X162.363 Y67.355 E60.55414
G1 X162.769 Y68.033 E60.60934
G1 X162.932 Y68.359 E60.6348
G1 X163.186 Y68.957 E60.68018
G1 X163.365 Y69.581 E60.72552
G1 X163.434 Y69.961 E60.7525
G1 X163.538 Y70.677 E60.80303
G1 X163.558 Y70.83 E60.81381
G1 X163.599 Y71.185 E60.83877
G1 X163.606 Y71.245 E60.84299
G1 X170.47 Y137.326 E65.48333
G1 X170.476 Y137.385 E65.48747
G1 X170.546 Y138.141 E65.5405
G1 X170.555 Y138.262 E65.54898
G1 X170.585 Y138.694 E65.57922
G1 X170.59 Y139.344 E65.62463
G1 X170.516 Y139.989 E65.66997
G1 X170.407 Y140.468 E65.70428
G1 X170.303 Y140.844 E65.73153
G1 X170.092 Y141.458 E65.77688
G1 X169.806 Y142.042 E65.8223
G1 X169.576 Y142.41 E65.85261
G1 X169.411 Y142.652 E65.87307
G1 X169.013 Y143.166 E65.91847
G1 X168.555 Y143.626 E65.96381
G1 X168.127 Y143.968 E66.00208
G1 X167.911 Y144.123 E66.02065
G1 X167.828 Y144.181 E66.02772
G1 X167.738 Y144.243 E66.03535
G1 X167.182 Y144.578 E66.08069
G1 X166.588 Y144.842 E66.12609
G1 X165.892 Y145.048 E66.17679
G1 X165.475 Y145.141 E66.20663
G1 X164.834 Y145.244 E66.25198
G1 X164.41 Y145.267 E66.28164
G1 X163.654 Y145.279 E66.33445
G1 X163.57 Y145.28 E66.34031
G1 X46.377 Y145.28 E74.52581
G1 X46.301 Y145.279 E74.53112
G1 X45.603 Y145.269 E74.57988
G1 X45.004 Y145.227 E74.62182
G1 X44.748 Y145.194 E74.63985
G1 X44.11 Y145.071 E74.68523
G1 X43.503 Y144.876 E74.72976
G1 X43.298 Y144.796 E74.74513
G1 X42.709 Y144.523 E74.79047
G1 X42.175 Y144.192 E74.83435
G1 X41.951 Y144.034 E74.8535
G1 X41.444 Y143.627 E74.89891
G1 X40.827 Y142.962 E74.96227
G1 X40.669 Y142.759 E74.98024
G1 X40.303 Y142.223 E75.02557
G1 X39.999 Y141.634 E75.07187
G1 X39.879 Y141.36 E75.09276
G1 X39.656 Y140.75 E75.13813
G1 X39.476 Y139.892 E75.19936
G1 X39.446 Y139.65 E75.21639
G1 X39.406 Y139.001 E75.26181
G1 X39.485 Y138.091 E75.32561
G1 X39.528 Y137.845 E75.34305
G1 X39.679 Y137.213 E75.38843
G1 X39.813 Y136.828 E75.41691
G1 X40.126 Y136.029 E75.47684
G1 X40.221 Y135.802 E75.49403
G1 X67.435 Y74.864 E80.15547
G1 X70.021 Y69.075 E80.59832
G1 X70.048 Y69.016 E80.60286
G1 X70.322 Y68.422 E80.64855
G1 X70.794 Y67.601 E80.71469
G1 X71.048 Y67.239 E80.74558
G1 X71.453 Y66.732 E80.7909
M204 S3000
M205 X10 Y10
G1 F2400 E74.7909
;MESH:soflekeybaord-palm-L.stl
G0 F3000 X75.329 Y69.511
G0 X76.125 Y70.859
G0 X163.853 Y138.281
M204 S1800
M205 X8 Y8
;TYPE:WALL-INNER
G1 F2400 E80.7909
G1 F1800 X163.883 Y138.575 E80.81154
G1 X163.885 Y138.6 E80.81329
G1 X163.589 Y138.6 E80.82666
G1 X46.287 Y138.6 E89.01977
G1 X73.534 Y77.587 E93.68694
G1 X76.297 Y71.4 E94.16021
G1 X156.326 Y71.4 E99.74994
G1 X156.904 Y71.406 E99.79031
G1 X163.853 Y138.281 E104.48643
M204 S3000
M205 X10 Y10
G0 F3000 X73.114 Y77.399
G0 X73.023 Y77.359
M204 S1800
M205 X8 Y8
G1 F1800 X75.856 Y71.015 E104.97171
G1 X75.949 Y70.887 E104.98276
G1 X75.977 Y70.87 E104.98505
G1 X76.123 Y70.84 E104.99546
G1 X156.332 Y70.84 E110.59776
G1 X157.264 Y70.85 E110.66286
G1 X157.344 Y70.879 E110.66881
G1 X157.38 Y70.911 E110.67217
G1 X157.417 Y70.989 E110.6782
G1 X157.471 Y71.427 E110.70902
G1 X164.441 Y138.528 E115.421
G1 X164.467 Y138.837 E115.44265
G1 X164.479 Y138.98 E115.45268
G1 X164.448 Y139.087 E115.46046
G1 X164.385 Y139.132 E115.46587
G1 X164.245 Y139.16 E115.47584
G1 X164.101 Y139.16 E115.4859
G1 X45.898 Y139.16 E123.74194
G1 X45.729 Y139.16 E123.75374
G1 X45.632 Y139.147 E123.76058
G1 X45.604 Y139.136 E123.76268
G1 X45.577 Y139.116 E123.76502
G1 X45.539 Y139.068 E123.7693
G1 X45.525 Y139.024 E123.77253
G1 X45.555 Y138.869 E123.78355
G1 X45.623 Y138.715 E123.79531
G1 X45.723 Y138.49 E123.81251
G1 X73.023 Y77.359 E128.48871
M204 S3000
M205 X10 Y10
G0 F3000 X73.114 Y77.399
G0 X157.293 Y70.964
G0 X157.637 Y70.389
M204 S1800
M205 X8 Y8
;TYPE:WALL-OUTER
G1 F1800 X157.836 Y70.568 E128.50741
G1 X157.962 Y70.832 E128.52784
G1 X158.028 Y71.369 E128.56563
G1 X164.999 Y138.482 E133.27844
G1 X165.045 Y139.035 E133.3172
G1 X164.959 Y139.34 E133.33933
G1 X164.856 Y139.485 E133.35175
G1 X164.608 Y139.658 E133.37287
G1 X164.303 Y139.72 E133.39461
G1 X45.692 Y139.72 E141.67915
G1 X45.49 Y139.693 E141.69339
G1 X45.33 Y139.63 E141.7054
G1 X45.183 Y139.523 E141.7181
G1 X45.052 Y139.354 E141.73303
G1 X44.98 Y139.18 E141.74618
G1 X44.958 Y139.006 E141.75843
G1 X45.017 Y138.7 E141.7802
G1 X45.211 Y138.263 E141.81359
G1 X72.512 Y77.131 E146.48989
G1 X75.37 Y70.732 E146.97939
G1 X75.561 Y70.469 E147.00209
G1 X75.766 Y70.341 E147.01897
G1 X76.065 Y70.28 E147.04029
G1 X156.338 Y70.28 E152.64706
G1 X157.365 Y70.291 E152.71879
G1 X157.637 Y70.389 E152.73899
M204 S3000
M205 X10 Y10
G0 F3000 X157.786 Y70.523
G0 X157.301 Y70.971
G0 X156.407 Y71.951
M204 S1800
M205 X8 Y8
;TYPE:SKIN
G1 F1800 X163.274 Y138.05 E157.3806
G1 X47.136 Y138.05 E165.49241
G1 X74.037 Y77.811 E170.10036
G1 X76.655 Y71.95 E170.54871
G1 X156.321 Y71.95 E176.11309
G1 X156.407 Y71.951 E176.11909
M204 S3000
M205 X10 Y10
G0 F3000 X155.365 Y72.209
M204 S1800
M205 X8 Y8
G1 F1800 X156.265 Y73.109 E176.20799
M204 S3000
M205 X10 Y10
G0 F3000 X156.357 Y73.993
M204 S1800
M205 X8 Y8
G1 F1800 X154.573 Y72.209 E176.38421
M204 S3000
M205 X10 Y10
G0 F3000 X153.781 Y72.209
M204 S1800
M205 X8 Y8
G1 F1800 X156.448 Y74.876 E176.64765
M204 S3000
M205 X10 Y10
G0 F3000 X156.54 Y75.76
M204 S1800
M205 X8 Y8
G1 F1800 X152.989 Y72.209 E176.99841
M204 S3000
M205 X10 Y10
G0 F3000 X152.197 Y72.209
M204 S1800
M205 X8 Y8
G1 F1800 X156.632 Y76.644 E177.43649
M204 S3000
M205 X10 Y10
G0 F3000 X156.724 Y77.528
M204 S1800
M205 X8 Y8
G1 F1800 X151.405 Y72.209 E177.96189
M204 S3000
M205 X10 Y10
G0 F3000 X150.613 Y72.209
M204 S1800
M205 X8 Y8
G1 F1800 X156.816 Y78.412 E178.57461
M204 S3000
M205 X10 Y10
G0 F3000 X156.908 Y79.296
M204 S1800
M205 X8 Y8
G1 F1800 X149.821 Y72.209 E179.27464
M204 S3000
M205 X10 Y10
G0 F3000 X149.029 Y72.209
M204 S1800
M205 X8 Y8
G1 F1800 X156.999 Y80.179 E180.0619
M204 S3000
M205 X10 Y10
G0 F3000 X157.091 Y81.063
M204 S1800
M205 X8 Y8
G1 F1800 X148.237 Y72.209 E180.93648
M204 S3000
M205 X10 Y10
G0 F3000 X147.445 Y72.209
M204 S1800
M205 X8 Y8
G1 F1800 X157.183 Y81.947 E181.89837
M204 S3000
M205 X10 Y10
G0 F3000 X157.275 Y82.831
M204 S1800
M205 X8 Y8
G1 F1800 X146.653 Y72.209 E182.94759
M204 S3000
M205 X10 Y10
G0 F3000 X145.861 Y72.209
M204 S1800
M205 X8 Y8
G1 F1800 X157.367 Y83.715 E184.08412
M204 S3000
M205 X10 Y10
G0 F3000 X157.459 Y84.598
M204 S1800
M205 X8 Y8
G1 F1800 X145.07 Y72.209 E185.30788
M204 S3000
M205 X10 Y10
G0 F3000 X144.278 Y72.209
M204 S1800
M205 X8 Y8
G1 F1800 X157.55 Y85.482 E186.6189
M204 S3000
M205 X10 Y10
G0 F3000 X157.642 Y86.366
M204 S1800
M205 X8 Y8
G1 F1800 X143.486 Y72.209 E188.01725
M204 S3000
M205 X10 Y10
G0 F3000 X142.694 Y72.209
M204 S1800
M205 X8 Y8
G1 F1800 X157.734 Y87.249 E189.50286
M204 S3000
M205 X10 Y10
G0 F3000 X157.826 Y88.133
M204 S1800
M205 X8 Y8
G1 F1800 X141.902 Y72.209 E191.0758
M204 S3000
M205 X10 Y10
G0 F3000 X141.11 Y72.209
M204 S1800
M205 X8 Y8
G1 F1800 X157.918 Y89.017 E192.73605
M204 S3000
M205 X10 Y10
G0 F3000 X158.01 Y89.901
M204 S1800
M205 X8 Y8
G1 F1800 X140.318 Y72.209 E194.48362
M204 S3000
M205 X10 Y10
G0 F3000 X139.526 Y72.209
M204 S1800
M205 X8 Y8
G1 F1800 X158.102 Y90.785 E196.31851
M204 S3000
M205 X10 Y10
G0 F3000 X158.193 Y91.668
M204 S1800
M205 X8 Y8
G1 F1800 X138.734 Y72.209 E198.24063
M204 S3000
M205 X10 Y10
G0 F3000 X137.942 Y72.209
M204 S1800
M205 X8 Y8
G1 F1800 X158.285 Y92.552 E200.25006
M204 S3000
M205 X10 Y10
G0 F3000 X158.377 Y93.436
M204 S1800
M205 X8 Y8
G1 F1800 X137.15 Y72.209 E202.34681
M204 S3000
M205 X10 Y10
G0 F3000 X136.358 Y72.209
M204 S1800
M205 X8 Y8
G1 F1800 X158.468 Y94.32 E204.53083
M204 S3000
M205 X10 Y10
G0 F3000 X158.56 Y95.204
M204 S1800
M205 X8 Y8
G1 F1800 X135.566 Y72.209 E206.80217
M204 S3000
M205 X10 Y10
G0 F3000 X134.774 Y72.209
M204 S1800
M205 X8 Y8
G1 F1800 X158.652 Y96.088 E209.16083
M204 S3000
M205 X10 Y10
G0 F3000 X158.744 Y96.971
M204 S1800
M205 X8 Y8
G1 F1800 X133.982 Y72.209 E211.60676
M204 S3000
M205 X10 Y10
G0 F3000 X133.19 Y72.209
M204 S1800
M205 X8 Y8
G1 F1800 X158.835 Y97.855 E214.13996
M204 S3000
M205 X10 Y10
G0 F3000 X158.927 Y98.738
M204 S1800
M205 X8 Y8
G1 F1800 X132.398 Y72.209 E216.76043
M204 S3000
M205 X10 Y10
G0 F3000 X131.606 Y72.209
M204 S1800
M205 X8 Y8
G1 F1800 X159.019 Y99.622 E219.46822
M204 S3000
M205 X10 Y10
G0 F3000 X159.111 Y100.506
M204 S1800
M205 X8 Y8
G1 F1800 X130.814 Y72.209 E222.26333
M204 S3000
M205 X10 Y10
G0 F3000 X130.022 Y72.209
M204 S1800
M205 X8 Y8
G1 F1800 X159.203 Y101.39 E225.14576
M204 S3000
M205 X10 Y10
G0 F3000 X159.294 Y102.273
M204 S1800
M205 X8 Y8
G1 F1800 X129.23 Y72.209 E228.11541
M204 S3000
