; generated by PrusaSlicer 2.7.1+MacOS-arm64 on 2024-02-11 at 02:46:37 UTC


;
;
; 

; external perimeters extrusion width = 0.60mm
; perimeters extrusion width = 0.50mm
; infill extrusion width = 0.50mm
; solid infill extrusion width = 0.50mm
; top infill extrusion width = 0.45mm
; first layer extrusion width = 0.42mm

M73 P0 R101
M73 Q0 S102
M201 X1000 Y1000 Z200 E5000 ; sets maximum accelerations, mm/sec^2
M203 X200 Y200 Z12 E120 ; sets maximum feedrates, mm / sec
M204 S1250 T1250 ; sets acceleration (S) and retract acceleration (R), mm/sec^2
M205 X8.00 Y8.00 Z0.40 E4.50 ; sets the jerk limits, mm/sec
M205 S0 T0 ; sets the minimum extruding and travel feed rate, mm/sec

; printing object Merged id:0 copy 0
; stop printing object Merged id:0 copy 0

;TYPE:Custom
M862.3 P "MK3S" ; printer model check
M862.1 P0.4 ; nozzle diameter check
M115 U3.13.2 ; tell printer latest fw version
G90 ; use absolute coordinates
M83 ; extruder relative mode
M104 S215 ; set extruder temp
M140 S60 ; set bed temp
M190 S60 ; wait for bed temp
M109 S215 ; wait for extruder temp
G28 W ; home all without mesh bed level
G80 X44.0647 Y39.335 W161.994 H132.715 ; mesh bed levelling

G1 Z0.2 F720
G1 Y-3 F1000 ; go outside print area
G92 E0
G1 X60 E9 F1000 ; intro line
G1 X100 E12.5 F1000 ; intro line

G92 E0
M221 S95

; Don't change E values below. Excessive value can damage the printer.

M907 E538 ; set extruder motor current
G21 ; set units to millimeters
G90 ; use absolute coordinates
M83 ; use relative distances for extrusion
M900 K0.05 ; Filament gcode LA 1.5
M900 K30 ; Filament gcode LA 1.0

M107
;LAYER_CHANGE
;Z:0.2
;HEIGHT:0.2
;BEFORE_LAYER_CHANGE
G92 E0.0
;0.2


G1 E-.8 F2100
G1 Z.2 F720
;AFTER_LAYER_CHANGE
;0.2
; printing object Merged id:0 copy 0
G1 X106.946 Y113.408 F10800
G1 Z.2 F720
G1 E.8 F2100
M204 S800
;TYPE:Perimeter
;WIDTH:0.419999
G1 F1200
G1 X106.948 Y113.369 E.00122
G1 X107.297 Y111.094 E.07217
G1 X107.885 Y108.808 E.07401
G1 X108.701 Y106.597 E.07389
G1 X109.738 Y104.478 E.07397
G1 X111.016 Y102.427 E.07577
G1 X112.462 Y100.564 E.07394
G1 X114.089 Y98.856 E.07396
G1 X115.836 Y97.357 E.07218
G1 X117.77 Y96.007 E.07395
G1 X119.831 Y94.859 E.07397
G1 X121.998 Y93.927 E.07396
G1 X124.303 Y93.203 E.07575
G1 X126.614 Y92.731 E.07396
G1 X128.904 Y92.498 E.07217
G1 X131.263 Y92.496 E.07396
G1 X132.088 Y92.577 E.02599
G1 X133.667 Y92.74 E.04977
G1 X135.977 Y93.218 E.07396
G1 X138.173 Y93.907 E.07216
G1 X140.342 Y94.834 E.07396
G1 X142.405 Y95.976 E.07393
G1 X144.343 Y97.322 E.07398
G1 X146.137 Y98.858 E.07405
G1 X147.465 Y100.251 E.06034
;WIDTH:0.458437
G1 X147.553 Y100.316 E.00378
;WIDTH:0.496874
G1 X147.642 Y100.381 E.00416
;WIDTH:0.535312
G1 X147.73 Y100.446 E.00448
;WIDTH:0.573749
G1 X147.818 Y100.511 E.00483
;WIDTH:0.613311
G1 X147.874 Y100.549 E.00321
;WIDTH:0.652872
G1 X147.931 Y100.586 E.00345
G1 X147.918 Y100.482 E.00532
;WIDTH:0.606298
G1 X147.905 Y100.378 E.00491
;WIDTH:0.559723
G1 X147.892 Y100.274 E.0045
;WIDTH:0.513149
G1 X147.879 Y100.17 E.0041
;WIDTH:0.466574
G1 X147.866 Y100.066 E.00369
;WIDTH:0.419999
G1 X147.827 Y99.554 E.0161
G1 X147.906 Y99.105 E.01429
G1 X148.118 Y98.65 E.01574
G1 X148.427 Y98.279 E.01514
G1 X148.842 Y97.99 E.01586
G1 X149.326 Y97.82 E.01608
G1 X149.781 Y97.78 E.01432
G1 X150.266 Y97.863 E.01543
G1 X150.713 Y98.069 E.01543
G1 X151.091 Y98.384 E.01543
G1 X151.376 Y98.786 E.01545
G1 X151.546 Y99.247 E.01541
G1 X151.591 Y99.738 E.01546
G1 X151.508 Y100.223 E.01543
G1 X151.302 Y100.67 E.01543
G1 X150.987 Y101.048 E.01543
G1 X150.585 Y101.332 E.01543
G1 X150.123 Y101.503 E.01545
G1 X149.633 Y101.548 E.01543
G1 X149.148 Y101.465 E.01543
;WIDTH:0.466622
G1 X148.953 Y101.379 E.00751
;WIDTH:0.513244
G1 X148.759 Y101.293 E.0083
;WIDTH:0.559866
G1 X148.565 Y101.208 E.0091
;WIDTH:0.606488
G1 X148.37 Y101.122 E.00999
;WIDTH:0.637576
G1 X148.317 Y101.098 E.00288
G1 X148.349 Y101.175 E.00412
;WIDTH:0.594061
G1 X148.381 Y101.252 E.00382
;WIDTH:0.550546
G1 X148.413 Y101.329 E.00352
;WIDTH:0.50703
G1 X148.445 Y101.406 E.00322
;WIDTH:0.463515
G1 X148.477 Y101.483 E.00292
;WIDTH:0.419999
G1 X149.208 Y102.427 E.03744
G1 X150.459 Y104.428 E.07399
G1 X151.5 Y106.544 E.07394
G1 X152.322 Y108.755 E.07396
G1 X152.916 Y111.038 E.07396
G1 X153.027 Y111.745 E.02244
G1 X153.282 Y113.426 E.05331
G1 X153.399 Y115.725 E.07218
G1 X153.282 Y118.081 E.07396
G1 X152.928 Y120.413 E.07396
G1 X152.339 Y122.7 E.07405
G1 X151.849 Y124.028 E.04438
G1 X151.523 Y124.91 E.02948
G1 X150.484 Y127.034 E.07414
G1 X149.241 Y129.033 E.07381
G1 X147.8 Y130.9 E.07395
G1 X146.176 Y132.612 E.07399
G1 X145.714 Y133.012 E.01916
G1 X144.388 Y134.15 E.05479
G1 X142.454 Y135.501 E.07397
G1 X140.393 Y136.648 E.07395
G1 X138.226 Y137.581 E.07397
G1 X135.921 Y138.304 E.07574
G1 X133.61 Y138.776 E.07396
G1 X131.263 Y139.012 E.07396
G1 X128.904 Y139.009 E.07396
G1 X126.614 Y138.776 E.07217
G1 X124.303 Y138.304 E.07396
M73 Q0 S101
G1 X122.051 Y137.6 E.07398
G1 X119.831 Y136.648 E.07574
G1 X117.77 Y135.5 E.07397
G1 X115.881 Y134.185 E.07217
G1 X114.089 Y132.651 E.07396
G1 X112.462 Y130.943 E.07396
G1 X111.016 Y129.08 E.07394
G1 X110.641 Y128.484 E.02208
G1 X109.766 Y127.08 E.05187
G1 X108.723 Y124.961 E.07405
G1 X107.902 Y122.752 E.07389
G1 X107.308 Y120.469 E.07396
G1 X106.948 Y118.138 E.07395
G1 X106.899 Y117.239 E.02823
G1 X106.826 Y115.782 E.04574
G1 X106.943 Y113.468 E.07265
M204 S1000
G1 X107.318 Y113.452 F10800
M204 S800
;TYPE:External perimeter
G1 F1200
G1 X107.319 Y113.445 E.00022
G1 X107.669 Y111.151 E.07276
G1 X108.25 Y108.904 E.07277
G1 X109.055 Y106.728 E.07275
G1 X110.076 Y104.644 E.07276
G1 X111.303 Y102.674 E.07277
G1 X112.724 Y100.836 E.07284
G1 X114.321 Y99.155 E.0727
G1 X116.081 Y97.643 E.07275
G1 X117.985 Y96.316 E.07277
G1 X120.014 Y95.189 E.07277
G1 X122.146 Y94.273 E.07276
G1 X124.36 Y93.577 E.07277
G1 X126.633 Y93.109 E.07276
G1 X128.942 Y92.874 E.07277
G1 X131.263 Y92.873 E.07277
G1 X132.05 Y92.952 E.0248
G1 X133.591 Y93.109 E.04857
G1 X135.864 Y93.577 E.07276
G1 X138.06 Y94.266 E.07216
G1 X140.193 Y95.181 E.07277
G1 X142.225 Y96.307 E.07284
G1 X144.128 Y97.631 E.07269
G1 X145.89 Y99.143 E.0728
G1 X147.489 Y100.823 E.07272
G1 X148.91 Y102.658 E.07277
G1 X150.139 Y104.627 E.07278
G1 X151.161 Y106.71 E.07275
G1 X151.968 Y108.886 E.07277
G1 X152.551 Y111.132 E.07276
G1 X152.903 Y113.426 E.07277
G1 X153.022 Y115.744 E.07277
G1 X152.905 Y118.062 E.07277
G1 X152.555 Y120.356 E.07276
G1 X151.974 Y122.604 E.0728
G1 X151.168 Y124.782 E.07282
G1 X150.147 Y126.865 E.07273
G1 X148.921 Y128.833 E.0727
G1 X147.501 Y130.669 E.07277
G1 X145.903 Y132.352 E.07277
G1 X145.469 Y132.726 E.01796
G1 X144.143 Y133.864 E.05479
G1 X142.238 Y135.191 E.07279
G1 X140.21 Y136.318 E.07275
G1 X138.078 Y137.234 E.07276
G1 X135.845 Y137.934 E.07337
G1 X133.572 Y138.401 E.07276
G1 X131.263 Y138.635 E.07277
G1 X128.942 Y138.634 E.07277
G1 X126.633 Y138.398 E.07277
G1 X124.36 Y137.93 E.07276
G1 X122.146 Y137.234 E.07277
G1 X120.014 Y136.318 E.07276
G1 X118.002 Y135.201 E.07215
G1 X116.096 Y133.876 E.07278
G1 X114.335 Y132.365 E.07275
G1 X112.735 Y130.684 E.07276
G1 X111.314 Y128.849 E.07277
G1 X110.086 Y126.88 E.07276
G1 X109.062 Y124.796 E.0728
G1 X108.256 Y122.621 E.07273
G1 X107.673 Y120.375 E.07276
G1 X107.321 Y118.081 E.07277
G1 X107.202 Y115.76 E.07287
G1 X107.315 Y113.512 E.07057
M204 S1000
;WIPE_START
G1 F8640
G1 X107.318 Y113.452 E-.01387
G1 X107.319 Y113.445 E-.00163
G1 X107.669 Y111.151 E-.53582
G1 X107.939 Y110.108 E-.24868
;WIPE_END
G1 Z.6 F720
G1 X148.203 Y99.618 F10800
G1 Z.2 F720
G1 E.8 F2100
M204 S800
G1 F1200
G1 X148.201 Y99.603 E.00047
G1 X148.254 Y99.249 E.01122
G1 X148.417 Y98.88 E.01265
G1 X148.656 Y98.578 E.01208
G1 X148.978 Y98.342 E.01252
G1 X149.376 Y98.194 E.01331
G1 X149.732 Y98.153 E.01124
G1 X150.122 Y98.211 E.01236
G1 X150.483 Y98.368 E.01234
G1 X150.792 Y98.613 E.01236
G1 X151.027 Y98.93 E.01237
G1 X151.172 Y99.297 E.01237
G1 X151.217 Y99.688 E.01234
G1 X151.159 Y100.078 E.01236
G1 X151.003 Y100.44 E.01236
G1 X150.757 Y100.749 E.01238
G1 X150.441 Y100.984 E.01235
G1 X150.074 Y101.129 E.01237
G1 X149.732 Y101.174 E.01082
G1 X149.292 Y101.116 E.01392
G1 X148.93 Y100.959 E.01237
G1 X148.622 Y100.714 E.01234
G1 X148.362 Y100.338 E.01433
G1 X148.241 Y100.026 E.01049
G1 X148.208 Y99.677 E.01099
M204 S1000
;WIPE_START
G1 F8640
G1 X148.203 Y99.618 E-.01367
G1 X148.201 Y99.603 E-.00349
G1 X148.254 Y99.249 E-.08265
G1 X148.417 Y98.88 E-.09315
G1 X148.656 Y98.578 E-.08893
G1 X148.978 Y98.342 E-.09218
G1 X149.376 Y98.194 E-.09805
G1 X149.732 Y98.153 E-.08274
G1 X150.122 Y98.211 E-.09104
G1 X150.483 Y98.368 E-.0909
G1 X150.698 Y98.538 E-.0632
;WIPE_END
G1 Z.6 F720
G1 X148.317 Y101.098 F10800
G1 Z.2 F720
G1 E.8 F2100
M204 S800
;TYPE:Perimeter
;WIDTH:0.652872
G1 F1200
G1 X147.931 Y100.586 E.03252
M204 S1000
;WIPE_START
G1 F8640
G1 X148.317 Y101.098 E-.14806
;WIPE_END
G1 E-.65194 F2100
G1 Z.6 F720
G1 X175.034 Y104.907 F10800
G1 Z.2 F720
G1 E.8 F2100
M204 S800
;WIDTH:0.419999
G1 F1200
G1 X175.103 Y104.939 E.00238
G1 X175.409 Y105.176 E.01214
G1 X175.743 Y105.608 E.01712
G1 X175.936 Y106.117 E.01707
G1 X175.981 Y106.607 E.01543
G1 X175.898 Y107.093 E.01546
G1 X175.692 Y107.54 E.01543
G1 X175.377 Y107.918 E.01543
G1 X174.975 Y108.202 E.01543
G1 X174.513 Y108.373 E.01545
G1 X174.023 Y108.418 E.01543
G1 X173.538 Y108.334 E.01543
G1 X173.079 Y108.12 E.01588
G1 X172.69 Y107.785 E.0161
G1 X172.428 Y107.412 E.01429
G1 X172.258 Y106.95 E.01544
G1 X172.213 Y106.46 E.01543
G1 X172.296 Y105.975 E.01543
G1 X172.502 Y105.528 E.01543
G1 X172.817 Y105.149 E.01545
G1 X173.232 Y104.86 E.01586
G1 X173.716 Y104.69 E.01608
G1 X174.171 Y104.649 E.01432
G1 X174.656 Y104.733 E.01543
G1 X174.98 Y104.882 E.01118
M204 S1000
G1 X174.887 Y105.248 F10800
M204 S800
;TYPE:External perimeter
G1 F1200
G1 X175.158 Y105.457 E.01073
G1 X175.417 Y105.8 E.01348
G1 X175.562 Y106.166 E.01234
G1 X175.607 Y106.558 E.01237
G1 X175.549 Y106.948 E.01236
G1 X175.392 Y107.31 E.01237
G1 X175.147 Y107.619 E.01236
G1 X174.831 Y107.854 E.01235
G1 X174.464 Y107.999 E.01237
G1 X174.072 Y108.044 E.01237
G1 X173.682 Y107.986 E.01236
G1 X173.316 Y107.826 E.01252
G1 X172.989 Y107.556 E.0133
G1 X172.776 Y107.267 E.01126
G1 X172.632 Y106.901 E.01233
G1 X172.586 Y106.509 E.01238
G1 X172.644 Y106.119 E.01236
G1 X172.801 Y105.757 E.01237
G1 X173.046 Y105.448 E.01236
G1 X173.367 Y105.211 E.01251
G1 X173.765 Y105.064 E.0133
G1 X174.121 Y105.023 E.01124
G1 X174.511 Y105.081 E.01236
G1 X174.834 Y105.221 E.01104
M204 S1000
;WIPE_START
G1 F8640
G1 X174.887 Y105.248 E-.01373
G1 X175.158 Y105.457 E-.07902
G1 X175.417 Y105.8 E-.09924
G1 X175.562 Y106.166 E-.0909
G1 X175.607 Y106.558 E-.09111
G1 X175.549 Y106.948 E-.09104
G1 X175.392 Y107.31 E-.09111
G1 X175.147 Y107.619 E-.09105
G1 X174.831 Y107.854 E-.09093
G1 X174.582 Y107.952 E-.06187
;WIPE_END
G1 Z.6 F720
G1 X192.657 Y94.495 F10800
G1 Z.2 F720
G1 E.8 F2100
M204 S800
;TYPE:Perimeter
G1 F1200
G1 X192.723 Y94.45 E.0025
G1 X193.207 Y94.28 E.01608
G1 X193.661 Y94.24 E.01429
G1 X194.146 Y94.323 E.01543
G1 X194.593 Y94.529 E.01543
G1 X194.972 Y94.844 E.01545
G1 X195.256 Y95.246 E.01543
G1 X195.427 Y95.707 E.01542
G1 X195.472 Y96.198 E.01546
G1 X195.427 Y96.54 E.01082
G1 X195.256 Y97.002 E.01545
G1 X194.972 Y97.404 E.01543
G1 X194.593 Y97.719 E.01545
G1 X194.146 Y97.925 E.01543
G1 X193.661 Y98.008 E.01543
G1 X193.092 Y97.947 E.01794
G1 X192.63 Y97.752 E.01572
G1 X192.203 Y97.404 E.01727
G1 X191.919 Y97.002 E.01543
G1 X191.748 Y96.54 E.01545
G1 X191.703 Y96.05 E.01543
G1 X191.787 Y95.565 E.01543
G1 X191.993 Y95.118 E.01543
G1 X192.307 Y94.739 E.01543
G1 X192.608 Y94.53 E.01149
M204 S1000
G1 X192.875 Y94.795 F10800
M204 S800
;TYPE:External perimeter
G1 F1200
G1 X193.256 Y94.654 E.01274
G1 X193.612 Y94.613 E.01124
G1 X194.002 Y94.671 E.01236
G1 X194.364 Y94.828 E.01237
G1 X194.673 Y95.073 E.01236
G1 X194.908 Y95.39 E.01237
G1 X195.053 Y95.757 E.01237
G1 X195.098 Y96.148 E.01234
G1 X195.053 Y96.491 E.01085
G1 X194.883 Y96.9 E.01389
G1 X194.638 Y97.209 E.01236
G1 X194.321 Y97.444 E.01237
G1 X193.955 Y97.589 E.01234
G1 X193.563 Y97.634 E.01237
G1 X193.173 Y97.576 E.01236
G1 X192.811 Y97.419 E.01237
G1 X192.502 Y97.174 E.01236
G1 X192.267 Y96.858 E.01235
G1 X192.122 Y96.491 E.01237
G1 X192.077 Y96.099 E.01237
G1 X192.135 Y95.709 E.01236
G1 X192.292 Y95.347 E.01237
G1 X192.537 Y95.038 E.01236
G1 X192.824 Y94.826 E.01119
M204 S1000
;WIPE_START
G1 F8640
G1 X192.875 Y94.795 E-.01378
G1 X193.256 Y94.654 E-.09381
G1 X193.612 Y94.613 E-.08274
G1 X194.002 Y94.671 E-.09104
G1 X194.364 Y94.828 E-.09111
G1 X194.673 Y95.073 E-.09105
G1 X194.908 Y95.39 E-.09112
G1 X195.053 Y95.757 E-.09112
G1 X195.098 Y96.148 E-.09088
G1 X195.062 Y96.42 E-.06335
;WIPE_END
G1 Z.6 F720
G1 X176.585 Y74.968 F10800
G1 Z.2 F720
G1 E.8 F2100
M204 S800
;TYPE:Perimeter
G1 F1200
G1 X176.653 Y74.999 E.00234
G1 X177.031 Y75.314 E.01543
G1 X177.315 Y75.716 E.01543
G1 X177.488 Y76.192 E.01588
G1 X177.526 Y76.704 E.0161
G1 X177.448 Y77.153 E.01429
G1 X177.242 Y77.6 E.01543
G1 X176.927 Y77.978 E.01543
G1 X176.525 Y78.262 E.01543
G1 X176.063 Y78.433 E.01545
G1 X175.573 Y78.478 E.01543
G1 X175.088 Y78.395 E.01543
G1 X174.629 Y78.18 E.01589
G1 X174.24 Y77.845 E.0161
G1 X173.978 Y77.472 E.01429
G1 X173.808 Y77.01 E.01544
G1 X173.763 Y76.52 E.01543
G1 X173.846 Y76.035 E.01543
G1 X174.052 Y75.588 E.01543
G1 X174.367 Y75.209 E.01545
G1 X174.782 Y74.92 E.01586
G1 X175.266 Y74.75 E.01608
G1 X175.721 Y74.71 E.01432
G1 X176.206 Y74.793 E.01543
G1 X176.531 Y74.943 E.01122
M204 S1000
G1 X176.434 Y75.307 F10800
M204 S800
;TYPE:External perimeter
G1 F1200
G1 X176.732 Y75.543 E.01192
G1 X176.991 Y75.919 E.01432
G1 X177.113 Y76.232 E.01053
G1 X177.152 Y76.654 E.01329
G1 X177.099 Y77.009 E.01125
G1 X176.942 Y77.37 E.01234
G1 X176.641 Y77.723 E.01455
G1 X176.381 Y77.914 E.01012
G1 X176.014 Y78.059 E.01237
G1 X175.622 Y78.104 E.01237
G1 X175.232 Y78.046 E.01236
G1 X174.866 Y77.886 E.01252
G1 X174.539 Y77.616 E.0133
G1 X174.326 Y77.328 E.01123
G1 X174.181 Y76.961 E.01237
G1 X174.136 Y76.569 E.01237
G1 X174.194 Y76.179 E.01236
G1 X174.351 Y75.817 E.01237
G1 X174.596 Y75.509 E.01234
G1 X174.917 Y75.272 E.01251
G1 X175.315 Y75.124 E.01331
G1 X175.671 Y75.084 E.01123
G1 X176.061 Y75.141 E.01236
G1 X176.381 Y75.28 E.01094
M204 S1000
;WIPE_START
G1 F8640
G1 X176.434 Y75.307 E-.01373
G1 X176.732 Y75.543 E-.08777
G1 X176.991 Y75.919 E-.10542
G1 X177.113 Y76.232 E-.07757
G1 X177.152 Y76.654 E-.09786
G1 X177.099 Y77.009 E-.08288
G1 X176.942 Y77.37 E-.0909
G1 X176.641 Y77.723 E-.10712
G1 X176.381 Y77.914 E-.07449
G1 X176.13 Y78.013 E-.06226
;WIPE_END
G1 Z.6 F720
G1 X151.423 Y136.675 F10800
G1 Z.2 F720
G1 E.8 F2100
M204 S800
;TYPE:Perimeter
G1 F1200
G1 X151.465 Y136.735 E.0023
G1 X151.636 Y137.197 E.01545
G1 X151.681 Y137.687 E.01543
G1 X151.598 Y138.172 E.01543
G1 X151.392 Y138.619 E.01543
G1 X151.077 Y138.998 E.01545
G1 X150.675 Y139.282 E.01543
G1 X150.213 Y139.452 E.01544
G1 X149.723 Y139.498 E.01543
G1 X149.238 Y139.414 E.01543
G1 X148.78 Y139.199 E.01586
G1 X148.534 Y139.001 E.0099
G1 X148.202 Y138.619 E.01587
G1 X147.965 Y138.072 E.01869
G1 X147.917 Y137.504 E.01787
G1 X147.996 Y137.054 E.01433
G1 X148.202 Y136.607 E.01543
G1 X148.517 Y136.229 E.01543
G1 X148.932 Y135.939 E.01587
G1 X149.416 Y135.77 E.01607
G1 X149.871 Y135.729 E.01432
G1 X150.356 Y135.813 E.01543
G1 X150.814 Y136.027 E.01585
G1 X151.203 Y136.362 E.0161
G1 X151.389 Y136.626 E.01013
M204 S1000
G1 X151.122 Y136.893 F10800
M204 S800
;TYPE:External perimeter
G1 F1200
G1 X151.262 Y137.246 E.01191
G1 X151.298 Y137.704 E.0144
G1 X151.218 Y138.104 E.01279
G1 X151.092 Y138.39 E.0098
G1 X150.847 Y138.699 E.01236
G1 X150.531 Y138.934 E.01235
G1 X150.164 Y139.079 E.01237
G1 X149.772 Y139.124 E.01237
G1 X149.382 Y139.066 E.01236
G1 X149.016 Y138.906 E.01252
G1 X148.771 Y138.708 E.00988
G1 X148.477 Y138.347 E.0146
G1 X148.331 Y137.972 E.01262
G1 X148.291 Y137.553 E.0132
G1 X148.344 Y137.199 E.01122
G1 X148.501 Y136.837 E.01237
G1 X148.746 Y136.528 E.01236
G1 X149.068 Y136.291 E.01254
G1 X149.466 Y136.143 E.01331
G1 X149.821 Y136.103 E.0112
G1 X150.211 Y136.161 E.01236
