; generated by PrusaSlicer 2.7.1+MacOS-arm64 on 2024-02-11 at 02:45:29 UTC


;
;
; 

; external perimeters extrusion width = 0.60mm
; perimeters extrusion width = 0.50mm
; infill extrusion width = 0.50mm
; solid infill extrusion width = 0.50mm
; top infill extrusion width = 0.45mm
; first layer extrusion width = 0.42mm

M73 P0 R101
M73 Q0 S102
M201 X1000 Y1000 Z200 E5000 ; sets maximum accelerations, mm/sec^2
M203 X200 Y200 Z12 E120 ; sets maximum feedrates, mm / sec
M204 S1250 T1250 ; sets acceleration (S) and retract acceleration (R), mm/sec^2
M205 X8.00 Y8.00 Z0.40 E4.50 ; sets the jerk limits, mm/sec
M205 S0 T0 ; sets the minimum extruding and travel feed rate, mm/sec

; printing object Merged id:0 copy 0
; stop printing object Merged id:0 copy 0

;TYPE:Custom
M862.3 P "MK3S" ; printer model check
M862.1 P0.4 ; nozzle diameter check
M115 U3.13.2 ; tell printer latest fw version
G90 ; use absolute coordinates
M83 ; extruder relative mode
M104 S215 ; set extruder temp
M140 S60 ; set bed temp
M190 S60 ; wait for bed temp
M109 S215 ; wait for extruder temp
G28 W ; home all without mesh bed level
G80 X44.0647 Y39.335 W161.994 H132.715 ; mesh bed levelling

G1 Z0.2 F720
G1 Y-3 F1000 ; go outside print area
G92 E0
G1 X60 E9 F1000 ; intro line
G1 X100 E12.5 F1000 ; intro line

G92 E0
M221 S95

; Don't change E values below. Excessive value can damage the printer.

M907 E538 ; set extruder motor current
G21 ; set units to millimeters
G90 ; use absolute coordinates
M83 ; use relative distances for extrusion
M900 K0.05 ; Filament gcode LA 1.5
M900 K30 ; Filament gcode LA 1.0

M107
;LAYER_CHANGE
;Z:0.2
;HEIGHT:0.2
;BEFORE_LAYER_CHANGE
G92 E0.0
;0.2


G1 E-.8 F2100
G1 Z.2 F720
;AFTER_LAYER_CHANGE
;0.2
; printing object Merged id:0 copy 0
G1 X102.382 Y100.493 F10800
G1 Z.2 F720
G1 E.8 F2100
M204 S800
;TYPE:Perimeter
;WIDTH:0.507617
G1 F1200
G1 X102.437 Y100.457 E.00254
;WIDTH:0.463808
G1 X102.506 Y100.411 E.0029
;WIDTH:0.419999
G1 X103.947 Y98.895 E.06558
G1 X105.735 Y97.357 E.07395
G1 X107.669 Y96.007 E.07395
G1 X109.781 Y94.834 E.07575
G1 X111.869 Y93.941 E.0712
G1 X114.202 Y93.203 E.07672
G1 X116.456 Y92.74 E.07215
G1 X118.803 Y92.498 E.07398
G1 X121.162 Y92.496 E.07396
G1 X123.509 Y92.731 E.07396
G1 X125.875 Y93.218 E.07574
G1 X128.125 Y93.927 E.07397
G1 X130.24 Y94.834 E.07215
G1 X132.304 Y95.976 E.07396
G1 X134.242 Y97.322 E.07398
G1 X136.034 Y98.856 E.07396
G1 X137.661 Y100.564 E.07396
G1 X139.107 Y102.427 E.07394
G1 X139.515 Y103.076 E.02404
G1 X140.36 Y104.432 E.0501
G1 X141.399 Y106.544 E.0738
G1 X142.221 Y108.755 E.07396
G1 X142.815 Y111.038 E.07396
G1 X143.175 Y113.369 E.07395
G1 X143.298 Y115.731 E.07416
G1 X143.181 Y118.081 E.07377
G1 X143.04 Y119.021 E.0298
G1 X142.826 Y120.413 E.04416
G1 X142.238 Y122.697 E.07395
G1 X141.422 Y124.91 E.07395
G1 X140.385 Y127.029 E.07397
G1 X139.14 Y129.033 E.07397
G1 X137.698 Y130.9 E.07397
G1 X136.075 Y132.612 E.07397
G1 X134.287 Y134.15 E.07395
G1 X132.353 Y135.5 E.07395
G1 X130.292 Y136.648 E.07397
G1 X128.072 Y137.6 E.07574
G1 X125.82 Y138.304 E.07398
G1 X123.509 Y138.776 E.07396
G1 X121.162 Y139.012 E.07396
G1 X118.803 Y139.009 E.07396
G1 X116.456 Y138.767 E.07398
G1 X114.202 Y138.304 E.07215
G1 X111.95 Y137.6 E.07398
G1 X109.781 Y136.673 E.07396
G1 X107.718 Y135.531 E.07393
G1 X105.78 Y134.185 E.07398
G1 X103.988 Y132.651 E.07396
G1 X103.445 Y132.084 E.02462
G1 X102.361 Y130.943 E.04935
G1 X100.915 Y129.08 E.07394
G1 X99.664 Y127.08 E.07397
G1 X98.623 Y124.963 E.07397
G1 X97.801 Y122.752 E.07396
G1 X97.207 Y120.469 E.07396
G1 X96.847 Y118.138 E.07395
G1 X96.724 Y115.782 E.07397
G1 X96.841 Y113.426 E.07396
G1 X97.195 Y111.094 E.07396
G1 X97.784 Y108.81 E.07396
G1 X97.942 Y108.373 E.01457
G1 X98.6 Y106.597 E.05938
G1 X99.637 Y104.478 E.07397
G1 X100.882 Y102.474 E.07397
G1 X101.646 Y101.483 E.03923
;WIDTH:0.463514
G1 X101.678 Y101.406 E.00292
;WIDTH:0.507029
G1 X101.71 Y101.329 E.00322
;WIDTH:0.550543
G1 X101.742 Y101.252 E.00352
;WIDTH:0.594058
G1 X101.774 Y101.175 E.00382
;WIDTH:0.637572
G1 X101.806 Y101.098 E.00412
G1 X101.703 Y101.145 E.0056
;WIDTH:0.594058
G1 X101.601 Y101.192 E.00515
;WIDTH:0.550543
G1 X101.499 Y101.239 E.00474
;WIDTH:0.507029
G1 X101.397 Y101.285 E.00432
;WIDTH:0.463514
G1 X101.294 Y101.332 E.00396
;WIDTH:0.419999
G1 X100.832 Y101.503 E.01545
G1 X100.342 Y101.548 E.01543
G1 X99.857 Y101.465 E.01543
G1 X99.41 Y101.258 E.01545
G1 X99.032 Y100.944 E.01541
G1 X98.747 Y100.542 E.01545
G1 X98.574 Y100.06 E.01606
G1 X98.532 Y99.59 E.0148
G1 X98.615 Y99.105 E.01543
G1 X98.799 Y98.702 E.01389
G1 X99.113 Y98.298 E.01604
G1 X99.525 Y98.001 E.01592
G1 X100 Y97.825 E.01588
G1 X100.44 Y97.783 E.01386
G1 X100.971 Y97.861 E.01683
G1 X101.422 Y98.069 E.01557
G1 X101.801 Y98.384 E.01545
G1 X102.085 Y98.786 E.01543
G1 X102.255 Y99.247 E.01541
G1 X102.3 Y99.738 E.01546
;WIDTH:0.456705
G1 X102.262 Y99.971 E.00812
;WIDTH:0.49341
G1 X102.225 Y100.205 E.00887
;WIDTH:0.530115
G1 X102.187 Y100.439 E.0096
;WIDTH:0.566425
G1 X102.178 Y100.506 E.00294
;WIDTH:0.602735
G1 X102.169 Y100.573 E.00315
;WIDTH:0.639044
G1 X102.159 Y100.64 E.00336
G1 X102.229 Y100.594 E.00415
;WIDTH:0.595235
G1 X102.298 Y100.548 E.00381
;WIDTH:0.551426
G1 X102.332 Y100.526 E.00171
M204 S1000
G1 X102.618 Y100.843 F10800
M204 S800
;TYPE:External perimeter
;WIDTH:0.419999
G1 F1200
G1 X102.622 Y100.838 E.0002
G1 X104.22 Y99.155 E.07277
G1 X105.98 Y97.643 E.07275
G1 X107.884 Y96.316 E.07277
G1 X109.93 Y95.181 E.07336
G1 X111.983 Y94.301 E.07003
G1 X114.278 Y93.573 E.07549
G1 X116.532 Y93.109 E.07215
G1 X118.86 Y92.873 E.07337
G1 X121.181 Y92.874 E.07277
G1 X123.49 Y93.109 E.07277
G1 X125.763 Y93.577 E.07276
G1 X127.959 Y94.266 E.07216
G1 X130.092 Y95.181 E.07277
G1 X132.121 Y96.306 E.07274
G1 X134.027 Y97.631 E.07278
G1 X135.788 Y99.142 E.07275
G1 X137.389 Y100.825 E.07283
G1 X138.809 Y102.658 E.0727
G1 X140.038 Y104.628 E.0728
G1 X140.385 Y105.333 E.02464
G1 X141.06 Y106.71 E.04808
G1 X141.867 Y108.886 E.07277
G1 X142.45 Y111.132 E.07276
G1 X142.802 Y113.426 E.07277
G1 X142.921 Y115.746 E.07284
G1 X142.804 Y118.062 E.07271
G1 X142.454 Y120.356 E.07276
G1 X141.872 Y122.605 E.07284
G1 X141.067 Y124.782 E.07278
G1 X140.047 Y126.863 E.07266
G1 X138.819 Y128.835 E.07284
G1 X137.4 Y130.669 E.07271
G1 X135.802 Y132.352 E.07277
G1 X134.042 Y133.864 E.07275
G1 X132.138 Y135.191 E.07277
G1 X130.109 Y136.318 E.07277
G1 X127.977 Y137.234 E.07276
G1 X125.763 Y137.93 E.07277
G1 X123.49 Y138.398 E.07276
G1 X121.181 Y138.634 E.07277
G1 X118.86 Y138.635 E.07277
G1 X116.551 Y138.401 E.07277
G1 X114.278 Y137.934 E.07276
M73 Q0 S101
G1 X112.063 Y137.241 E.07277
G1 X109.93 Y136.326 E.07277
G1 X107.901 Y135.201 E.07274
G1 X105.995 Y133.876 E.07278
G1 X104.234 Y132.365 E.07275
G1 X102.634 Y130.684 E.07276
G1 X101.213 Y128.849 E.07277
G1 X99.984 Y126.88 E.07278
G1 X98.96 Y124.794 E.07286
G1 X98.155 Y122.621 E.07266
G1 X97.572 Y120.375 E.07276
G1 X97.22 Y118.081 E.07277
G1 X97.101 Y115.763 E.07277
G1 X97.218 Y113.445 E.07277
G1 X97.568 Y111.151 E.07276
G1 X98.149 Y108.904 E.07277
G1 X98.296 Y108.504 E.01336
G1 X98.954 Y106.728 E.05938
G1 X99.975 Y104.644 E.07276
G1 X101.202 Y102.674 E.07277
G1 X102.581 Y100.891 E.07067
M204 S1000
;WIPE_START
G1 F8640
G1 X102.618 Y100.843 E-.01399
G1 X102.622 Y100.838 E-.00148
G1 X104.22 Y99.155 E-.53588
G1 X105.037 Y98.453 E-.24865
;WIPE_END
G1 Z.6 F720
G1 X101.136 Y100.99 F10800
G1 Z.2 F720
G1 E.8 F2100
M204 S800
G1 F1200
G1 X100.783 Y101.129 E.0119
G1 X100.391 Y101.174 E.01237
G1 X100.001 Y101.116 E.01236
G1 X99.64 Y100.959 E.01234
G1 X99.346 Y100.731 E.01167
G1 X99.096 Y100.398 E.01306
G1 X98.948 Y100.01 E.01302
G1 X98.906 Y99.639 E.01171
G1 X98.964 Y99.249 E.01236
G1 X99.104 Y98.924 E.0111
G1 X99.365 Y98.579 E.01356
G1 X99.682 Y98.343 E.01239
G1 X100.049 Y98.198 E.01237
G1 X100.4 Y98.158 E.01108
G1 X100.83 Y98.211 E.01358
G1 X101.193 Y98.368 E.0124
G1 X101.501 Y98.613 E.01234
G1 X101.736 Y98.93 E.01237
G1 X101.881 Y99.297 E.01237
G1 X101.926 Y99.688 E.01234
G1 X101.869 Y100.078 E.01236
G1 X101.712 Y100.44 E.01237
G1 X101.467 Y100.749 E.01236
G1 X101.186 Y100.957 E.01096
M204 S1000
;WIPE_START
G1 F8640
G1 X101.136 Y100.99 E-.01383
G1 X100.783 Y101.129 E-.0876
G1 X100.391 Y101.174 E-.09111
G1 X100.001 Y101.116 E-.09104
G1 X99.64 Y100.959 E-.0909
G1 X99.346 Y100.731 E-.08591
G1 X99.096 Y100.398 E-.09615
G1 X98.948 Y100.01 E-.09589
G1 X98.906 Y99.639 E-.08621
G1 X98.945 Y99.376 E-.06136
;WIPE_END
G1 Z.6 F720
G1 X102.159 Y100.64 F10800
G1 Z.2 F720
G1 E.8 F2100
M204 S800
;TYPE:Perimeter
;WIDTH:0.639044
G1 F1200
G1 X101.806 Y101.098 E.02866
M204 S1000
;WIPE_START
G1 F8640
G1 X102.159 Y100.64 E-.13352
;WIPE_END
G1 E-.66648 F2100
G1 Z.6 F720
G1 X75.983 Y104.659 F10800
G1 Z.2 F720
G1 E.8 F2100
M204 S800
;WIDTH:0.419999
G1 F1200
G1 X76.05 Y104.653 E.00211
G1 X76.562 Y104.724 E.01621
G1 X77.021 Y104.93 E.01577
G1 X77.411 Y105.253 E.01588
G1 X77.703 Y105.675 E.01609
G1 X77.865 Y106.117 E.01476
G1 X77.91 Y106.607 E.01543
G1 X77.827 Y107.093 E.01546
G1 X77.621 Y107.54 E.01543
G1 X77.306 Y107.918 E.01543
G1 X76.904 Y108.202 E.01543
G1 X76.443 Y108.373 E.01542
G1 X75.952 Y108.418 E.01546
G1 X75.467 Y108.334 E.01543
G1 X75.135 Y108.194 E.0113
G1 X74.709 Y107.887 E.01646
G1 X74.391 Y107.479 E.01622
G1 X74.193 Y106.987 E.01663
G1 X74.14 Y106.483 E.01589
G1 X74.225 Y105.975 E.01615
G1 X74.431 Y105.528 E.01543
G1 X74.746 Y105.149 E.01545
G1 X75.148 Y104.865 E.01543
G1 X75.61 Y104.695 E.01544
G1 X75.923 Y104.665 E.00986
M204 S1000
G1 X76.043 Y105.032 F10800
M204 S800
;TYPE:External perimeter
G1 F1200
G1 X76.441 Y105.081 E.01257
G1 X76.803 Y105.238 E.01237
G1 X77.112 Y105.483 E.01236
G1 X77.354 Y105.819 E.01298
G1 X77.491 Y106.166 E.0117
G1 X77.537 Y106.558 E.01238
G1 X77.479 Y106.948 E.01236
G1 X77.322 Y107.31 E.01237
G1 X77.077 Y107.619 E.01236
G1 X76.76 Y107.854 E.01237
G1 X76.393 Y107.999 E.01237
G1 X76.002 Y108.044 E.01234
G1 X75.612 Y107.986 E.01236
G1 X75.31 Y107.86 E.01026
G1 X74.941 Y107.584 E.01445
G1 X74.706 Y107.267 E.01237
G1 X74.561 Y106.901 E.01234
G1 X74.516 Y106.509 E.01237
G1 X74.574 Y106.119 E.01236
G1 X74.731 Y105.757 E.01237
G1 X74.976 Y105.448 E.01236
G1 X75.292 Y105.213 E.01235
G1 X75.659 Y105.068 E.01237
G1 X75.983 Y105.031 E.01022
M204 S1000
;WIPE_START
G1 F8640
G1 X76.043 Y105.032 E-.01386
G1 X76.441 Y105.081 E-.09259
G1 X76.803 Y105.238 E-.09111
G1 X77.112 Y105.483 E-.09105
G1 X77.354 Y105.819 E-.09561
G1 X77.491 Y106.166 E-.08614
G1 X77.537 Y106.558 E-.09113
G1 X77.479 Y106.948 E-.09104
G1 X77.322 Y107.31 E-.09111
G1 X77.17 Y107.501 E-.05636
;WIPE_END
G1 Z.6 F720
G1 X58.161 Y97.062 F10800
G1 Z.2 F720
G1 E.8 F2100
M204 S800
;TYPE:Perimeter
G1 F1200
G1 X58.13 Y97.13 E.00234
G1 X57.816 Y97.508 E.01541
G1 X57.414 Y97.792 E.01543
G1 X56.952 Y97.963 E.01545
G1 X56.462 Y98.008 E.01543
G1 X55.977 Y97.925 E.01543
G1 X55.53 Y97.719 E.01543
G1 X55.151 Y97.404 E.01545
G1 X54.867 Y97.002 E.01543
G1 X54.696 Y96.54 E.01545
G1 X54.651 Y96.05 E.01543
G1 X54.735 Y95.565 E.01543
G1 X54.941 Y95.118 E.01543
G1 X55.255 Y94.739 E.01543
G1 X55.657 Y94.455 E.01543
G1 X56.119 Y94.285 E.01544
G1 X56.56 Y94.243 E.01389
G1 X57.094 Y94.323 E.01693
G1 X57.555 Y94.539 E.01596
G1 X57.92 Y94.844 E.01491
G1 X58.204 Y95.246 E.01543
G1 X58.375 Y95.707 E.01542
G1 X58.42 Y96.198 E.01546
G1 X58.336 Y96.683 E.01543
G1 X58.187 Y97.008 E.01121
M204 S1000
G1 X57.822 Y96.912 F10800
M204 S800
;TYPE:External perimeter
G1 F1200
G1 X57.586 Y97.209 E.01189
G1 X57.269 Y97.444 E.01237
G1 X56.903 Y97.589 E.01234
G1 X56.511 Y97.634 E.01237
G1 X56.121 Y97.576 E.01236
G1 X55.759 Y97.419 E.01237
G1 X55.45 Y97.174 E.01236
G1 X55.215 Y96.858 E.01235
G1 X55.07 Y96.491 E.01237
G1 X55.025 Y96.099 E.01237
G1 X55.083 Y95.709 E.01236
G1 X55.24 Y95.347 E.01237
G1 X55.485 Y95.038 E.01236
G1 X55.802 Y94.803 E.01237
G1 X56.168 Y94.659 E.01233
G1 X56.52 Y94.618 E.01111
G1 X56.95 Y94.671 E.01358
G1 X57.325 Y94.838 E.01287
G1 X57.621 Y95.073 E.01185
G1 X57.856 Y95.39 E.01237
G1 X58.001 Y95.757 E.01237
G1 X58.046 Y96.148 E.01234
G1 X57.988 Y96.538 E.01236
G1 X57.849 Y96.859 E.01097
M204 S1000
;WIPE_START
G1 F8640
G1 X57.822 Y96.912 E-.01373
G1 X57.586 Y97.209 E-.08759
G1 X57.269 Y97.444 E-.09112
G1 X56.903 Y97.589 E-.0909
G1 X56.511 Y97.634 E-.09111
G1 X56.121 Y97.576 E-.09104
G1 X55.759 Y97.419 E-.09111
G1 X55.45 Y97.174 E-.09105
G1 X55.215 Y96.858 E-.09093
G1 X55.117 Y96.611 E-.06142
;WIPE_END
G1 Z.6 F720
G1 X73.149 Y75.267 F10800
G1 Z.2 F720
G1 E.8 F2100
M204 S800
;TYPE:Perimeter
G1 F1200
G1 X73.196 Y75.209 E.00234
G1 X73.598 Y74.925 E.01543
G1 X74.06 Y74.755 E.01544
G1 X74.5 Y74.713 E.01386
G1 X74.997 Y74.779 E.01572
G1 X75.482 Y74.999 E.0167
G1 X75.861 Y75.314 E.01545
G1 X76.145 Y75.716 E.01543
G1 X76.315 Y76.178 E.01544
G1 X76.36 Y76.668 E.01543
G1 X76.277 Y77.153 E.01543
G1 X76.071 Y77.6 E.01543
G1 X75.756 Y77.978 E.01543
G1 X75.354 Y78.262 E.01543
G1 X74.893 Y78.433 E.01542
G1 X74.402 Y78.478 E.01546
G1 X73.953 Y78.408 E.01425
G1 X73.485 Y78.2 E.01606
G1 X73.092 Y77.874 E.01601
G1 X72.808 Y77.472 E.01543
G1 X72.637 Y77.01 E.01545
G1 X72.592 Y76.52 E.01543
G1 X72.675 Y76.035 E.01543
G1 X72.881 Y75.588 E.01543
G1 X73.11 Y75.313 E.01122
M204 S1000
G1 X73.438 Y75.499 F10800
M204 S800
;TYPE:External perimeter
G1 F1200
G1 X73.742 Y75.274 E.01186
G1 X74.109 Y75.129 E.01237
G1 X74.46 Y75.088 E.01108
G1 X74.891 Y75.141 E.01362
G1 X75.253 Y75.298 E.01237
G1 X75.562 Y75.543 E.01236
G1 X75.797 Y75.86 E.01237
G1 X75.941 Y76.227 E.01236
G1 X75.987 Y76.618 E.01234
G1 X75.929 Y77.009 E.01239
G1 X75.772 Y77.37 E.01234
G1 X75.527 Y77.679 E.01236
G1 X75.21 Y77.914 E.01237
G1 X74.843 Y78.059 E.01237
G1 X74.452 Y78.104 E.01234
G1 X74.073 Y78.051 E.012
G1 X73.7 Y77.889 E.01275
G1 X73.391 Y77.644 E.01236
G1 X73.156 Y77.328 E.01235
G1 X73.011 Y76.961 E.01237
G1 X72.966 Y76.569 E.01237
G1 X73.024 Y76.179 E.01236
G1 X73.181 Y75.817 E.01237
G1 X73.398 Y75.544 E.01093
M204 S1000
;WIPE_START
G1 F8640
G1 X73.438 Y75.499 E-.0139
G1 X73.742 Y75.274 E-.08733
G1 X74.109 Y75.129 E-.09112
G1 X74.46 Y75.088 E-.0816
G1 X74.891 Y75.141 E-.10027
G1 X75.253 Y75.298 E-.09111
G1 X75.562 Y75.543 E-.09105
G1 X75.797 Y75.86 E-.09112
G1 X75.941 Y76.227 E-.09103
G1 X75.972 Y76.492 E-.06147
;WIPE_END
G1 Z.6 F720
G1 X101.265 Y135.987 F10800
G1 Z.2 F720
G1 E.8 F2100
M204 S800
;TYPE:Perimeter
G1 F1200
G1 X101.332 Y136.019 E.00233
G1 X101.711 Y136.333 E.01543
G1 X101.995 Y136.735 E.01543
G1 X102.165 Y137.197 E.01544
G1 X102.21 Y137.687 E.01543
G1 X102.127 Y138.172 E.01543
G1 X101.921 Y138.619 E.01543
G1 X101.606 Y138.998 E.01545
G1 X101.204 Y139.282 E.01543
G1 X100.743 Y139.452 E.01541
G1 X100.252 Y139.498 E.01546
G1 X99.767 Y139.414 E.01543
G1 X99.32 Y139.208 E.01543
G1 X98.942 Y138.893 E.01543
G1 X98.658 Y138.492 E.01541
G1 X98.487 Y138.03 E.01545
G1 X98.442 Y137.54 E.01543
G1 X98.525 Y137.054 E.01546
G1 X98.667 Y136.714 E.01155
G1 X98.961 Y136.309 E.01569
G1 X99.354 Y135.995 E.01577
G1 X99.91 Y135.774 E.01876
G1 X100.35 Y135.732 E.01386
G1 X100.885 Y135.812 E.01696
G1 X101.21 Y135.962 E.01122
M204 S1000
G1 X101.114 Y136.326 F10800
M204 S800
;TYPE:External perimeter
G1 F1200
G1 X101.412 Y136.563 E.01194
G1 X101.686 Y136.976 E.01554
G1 X101.791 Y137.246 E.00908
G1 X101.836 Y137.638 E.01237
G1 X101.779 Y138.028 E.01236
G1 X101.622 Y138.39 E.01237
G1 X101.377 Y138.699 E.01236
G1 X101.06 Y138.934 E.01237
G1 X100.693 Y139.079 E.01237
G1 X100.302 Y139.124 E.01234
G1 X99.911 Y139.066 E.01239
G1 X99.55 Y138.909 E.01234
G1 X99.241 Y138.664 E.01236
G1 X99.006 Y138.347 E.01237
G1 X98.861 Y137.981 E.01234
G1 X98.816 Y137.589 E.01237
G1 X98.874 Y137.199 E.01236
G1 X99.009 Y136.873 E.01106
G1 X99.276 Y136.528 E.01368
G1 X99.592 Y136.293 E.01235
G1 X99.959 Y136.148 E.01237
G1 X100.31 Y136.107 E.01108
G1 X100.741 Y136.161 E.01362
G1 X101.06 Y136.299 E.0109
M204 S1000
;WIPE_START
G1 F8640
G1 X101.114 Y136.326 E-.01394
G1 X101.412 Y136.563 E-.08792
G1 X101.686 Y136.976 E-.11444
G1 X101.791 Y137.246 E-.06689
G1 X101.836 Y137.638 E-.09111
G1 X101.779 Y138.028 E-.09101
G1 X101.622 Y138.39 E-.09111
G1 X101.377 Y138.699 E-.09105
G1 X101.06 Y138.934 E-.09112
G1 X100.813 Y139.031 E-.06141
;WIPE_END
