; generated by PrusaSlicer 2.7.1+MacOS-arm64 on 2024-02-11 at 01:42:31 UTC


;
;
; 

; external perimeters extrusion width = 0.60mm
; perimeters extrusion width = 0.50mm
; infill extrusion width = 0.50mm
; solid infill extrusion width = 0.50mm
; top infill extrusion width = 0.45mm
; first layer extrusion width = 0.42mm

M73 P0 R87
M73 Q0 S87
M201 X1000 Y1000 Z200 E5000 ; sets maximum accelerations, mm/sec^2
M203 X200 Y200 Z12 E120 ; sets maximum feedrates, mm / sec
M204 S1250 T1250 ; sets acceleration (S) and retract acceleration (R), mm/sec^2
M205 X8.00 Y8.00 Z0.40 E4.50 ; sets the jerk limits, mm/sec
M205 S0 T0 ; sets the minimum extruding and travel feed rate, mm/sec

; printing object Merged id:0 copy 0
; stop printing object Merged id:0 copy 0

;TYPE:Custom
M862.3 P "MK3S" ; printer model check
M862.1 P0.4 ; nozzle diameter check
M115 U3.13.2 ; tell printer latest fw version
G90 ; use absolute coordinates
M83 ; extruder relative mode
M104 S215 ; set extruder temp
M140 S60 ; set bed temp
M190 S60 ; wait for bed temp
M109 S215 ; wait for extruder temp
G28 W ; home all without mesh bed level
G80 X42.3803 Y35.7024 W164.737 H139.266 ; mesh bed levelling

G1 Z0.2 F720
G1 Y-3 F1000 ; go outside print area
G92 E0
G1 X60 E9 F1000 ; intro line
G1 X100 E12.5 F1000 ; intro line

G92 E0
M221 S95

; Don't change E values below. Excessive value can damage the printer.

M907 E538 ; set extruder motor current
G21 ; set units to millimeters
G90 ; use absolute coordinates
M83 ; use relative distances for extrusion
M900 K0.05 ; Filament gcode LA 1.5
M900 K30 ; Filament gcode LA 1.0

M107
;LAYER_CHANGE
;Z:0.2
;HEIGHT:0.2
;BEFORE_LAYER_CHANGE
G92 E0.0
;0.2


G1 E-.8 F2100
G1 Z.2 F720
;AFTER_LAYER_CHANGE
;0.2
; printing object Merged id:0 copy 0
G1 X191.74 Y93.912 F10800
G1 Z.2 F720
G1 E.8 F2100
M204 S800
;TYPE:Perimeter
;WIDTH:0.419999
G1 F1200
G1 X191.983 Y93.715 E.00981
G1 X192.66 Y93.414 E.02323
G1 X193.347 Y93.304 E.02181
G1 X194.116 Y93.374 E.02421
G1 X194.818 Y93.641 E.02355
G1 X195.416 Y94.076 E.02319
G1 X195.882 Y94.651 E.02321
;WIDTH:0.451572
G1 X196.047 Y94.983 E.0126
;WIDTH:0.483144
G1 X196.212 Y95.315 E.01357
;WIDTH:0.516756
G1 X196.242 Y95.363 E.00223
;WIDTH:0.550368
G1 X196.272 Y95.411 E.00239
;WIDTH:0.583979
G1 X196.302 Y95.459 E.00255
G1 X196.361 Y96.05 E.02672
G1 X196.302 Y96.805 E.03407
G1 X196.228 Y96.947 E.0072
;WIDTH:0.542984
G1 X196.153 Y97.088 E.00664
;WIDTH:0.501989
G1 X196.078 Y97.229 E.0061
;WIDTH:0.460994
G1 X196.004 Y97.37 E.00554
;WIDTH:0.419999
G1 X195.905 Y97.564 E.00683
G1 X195.527 Y98.076 E.01995
G1 X194.997 Y98.51 E.02148
G1 X194.818 Y98.624 E.00665
G1 X194.269 Y98.851 E.01863
G1 X193.538 Y98.966 E.0232
G1 X192.802 Y98.889 E.0232
G1 X192.111 Y98.624 E.0232
G1 X191.513 Y98.189 E.02319
G1 X191.047 Y97.613 E.02323
G1 X190.746 Y96.937 E.0232
G1 X190.63 Y96.206 E.02321
G1 X190.708 Y95.47 E.02321
G1 X190.973 Y94.779 E.0232
G1 X191.408 Y94.181 E.02319
G1 X191.694 Y93.949 E.01155
M204 S1000
G1 X192.199 Y94.025 F10800
M204 S800
;TYPE:External perimeter
G1 F1200
G1 X192.213 Y94.014 E.00056
G1 X192.804 Y93.762 E.02014
G1 X193.396 Y93.678 E.01875
G1 X194.074 Y93.749 E.02137
G1 X194.673 Y93.989 E.02023
G1 X195.187 Y94.375 E.02015
G1 X195.583 Y94.881 E.02015
G1 X195.835 Y95.472 E.02014
G1 X195.925 Y96.108 E.02014
G1 X195.847 Y96.745 E.02012
G1 X195.655 Y97.226 E.01624
G1 X195.224 Y97.852 E.02383
G1 X194.767 Y98.211 E.01822
G1 X194.125 Y98.502 E.0221
G1 X193.489 Y98.593 E.02014
G1 X192.851 Y98.515 E.02015
G1 X192.256 Y98.275 E.02012
G1 X191.742 Y97.889 E.02015
G1 X191.346 Y97.384 E.02012
G1 X191.094 Y96.793 E.02014
G1 X191.004 Y96.157 E.02014
G1 X191.082 Y95.519 E.02015
G1 X191.321 Y94.924 E.0201
G1 X191.707 Y94.41 E.02015
G1 X192.152 Y94.062 E.01771
M204 S1000
;WIPE_START
G1 F8640
G1 X192.199 Y94.025 E-.01381
G1 X192.213 Y94.014 E-.00411
G1 X192.804 Y93.762 E-.14835
G1 X193.396 Y93.678 E-.13806
G1 X194.074 Y93.749 E-.15741
G1 X194.673 Y93.989 E-.149
G1 X195.187 Y94.375 E-.14842
G1 X195.296 Y94.514 E-.04084
;WIPE_END
G1 Z.6 F720
G1 X165.553 Y162.375 F10800
G1 Z.2 F720
G1 E.8 F2100
M204 S800
;TYPE:Perimeter
G1 F1200
G1 X110.99 Y162.37 E1.71078
G1 X57.219 Y155.428 E1.69994
G1 X57.037 Y155.435 E.00571
G1 X56.753 Y155.584 E.01006
G1 X56.613 Y155.802 E.00812
G1 X56.584 Y156.047 E.00774
G1 X56.641 Y156.594 E.01724
G1 X56.641 Y157.509 E.02869
G1 X56.563 Y158.167 E.02078
G1 X56.28 Y159.266 E.03558
G1 X55.817 Y160.303 E.03561
G1 X55.468 Y160.866 E.02077
G1 X54.904 Y161.575 E.02841
G1 X54.25 Y162.202 E.02841
G1 X53.714 Y162.607 E.02106
G1 X53.144 Y162.953 E.02091
G1 X52.103 Y163.408 E.03562
G1 X51.006 Y163.68 E.03544
G1 X50.113 Y163.763 E.02812
G1 X49.208 Y163.725 E.0284
G1 X48.554 Y163.62 E.02077
G1 X47.467 Y163.291 E.03561
G1 X46.455 Y162.787 E.03545
G1 X45.726 Y162.273 E.02797
G1 X44.903 Y161.484 E.03575
G1 X44.493 Y160.97 E.02062
G1 X43.909 Y159.99 E.03577
G1 X43.573 Y159.164 E.02796
G1 X43.309 Y158.06 E.03559
G1 X43.233 Y157.162 E.02826
G1 X43.255 Y156.5 E.02077
G1 X43.445 Y155.38 E.03562
G1 X43.82 Y154.308 E.03561
G1 X44.118 Y153.722 E.02061
G1 X44.766 Y152.784 E.03575
G1 X45.384 Y152.128 E.02826
G1 X45.892 Y151.703 E.02077
G1 X46.853 Y151.097 E.03562
G1 X47.901 Y150.661 E.03559
G1 X48.54 Y150.49 E.02074
G1 X49.442 Y150.361 E.02857
G1 X50.104 Y150.344 E.02076
G1 X51.235 Y150.468 E.03567
G1 X52.36 Y150.779 E.0366
G1 X52.618 Y150.79 E.0081
G1 X52.865 Y150.675 E.00854
G1 X53.015 Y150.491 E.00744
G1 X53.077 Y150.234 E.00829
G1 X53.077 Y81.938 E2.14137
G1 X53.024 Y81.701 E.00761
M73 P0 R86
G1 X52.893 Y81.521 E.00698
G1 X52.631 Y81.385 E.00926
G1 X52.344 Y81.398 E.00901
G1 X51.615 Y81.623 E.02392
G1 X50.718 Y81.799 E.02866
G1 X50.058 Y81.849 E.02075
G1 X48.924 Y81.782 E.03562
G1 X47.818 Y81.527 E.03559
G1 X47.194 Y81.291 E.02092
G1 X46.597 Y80.994 E.02091
G1 X45.657 Y80.356 E.03562
G1 X44.838 Y79.57 E.03559
G1 X44.428 Y79.055 E.02064
G1 X43.845 Y78.076 E.03573
G1 X43.505 Y77.241 E.02827
G1 X43.327 Y76.594 E.02104
G1 X43.213 Y75.927 E.02122
G1 X43.169 Y75.261 E.02093
G1 X43.245 Y74.128 E.0356
G1 X43.51 Y73.024 E.0356
G1 X43.75 Y72.402 E.0209
G1 X44.053 Y71.808 E.02091
G1 X44.699 Y70.874 E.03561
G1 X45.488 Y70.064 E.03545
G1 X46.2 Y69.527 E.02796
G1 X47.195 Y68.989 E.03547
G1 X48.265 Y68.625 E.03544
G1 X49.148 Y68.468 E.02812
G1 X50.048 Y68.43 E.02824
G1 X50.95 Y68.514 E.0284
G1 X51.603 Y68.653 E.02093
G1 X52.461 Y68.944 E.02841
G1 X53.263 Y69.344 E.0281
G1 X54.192 Y69.997 E.0356
G1 X54.839 Y70.618 E.02812
G1 X55.4 Y71.323 E.02825
G1 X55.862 Y72.097 E.02826
G1 X56.217 Y72.931 E.02842
G1 X56.405 Y73.571 E.02091
G1 X56.557 Y74.466 E.02846
G1 X56.594 Y75.384 E.02881
G1 X56.64 Y75.668 E.00902
G1 X56.821 Y75.904 E.00933
G1 X57.065 Y76.01 E.00834
G1 X57.359 Y75.984 E.00925
G1 X92.03 Y63.195 E1.15868
G1 X129.107 Y63.195 E1.16252
G1 X130.173 Y63.174 E.03343
G1 X182.665 Y48.389 E1.70989
G1 X182.872 Y48.28 E.00734
G1 X183.04 Y48.047 E.00901
G1 X183.07 Y47.753 E.00927
G1 X182.97 Y47.513 E.00815
G1 X182.549 Y46.932 E.0225
G1 X182.097 Y46.143 E.02851
G1 X181.757 Y45.308 E.02827
G1 X181.532 Y44.435 E.02827
G1 X181.427 Y43.54 E.02825
G1 X181.442 Y42.639 E.02825
G1 X181.578 Y41.743 E.02842
G1 X181.755 Y41.1 E.02091
G1 X182.097 Y40.261 E.02841
G1 X182.545 Y39.479 E.02826
G1 X183.094 Y38.765 E.02824
G1 X183.731 Y38.133 E.02813
G1 X184.649 Y37.464 E.03562
G1 X185.44 Y37.053 E.02795
G1 X186.516 Y36.688 E.03563
G1 X187.398 Y36.531 E.02809
G1 X188.294 Y36.493 E.02812
G1 X189.418 Y36.616 E.03545
G1 X190.501 Y36.924 E.0353
G1 X191.526 Y37.413 E.03561
G1 X192.084 Y37.779 E.02092
G1 X192.603 Y38.198 E.02091
G1 X193.382 Y39.024 E.0356
G1 X194.011 Y39.969 E.03559
G1 X194.299 Y40.56 E.02061
G1 X194.659 Y41.647 E.0359
G1 X194.781 Y42.303 E.02092
G1 X194.838 Y42.977 E.02121
G1 X194.827 Y43.648 E.02104
G1 X194.705 Y44.551 E.02857
G1 X194.537 Y45.201 E.02105
G1 X194.304 Y45.836 E.02121
G1 X194.009 Y46.44 E.02108
G1 X193.517 Y47.206 E.02854
G1 X193.093 Y47.721 E.02092
G1 X192.436 Y48.351 E.02854
G1 X191.9 Y48.756 E.02106
G1 X191.322 Y49.107 E.0212
G1 X190.711 Y49.398 E.02122
G1 X190.075 Y49.626 E.02118
G1 X189.418 Y49.789 E.02122
G1 X188.75 Y49.885 E.02116
G1 X187.906 Y49.917 E.02648
G1 X187.645 Y49.987 E.00847
G1 X187.432 Y50.191 E.00925
G1 X187.351 Y50.467 E.00902
G1 X187.412 Y50.739 E.00874
G1 X196.821 Y69.204 E.64979
G1 X196.923 Y69.628 E.01367
G1 X196.923 Y94.587 E.78257
;WIDTH:0.451572
G1 X196.907 Y94.884 E.01011
;WIDTH:0.483144
G1 X196.892 Y95.18 E.01085
;WIDTH:0.516756
G1 X196.875 Y95.262 E.0033
;WIDTH:0.550368
G1 X196.858 Y95.343 E.00349
;WIDTH:0.583979
G1 X196.841 Y95.424 E.00372
G1 X196.861 Y96.247 E.03704
G1 X196.841 Y96.841 E.02674
G1 X196.862 Y96.963 E.00557
;WIDTH:0.542352
G1 X196.883 Y97.084 E.0051
;WIDTH:0.500724
G1 X196.917 Y97.408 E.0124
;WIDTH:0.460362
G1 X196.952 Y97.731 E.01128
;WIDTH:0.419999
G1 X197.161 Y98.014 E.01103
G1 X197.403 Y98.112 E.00819
G1 X197.618 Y98.104 E.00675
G1 X198.436 Y97.911 E.02635
G1 X199.34 Y97.812 E.02851
G1 X200.007 Y97.818 E.02091
G1 X200.906 Y97.932 E.02841
G1 X201.781 Y98.165 E.02839
G1 X202.401 Y98.411 E.02091
G1 X203.202 Y98.844 E.02855
G1 X203.751 Y99.231 E.02106
G1 X204.259 Y99.67 E.02105
G1 X204.869 Y100.34 E.02841
G1 X205.382 Y101.081 E.02826
G1 X205.79 Y101.885 E.02827
G1 X205.97 Y102.399 E.01708
G1 X206.168 Y103.093 E.02263
G1 X206.271 Y103.704 E.01943
G1 X206.313 Y104.425 E.02264
G1 X206.313 Y104.974 E.01721
G1 X206.235 Y105.641 E.02106
G1 X206.088 Y106.301 E.0212
G1 X205.876 Y106.943 E.0212
G1 X205.6 Y107.561 E.02122
G1 X205.264 Y108.147 E.02118
G1 X204.87 Y108.697 E.02121
G1 X204.426 Y109.201 E.02106
G1 X203.748 Y109.809 E.02855
G1 X203.198 Y110.195 E.02107
G1 X202.613 Y110.524 E.02104
G1 X201.772 Y110.875 E.02857
G1 X201.126 Y111.059 E.02106
G1 X200.461 Y111.177 E.02118
G1 X199.791 Y111.228 E.02107
G1 X198.881 Y111.19 E.02856
G1 X198.218 Y111.083 E.02106
G1 X197.569 Y110.91 E.02106
G1 X196.722 Y110.574 E.02857
G1 X196.136 Y110.257 E.02089
G1 X195.391 Y109.733 E.02856
G1 X194.887 Y109.282 E.02121
G1 X194.27 Y108.622 E.02833
G1 X193.765 Y107.865 E.02853
G1 X193.495 Y107.274 E.02037
G1 X193.176 Y106.405 E.02902
G1 X193.019 Y105.752 E.02106
G1 X192.929 Y105.086 E.02107
G1 X192.914 Y104.176 E.02854
G1 X192.981 Y103.512 E.02092
G1 X193.177 Y102.627 E.02842
G1 X193.489 Y101.781 E.02827
G1 X193.926 Y100.955 E.0293
G1 X193.99 Y100.747 E.00682
G1 X193.964 Y100.506 E.0076
G1 X193.758 Y100.131 E.01342
G1 X193.462 Y99.922 E.01136
G1 X193.301 Y99.898 E.0051
G1 X187.032 Y99.905 E.19656
G1 X187.501 Y99.354 E.02269
G1 X187.501 Y85.911 E.4215
G1 X187.494 Y85.823 E.00277
G1 X187.399 Y85.587 E.00798
G1 X187.18 Y85.401 E.00901
G1 X186.935 Y85.345 E.00788
G1 X171.746 Y85.345 E.47624
G1 X170.764 Y85.36 E.03079
G1 X170.526 Y85.48 E.00836
G1 X170.353 Y85.741 E.00982
G1 X170.327 Y85.911 E.00539
G1 X170.327 Y98.637 E.39901
G1 X170.345 Y99.497 E.02697
G1 X170.459 Y99.718 E.0078
G1 X170.669 Y99.874 E.0082
G1 X170.892 Y99.919 E.00713
G1 X184.695 Y99.913 E.43278
G1 X184.226 Y100.464 E.02269
G1 X184.237 Y106.058 E.1754
G1 X184.332 Y106.278 E.00751
G1 X184.488 Y106.426 E.00674
G1 X184.714 Y106.509 E.00755
G1 X184.939 Y106.495 E.00707
G1 X185.717 Y106.286 E.02526
G1 X186.379 Y106.179 E.02103
G1 X187.289 Y106.141 E.02856
G1 X187.959 Y106.192 E.02107
G1 X188.625 Y106.31 E.02121
G1 X189.275 Y106.495 E.02119
G1 X189.9 Y106.743 E.02108
G1 X190.701 Y107.176 E.02855
G1 X191.25 Y107.563 E.02106
G1 X191.758 Y108.003 E.02107
G1 X192.371 Y108.676 E.02854
G1 X192.759 Y109.218 E.0209
G1 X193.199 Y110.015 E.02854
G1 X193.452 Y110.637 E.02105
G1 X193.643 Y111.286 E.02121
G1 X193.767 Y111.951 E.02121
G1 X193.824 Y112.625 E.02121
G1 X193.812 Y113.301 E.0212
G1 X193.733 Y113.973 E.02122
G1 X193.587 Y114.633 E.02119
G1 X193.374 Y115.275 E.02121
G1 X193.099 Y115.893 E.02121
G1 X192.762 Y116.479 E.0212
G1 X192.368 Y117.029 E.02121
G1 X191.921 Y117.536 E.02119
G1 X191.425 Y117.996 E.02121
G1 X190.885 Y118.404 E.02122
G1 X190.307 Y118.755 E.0212
G1 X189.697 Y119.046 E.02119
G1 X189.061 Y119.275 E.02119
G1 X188.404 Y119.438 E.02122
G1 X187.739 Y119.533 E.02106
G1 X186.834 Y119.556 E.02838
G1 X185.938 Y119.458 E.02826
G1 X185.063 Y119.241 E.02827
G1 X184.225 Y118.908 E.02827
G1 X183.44 Y118.466 E.02825
G1 X182.72 Y117.923 E.02828
G1 X182.08 Y117.288 E.02827
G1 X181.531 Y116.573 E.02826
G1 X181.083 Y115.792 E.02823
G1 X180.743 Y114.957 E.02827
G1 X180.518 Y114.084 E.02827
G1 X180.412 Y113.189 E.02826
G1 X180.428 Y112.287 E.02829
G1 X180.563 Y111.396 E.02826
G1 X180.818 Y110.529 E.02834
G1 X181.188 Y109.673 E.02924
G1 X181.214 Y109.385 E.00907
G1 X181.092 Y109.12 E.00915
G1 X180.85 Y108.95 E.00927
G1 X180.656 Y108.915 E.00618
G1 X175.507 Y108.917 E.16144
G1 X176.03 Y108.494 E.02109
G1 X176.465 Y107.895 E.02321
G1 X176.73 Y107.204 E.0232
G1 X176.808 Y106.468 E.02321
G1 X176.692 Y105.737 E.02321
G1 X176.391 Y105.061 E.0232
G1 X175.925 Y104.486 E.02321
G1 X175.327 Y104.051 E.02319
G1 X174.625 Y103.784 E.02355
G1 X173.856 Y103.714 E.02421
G1 X173.169 Y103.824 E.02181
G1 X172.62 Y104.051 E.01863
G1 X172.355 Y104.23 E.01003
G1 X171.906 Y104.606 E.01836
G1 X171.482 Y105.189 E.0226
G1 X171.217 Y105.88 E.0232
G1 X171.139 Y106.616 E.02321
G1 X171.255 Y107.347 E.02321
G1 X171.556 Y108.023 E.0232
G1 X171.904 Y108.443 E.0171
G1 X171.538 Y108.282 E.01254
G1 X168.092 Y108.282 E.10805
G1 X167.875 Y108.325 E.00694
G1 X167.64 Y108.508 E.00934
G1 X167.527 Y108.848 E.01123
G1 X167.527 Y149.433 E1.27251
G1 X167.616 Y149.739 E.00999
G1 X167.816 Y149.927 E.00861
G1 X168.092 Y149.999 E.00894
G1 X169.049 Y149.999 E.03001
G1 X169.246 Y150.066 E.00652
G1 X169.314 Y150.264 E.00656
G1 X169.321 Y158.291 E.25168
G1 X169.056 Y157.961 E.01327
G1 X168.457 Y157.523 E.02327
G1 X167.755 Y157.256 E.02355
G1 X166.986 Y157.186 E.02421
G1 X166.261 Y157.312 E.02307
G1 X165.623 Y157.597 E.02191
G1 X165.047 Y158.063 E.02323
G1 X164.612 Y158.661 E.02319
G1 X164.347 Y159.352 E.0232
G1 X164.269 Y160.088 E.02321
G1 X164.385 Y160.819 E.02321
G1 X164.686 Y161.496 E.02323
G1 X165.155 Y162.073 E.02331
G1 X165.506 Y162.338 E.01379
M204 S1000
;WIPE_START
G1 F8640
G1 X165.553 Y162.375 E-.01381
G1 X162.148 Y162.375 E-.78619
;WIPE_END
G1 Z.6 F720
G1 X173.386 Y108.92 F10800
G1 Z.2 F720
G1 E.8 F2100
M204 S800
;TYPE:External perimeter
;WIDTH:0.435058
G1 F1200
G1 X173.374 Y108.919 E.00039
G1 X172.77 Y108.685 E.02112
;WIDTH:0.419999
G1 X172.252 Y108.3 E.02024
G1 X171.831 Y107.751 E.02169
G1 X171.603 Y107.203 E.01861
G1 X171.513 Y106.567 E.02014
G1 X171.591 Y105.929 E.02015
G1 X171.831 Y105.333 E.02015
G1 X172.205 Y104.835 E.01953
G1 X172.722 Y104.424 E.02071
G1 X173.313 Y104.172 E.02014
G1 X173.905 Y104.088 E.01875
G1 X174.583 Y104.159 E.02137
G1 X175.182 Y104.399 E.02023
G1 X175.696 Y104.785 E.02015
G1 X176.092 Y105.291 E.02015
G1 X176.344 Y105.882 E.02014
G1 X176.434 Y106.518 E.02014
G1 X176.356 Y107.155 E.02012
G1 X176.117 Y107.751 E.02013
G1 X175.73 Y108.265 E.02017
G1 X175.223 Y108.659 E.02013
;WIDTH:0.431672
G1 X174.628 Y108.905 E.02081
G1 X173.989 Y108.957 E.02072
;WIDTH:0.435058
G1 X173.446 Y108.924 E.01774
M204 S1000
;WIPE_START
G1 F8640
G1 X173.386 Y108.92 E-.01388
G1 X173.374 Y108.919 E-.00278
G1 X172.77 Y108.685 E-.14957
;WIPE_END
G1 E-.63377 F2100
G1 Z.6 F720
G1 X187.123 Y99.354 F10800
G1 Z.2 F720
G1 E.8 F2100
M204 S800
;WIDTH:0.419999
G1 F1200
G1 X186.935 Y99.542 E.00834
G1 X170.892 Y99.542 E.50302
G1 X170.748 Y99.475 E.00498
G1 X170.704 Y99.354 E.00404
G1 X170.704 Y85.911 E.4215
G1 X170.77 Y85.767 E.00497
G1 X170.892 Y85.722 E.00408
G1 X186.935 Y85.722 E.50302
G1 X187.073 Y85.783 E.00473
G1 X187.123 Y85.911 E.00431
G1 X187.123 Y99.294 E.41961
M204 S1000
;WIPE_START
G1 F8640
G1 X187.123 Y99.354 E-.01385
G1 X186.935 Y99.542 E-.06139
G1 X183.796 Y99.542 E-.72476
;WIPE_END
G1 Z.6 F720
G1 X170.53 Y74.354 F10800
G1 Z.2 F720
G1 E.8 F2100
M204 S800
;TYPE:Perimeter
G1 F1200
G1 X169.961 Y74.531 E.01868
G1 X167.773 Y75.117 E.07102
G1 X156.554 Y78.123 E.36417
G1 X156.31 Y78.134 E.00766
G1 X156.081 Y78.039 E.00777
G1 X155.902 Y77.83 E.00863
G1 X155.63 Y76.862 E.03153
G1 X152.123 Y63.773 E.42487
G1 X152.119 Y63.494 E.00875
M73 Q1 S87
G1 X152.239 Y63.259 E.00827
G1 X152.424 Y63.116 E.00733
