; generated by PrusaSlicer 2.7.1+MacOS-arm64 on 2024-02-11 at 17:17:58 UTC


;
;
; 

; external perimeters extrusion width = 0.60mm
; perimeters extrusion width = 0.50mm
; infill extrusion width = 0.50mm
; solid infill extrusion width = 0.50mm
; top infill extrusion width = 0.45mm
; first layer extrusion width = 0.42mm

M73 P0 R30
M73 Q0 S30
M201 X1000 Y1000 Z200 E5000 ; sets maximum accelerations, mm/sec^2
M203 X200 Y200 Z12 E120 ; sets maximum feedrates, mm / sec
M204 S1250 T1250 ; sets acceleration (S) and retract acceleration (R), mm/sec^2
M205 X8.00 Y8.00 Z0.40 E4.50 ; sets the jerk limits, mm/sec
M205 S0 T0 ; sets the minimum extruding and travel feed rate, mm/sec

; printing object Merged id:0 copy 0
; stop printing object Merged id:0 copy 0

;TYPE:Custom
M862.3 P "MK3S" ; printer model check
M862.1 P0.4 ; nozzle diameter check
M115 U3.13.2 ; tell printer latest fw version
G90 ; use absolute coordinates
M83 ; extruder relative mode
M104 S215 ; set extruder temp
M140 S60 ; set bed temp
M190 S60 ; wait for bed temp
M109 S215 ; wait for extruder temp
G28 W ; home all without mesh bed level
G80 X77.9252 Y54.9107 W97.0962 H94.4037 ; mesh bed levelling

G1 Z0.2 F720
G1 Y-3 F1000 ; go outside print area
G92 E0
G1 X60 E9 F1000 ; intro line
G1 X100 E12.5 F1000 ; intro line

G92 E0
M221 S95

; Don't change E values below. Excessive value can damage the printer.

M907 E538 ; set extruder motor current
G21 ; set units to millimeters
G90 ; use absolute coordinates
M83 ; use relative distances for extrusion
M900 K0.05 ; Filament gcode LA 1.5
M900 K30 ; Filament gcode LA 1.0

M107
;LAYER_CHANGE
;Z:0.2
;HEIGHT:0.2
;BEFORE_LAYER_CHANGE
G92 E0.0
;0.2


G1 E-.8 F2100
G1 Z.2 F720
;AFTER_LAYER_CHANGE
;0.2
; printing object Merged id:0 copy 0
G1 X95.714 Y133.257 F10800
G1 Z.2 F720
G1 E.8 F2100
M204 S800
;TYPE:Perimeter
;WIDTH:0.419999
G1 F1200
G1 X95.788 Y133.256 E.00232
G1 X96.042 Y133.141 E.00874
G1 X96.185 Y132.972 E.00694
G1 X96.255 Y132.699 E.00884
G1 X96.255 Y83.909 E1.52977
G1 X96.209 Y83.684 E.0072
G1 X96.067 Y83.488 E.00759
G1 X95.826 Y83.36 E.00856
G1 X95.597 Y83.351 E.00719
G1 X94.915 Y83.464 E.02168
G1 X94.007 Y83.518 E.02852
G1 X93.108 Y83.45 E.02827
G1 X92.227 Y83.262 E.02825
G1 X91.374 Y82.956 E.02841
G1 X90.777 Y82.658 E.02092
G1 X90.019 Y82.162 E.0284
G1 X89.338 Y81.572 E.02825
G1 X88.742 Y80.896 E.02826
G1 X88.242 Y80.146 E.02826
G1 X87.849 Y79.34 E.02812
G1 X87.511 Y78.256 E.0356
G1 X87.376 Y77.369 E.02813
G1 X87.361 Y76.473 E.0281
G1 X87.513 Y75.347 E.03563
G1 X87.765 Y74.487 E.0281
G1 X88.131 Y73.669 E.0281
G1 X88.745 Y72.713 E.03562
G1 X89.338 Y72.041 E.0281
G1 X90.022 Y71.447 E.0284
G1 X90.574 Y71.073 E.02091
G1 X91.383 Y70.653 E.02858
G1 X92.011 Y70.416 E.02105
G1 X92.655 Y70.244 E.0209
G1 X93.787 Y70.101 E.03578
G1 X94.678 Y70.123 E.02795
G1 X95.801 Y70.323 E.03576
G1 X96.431 Y70.526 E.02075
G1 X96.93 Y70.754 E.0172
G1 X97.569 Y71.092 E.02267
G1 X98.112 Y71.463 E.02062
G1 X98.625 Y71.894 E.02101
G1 X99.095 Y72.376 E.02111
G1 X99.515 Y72.905 E.02118
G1 X99.88 Y73.472 E.02114
G1 X100.185 Y74.074 E.02116
G1 X100.429 Y74.704 E.02118
G1 X100.608 Y75.355 E.02117
G1 X100.721 Y76.021 E.02118
G1 X100.766 Y76.698 E.02127
G1 X100.744 Y77.364 E.02089
G1 X100.564 Y78.67 E.04134
G1 X100.683 Y78.944 E.00937
G1 X100.91 Y79.113 E.00887
G1 X101.123 Y79.155 E.00681
G1 X105.582 Y79.155 E.13981
G1 X106.722 Y79.134 E.03575
G1 X107.639 Y79.059 E.02885
G1 X108.38 Y78.95 E.02348
G1 X109.423 Y78.692 E.03369
G1 X110.385 Y78.352 E.03199
G1 X111.36 Y77.899 E.03371
G1 X112.333 Y77.322 E.03547
G1 X113.154 Y76.717 E.03198
G1 X113.955 Y75.999 E.03373
G1 X114.681 Y75.207 E.03369
G1 X115.33 Y74.336 E.03406
G1 X115.708 Y73.714 E.02282
G1 X116.061 Y73.059 E.02333
G1 X116.368 Y72.405 E.02265
G1 X116.729 Y71.392 E.03372
G1 X116.978 Y70.403 E.03198
G1 X117.145 Y69.284 E.03547
G1 X117.194 Y68.296 E.03102
G1 X117.262 Y68.092 E.00674
G1 X117.46 Y68.025 E.00655
G1 X120.982 Y68.014 E.11043
G1 X121.218 Y67.906 E.00814
G1 X121.351 Y67.759 E.00622
G1 X121.55 Y67.281 E.01623
G1 X121.535 Y67.053 E.00716
G1 X121.433 Y66.851 E.0071
G1 X121.012 Y66.32 E.02125
G1 X120.646 Y65.75 E.02124
G1 X120.342 Y65.152 E.02103
G1 X120.03 Y64.306 E.02827
G1 X119.803 Y63.193 E.03562
G1 X119.758 Y62.293 E.02825
G1 X119.803 Y61.623 E.02105
G1 X119.914 Y60.965 E.02092
G1 X120.252 Y59.881 E.0356
G1 X120.763 Y58.878 E.03529
G1 X121.437 Y57.969 E.03548
G1 X122.073 Y57.338 E.02809
G1 X122.796 Y56.792 E.02841
G1 X123.372 Y56.455 E.02092
G1 X124.202 Y56.093 E.02839
G1 X125.074 Y55.845 E.02843
G1 X125.732 Y55.739 E.0209
G1 X126.638 Y55.701 E.02843
G1 X127.54 Y55.785 E.0284
G1 X128.197 Y55.925 E.02106
G1 X128.836 Y56.13 E.02104
G1 X129.664 Y56.508 E.02854
G1 X130.235 Y56.855 E.02095
G1 X130.952 Y57.416 E.02854
G1 X131.426 Y57.885 E.02091
G1 X131.987 Y58.591 E.02827
G1 X132.549 Y59.572 E.03545
G1 X132.94 Y60.633 E.03545
G1 X133.121 Y61.516 E.02826
G1 X133.176 Y62.176 E.02077
G1 X133.119 Y63.315 E.03576
G1 X132.94 Y64.188 E.02794
G1 X132.546 Y65.258 E.03575
G1 X132.234 Y65.848 E.02093
G1 X131.856 Y66.414 E.02134
G1 X131.487 Y66.878 E.01859
G1 X131.385 Y67.149 E.00908
G1 X131.436 Y67.447 E.00948
G1 X131.638 Y67.828 E.01352
G1 X131.837 Y67.976 E.00778
G1 X132.067 Y68.025 E.00737
G1 X135.62 Y68.035 E.1114
G1 X135.751 Y68.11 E.00473
G1 X135.791 Y68.276 E.00535
G1 X135.861 Y69.339 E.0334
G1 X136.022 Y70.403 E.03374
G1 X136.271 Y71.392 E.03198
G1 X136.697 Y72.548 E.03863
G1 X137.117 Y73.426 E.03052
G1 X137.535 Y74.12 E.0254
G1 X137.936 Y74.697 E.02203
G1 X138.319 Y75.207 E.02
G1 X139.045 Y75.999 E.03369
G1 X139.803 Y76.682 E.03199
G1 X140.667 Y77.322 E.03371
G1 X141.64 Y77.899 E.03547
G1 X142.615 Y78.352 E.03371
G1 X143.627 Y78.707 E.03363
G1 X144.62 Y78.95 E.03205
G1 X145.74 Y79.11 E.03547
G1 X146.777 Y79.155 E.03254
G1 X151.679 Y79.155 E.1537
G1 X152.089 Y79.111 E.01293
G1 X152.321 Y78.931 E.00921
G1 X152.42 Y78.722 E.00725
G1 X152.429 Y78.503 E.00687
G1 X152.332 Y77.884 E.01965
G1 X152.287 Y77.205 E.02134
G1 X152.31 Y76.529 E.02121
G1 X152.4 Y75.859 E.0212
G1 X152.558 Y75.201 E.02122
G1 X152.781 Y74.563 E.02119
G1 X153.067 Y73.95 E.02121
G1 X153.413 Y73.369 E.0212
G1 X153.816 Y72.826 E.0212
G1 X154.272 Y72.326 E.02122
G1 X154.775 Y71.875 E.02118
G1 X155.322 Y71.477 E.02121
G1 X155.906 Y71.135 E.02122
G1 X156.521 Y70.854 E.0212
G1 X157.161 Y70.637 E.02119
G1 X157.816 Y70.486 E.02108
G1 X158.711 Y70.387 E.02823
G1 X159.846 Y70.435 E.03562
G1 X160.721 Y70.606 E.02795
G1 X161.786 Y70.988 E.03548
G1 X162.776 Y71.545 E.03562
G1 X163.304 Y71.944 E.02075
G1 X163.958 Y72.571 E.02841
G1 X164.522 Y73.28 E.02841
G1 X164.873 Y73.847 E.02091
G1 X165.256 Y74.668 E.02841
G1 X165.526 Y75.533 E.02841
G1 X165.649 Y76.189 E.02093
G1 X165.71 Y77.092 E.02838
G1 X165.649 Y77.992 E.02828
G1 X165.469 Y78.875 E.02826
G1 X165.17 Y79.73 E.0284
G1 X164.878 Y80.33 E.02092
G1 X164.388 Y81.092 E.02841
G1 X163.803 Y81.778 E.02827
G1 X163.136 Y82.377 E.02811
G1 X162.185 Y82.999 E.03563
G1 X161.366 Y83.373 E.02823
G1 X160.731 Y83.577 E.02091
G1 X159.841 Y83.751 E.02843
G1 X158.942 Y83.804 E.02824
G1 X158.034 Y83.735 E.02855
G1 X157.23 Y83.618 E.02547
G1 X156.969 Y83.727 E.00887
G1 X156.817 Y83.902 E.00727
G1 X156.745 Y84.178 E.00894
G1 X156.745 Y132.311 E1.50917
G1 X156.761 Y132.832 E.01634
M73 P1 R30
M73 Q1 S30
G1 X156.885 Y133.071 E.00844
G1 X157.127 Y133.234 E.00915
G1 X157.468 Y133.264 E.01073
;WIDTH:0.459475
G1 X158.063 Y133.284 E.02062
;WIDTH:0.470653
G1 X158.591 Y133.289 E.01878
G1 X159.119 Y133.325 E.01882
;WIDTH:0.468329
G1 X159.549 Y133.44 E.01574
;WIDTH:0.467619
G1 X159.999 Y133.671 E.01786
;WIDTH:0.461844
G1 X160.428 Y133.959 E.018
;WIDTH:0.456491
G1 X160.797 Y133.982 E.01271
;WIDTH:0.419999
G1 X161.014 Y133.883 E.00748
G1 X161.192 Y133.66 E.00895
G1 X161.486 Y132.991 E.02291
G1 X161.815 Y132.396 E.02132
G1 X162.199 Y131.839 E.02121
G1 X162.638 Y131.325 E.02119
G1 X163.126 Y130.857 E.0212
G1 X163.659 Y130.44 E.02122
G1 X164.231 Y130.079 E.02121
G1 X164.836 Y129.778 E.02119
G1 X165.469 Y129.539 E.02121
G1 X166.122 Y129.365 E.02119
G1 X166.781 Y129.259 E.02093
G1 X167.925 Y129.23 E.03588
G1 X168.588 Y129.302 E.02091
G1 X169.25 Y129.443 E.02122
G1 X169.893 Y129.65 E.02118
G1 X170.513 Y129.921 E.02122
G1 X171.103 Y130.252 E.02121
G1 X171.656 Y130.642 E.02122
G1 X172.167 Y131.084 E.02118
G1 X172.631 Y131.576 E.0212
G1 X173.04 Y132.109 E.02107
G1 X173.321 Y132.581 E.01722
G1 X173.654 Y133.222 E.02265
G1 X173.89 Y133.836 E.02062
G1 X174.067 Y134.482 E.021
G1 X174.179 Y135.146 E.02111
G1 X174.224 Y135.813 E.02096
G1 X174.23 Y136.155 E.01072
G1 X174.173 Y136.829 E.02121
G1 X174.049 Y137.493 E.02118
G1 X173.86 Y138.138 E.02107
G1 X173.504 Y138.971 E.0284
G1 X173.042 Y139.745 E.02826
G1 X172.481 Y140.451 E.02827
G1 X171.827 Y141.078 E.02841
G1 X171.295 Y141.48 E.02091
G1 X170.513 Y141.937 E.0284
G1 X169.681 Y142.284 E.02826
G1 X168.81 Y142.516 E.02826
G1 X167.916 Y142.629 E.02825
G1 X167.015 Y142.622 E.02825
G1 X166.118 Y142.493 E.02841
G1 X165.469 Y142.32 E.02106
G1 X164.84 Y142.082 E.02109
G1 X164.032 Y141.663 E.02854
G1 X163.476 Y141.286 E.02106
G1 X162.965 Y140.857 E.02092
G1 X162.197 Y140.015 E.03573
G1 X161.88 Y139.539 E.01793
G1 X161.548 Y138.971 E.02063
G1 X161.226 Y138.207 E.026
G1 X161.042 Y137.707 E.0167
G1 X160.87 Y137.479 E.00895
G1 X160.616 Y137.365 E.00873
;WIDTH:0.447375
G1 X160.436 Y137.378 E.00607
;WIDTH:0.474751
G1 X160.256 Y137.391 E.00648
G1 X159.808 Y137.682 E.01918
;WIDTH:0.462082
G1 X159.321 Y137.868 E.01817
;WIDTH:0.460638
G1 X158.806 Y137.944 E.01808
;WIDTH:0.490793
G1 X158.282 Y137.94 E.01951
G1 X157.999 Y137.958 E.01056
;WIDTH:0.455396
G1 X157.717 Y137.975 E.00969
;WIDTH:0.419999
G1 X132.557 Y137.975 E.78887
G1 X132.372 Y138.006 E.00588
G1 X132.163 Y138.135 E.0077
G1 X132.045 Y138.3 E.00636
G1 X131.991 Y138.536 E.00759
G1 X132.034 Y138.757 E.00706
G1 X132.383 Y139.599 E.02858
G1 X132.623 Y140.471 E.02836
G1 X132.745 Y141.369 E.02841
G1 X132.756 Y142.04 E.02104
G1 X132.7 Y142.71 E.02108
G1 X132.518 Y143.597 E.02839
G1 X132.221 Y144.448 E.02826
G1 X131.813 Y145.252 E.02827
G1 X131.3 Y145.993 E.02826
G1 X130.69 Y146.663 E.02841
G1 X130.186 Y147.099 E.0209
G1 X129.436 Y147.608 E.02842
G1 X128.629 Y148.01 E.02827
G1 X127.771 Y148.302 E.02842
G1 X127.119 Y148.441 E.0209
G1 X126.217 Y148.524 E.0284
G1 X125.316 Y148.486 E.02828
G1 X124.429 Y148.328 E.02825
G1 X123.571 Y148.053 E.02825
G1 X122.757 Y147.664 E.02829
G1 X122.003 Y147.171 E.02825
G1 X121.322 Y146.58 E.02827
G1 X120.723 Y145.901 E.02839
G1 X120.344 Y145.352 E.02092
G1 X119.917 Y144.547 E.02857
G1 X119.676 Y143.925 E.02092
G1 X119.45 Y143.048 E.0284
G1 X119.345 Y142.153 E.02825
G1 X119.36 Y141.252 E.02825
G1 X119.444 Y140.696 E.01763
G1 X119.588 Y140.025 E.02152
G1 X120.094 Y138.61 E.04712
G1 X120.06 Y138.336 E.00866
G1 X119.952 Y138.162 E.00642
G1 X119.732 Y138.012 E.00835
G1 X119.532 Y137.975 E.00638
G1 X95.532 Y137.975 E.7525
;WIDTH:0.459381
G1 X94.937 Y137.956 E.02061
;WIDTH:0.46666
G1 X94.332 Y137.951 E.02132
G1 X93.77 Y137.89 E.01992
;WIDTH:0.462285
G1 X93.215 Y137.693 E.02054
;WIDTH:0.468966
G1 X92.777 Y137.41 E.01847
G1 X92.589 Y137.338 E.00713
;WIDTH:0.443408
G1 X92.232 Y137.372 E.01194
;WIDTH:0.419999
G1 X92.035 Y137.505 E.00745
G1 X91.911 Y137.705 E.00738
G1 X91.597 Y138.578 E.02909
G1 X91.302 Y139.184 E.02113
G1 X90.948 Y139.755 E.02106
G1 X90.384 Y140.464 E.02841
G1 X89.73 Y141.091 E.02841
G1 X89.194 Y141.496 E.02106
G1 X88.616 Y141.847 E.0212
G1 X88.01 Y142.136 E.02105
G1 X87.148 Y142.429 E.02855
G1 X86.491 Y142.569 E.02106
G1 X85.819 Y142.643 E.0212
G1 X85.142 Y142.648 E.02123
G1 X84.469 Y142.586 E.02119
G1 X83.81 Y142.457 E.02105
G1 X82.943 Y142.179 E.02855
G1 X82.332 Y141.9 E.02106
G1 X81.752 Y141.56 E.02108
G1 X81.029 Y141.015 E.02839
G1 X80.389 Y140.38 E.02827
G1 X79.837 Y139.662 E.0284
G1 X79.495 Y139.088 E.02095
G1 X79.126 Y138.261 E.02839
G1 X78.872 Y137.396 E.02827
G1 X78.735 Y136.501 E.02839
G1 X78.713 Y135.834 E.02092
G1 X78.789 Y134.931 E.02841
G1 X78.984 Y134.051 E.02826
G1 X79.296 Y133.206 E.02824
G1 X79.718 Y132.409 E.02828
G1 X80.243 Y131.676 E.02827
G1 X80.861 Y131.02 E.02826
G1 X81.565 Y130.451 E.02838
G1 X82.133 Y130.092 E.02107
G1 X82.739 Y129.791 E.02122
G1 X83.371 Y129.552 E.02119
G1 X84.025 Y129.378 E.02122
G1 X84.693 Y129.27 E.02122
G1 X85.368 Y129.23 E.0212
G1 X86.043 Y129.259 E.02118
G1 X86.708 Y129.354 E.02106
G1 X87.588 Y129.589 E.02856
G1 X88.208 Y129.835 E.02091
G1 X89.005 Y130.266 E.02841
G1 X89.733 Y130.797 E.02825
G1 X90.384 Y131.421 E.02827
G1 X90.945 Y132.126 E.02825
G1 X91.2 Y132.554 E.01562
G1 X91.572 Y133.275 E.02544
G1 X91.817 Y133.799 E.01814
G1 X92.041 Y133.981 E.00905
G1 X92.34 Y134.027 E.00949
;WIDTH:0.447332
G1 X92.488 Y133.982 E.0052
;WIDTH:0.474665
G1 X92.635 Y133.937 E.00552
G1 X93.115 Y133.596 E.02114
;WIDTH:0.463411
G1 X93.62 Y133.39 E.01907
G1 X94.18 Y133.295 E.01986
;WIDTH:0.490884
G1 X94.718 Y133.3 E.02004
G1 X95.001 Y133.282 E.01056
;WIDTH:0.455442
G1 X95.283 Y133.264 E.00969
;WIDTH:0.419999
G1 X95.654 Y133.258 E.01163
M204 S1000
G1 X95.69 Y132.887 F10800
M204 S800
;TYPE:External perimeter
G1 F1200
G1 X95.807 Y132.846 E.00389
G1 X95.878 Y132.699 E.00512
G1 X95.878 Y83.909 E1.52977
G1 X95.815 Y83.769 E.00481
G1 X95.659 Y83.723 E.0051
G1 X94.957 Y83.839 E.02231
G1 X94.004 Y83.896 E.02993
G1 X93.055 Y83.824 E.02984
G1 X92.123 Y83.625 E.02988
G1 X91.226 Y83.303 E.02988
G1 X90.589 Y82.986 E.02231
G1 X89.791 Y82.464 E.0299
G1 X89.072 Y81.84 E.02985
G1 X88.442 Y81.126 E.02986
G1 X87.914 Y80.334 E.02985
G1 X87.497 Y79.479 E.02983
G1 X87.142 Y78.341 E.03738
G1 X86.999 Y77.401 E.02981
G1 X86.983 Y76.451 E.02979
G1 X87.143 Y75.268 E.03743
G1 X87.411 Y74.357 E.02977
G1 X87.798 Y73.489 E.0298
G1 X88.443 Y72.485 E.03742
G1 X89.072 Y71.772 E.02981
G1 X89.792 Y71.148 E.02987
G1 X90.381 Y70.748 E.02232
G1 X91.229 Y70.308 E.02995
G1 X91.895 Y70.056 E.02233
G1 X92.583 Y69.873 E.02232
G1 X93.768 Y69.723 E.03745
G1 X94.716 Y69.747 E.02973
G1 X95.892 Y69.957 E.03746
G1 X96.568 Y70.174 E.02226
G1 X97.436 Y70.57 E.02991
G1 X98.046 Y70.94 E.02237
G1 X98.616 Y71.371 E.02241
G1 X99.14 Y71.857 E.02241
G1 X99.612 Y72.393 E.02239
G1 X100.028 Y72.973 E.02238
G1 X100.383 Y73.593 E.0224
G1 X100.675 Y74.245 E.0224
G1 X100.899 Y74.923 E.02239
G1 X101.053 Y75.621 E.02241
G1 X101.137 Y76.33 E.02239
G1 X101.149 Y77.044 E.02239
G1 X101.089 Y77.756 E.0224
G1 X100.938 Y78.554 E.02546
G1 X100.977 Y78.707 E.00495
G1 X101.123 Y78.778 E.00509
G1 X105.582 Y78.778 E.13981
G1 X106.705 Y78.757 E.03522
G1 X107.585 Y78.686 E.02768
G1 X108.29 Y78.584 E.02233
G1 X109.298 Y78.336 E.03255
G1 X110.277 Y77.99 E.03256
G1 X111.217 Y77.549 E.03256
G1 X112.094 Y77.028 E.03198
G1 X112.93 Y76.413 E.03254
G1 X113.716 Y75.706 E.03315
G1 X114.402 Y74.953 E.03194
G1 X115.008 Y74.14 E.03179
G1 X115.386 Y73.519 E.02279
G1 X115.72 Y72.897 E.02214
G1 X116.031 Y72.227 E.02316
G1 X116.364 Y71.3 E.03088
G1 X116.574 Y70.462 E.02709
G1 X116.684 Y69.837 E.0199
G1 X116.768 Y69.266 E.0181
G1 X116.817 Y68.275 E.03111
G1 X116.9 Y67.944 E.0107
G1 X117.115 Y67.73 E.00951
G1 X117.435 Y67.648 E.01036
G1 X120.871 Y67.648 E.10773
G1 X121.004 Y67.593 E.00451
G1 X121.177 Y67.229 E.01264
G1 X121.139 Y67.087 E.00461
G1 X120.705 Y66.539 E.02192
G1 X120.319 Y65.938 E.0224
G1 X119.996 Y65.303 E.02234
G1 X119.667 Y64.409 E.02987
G1 X119.428 Y63.24 E.03741
G1 X119.38 Y62.29 E.02982
G1 X119.428 Y61.579 E.02234
G1 X119.547 Y60.877 E.02232
G1 X119.902 Y59.739 E.03738
G1 X120.441 Y58.678 E.03731
G1 X121.151 Y57.722 E.03734
G1 X121.826 Y57.053 E.0298
G1 X122.587 Y56.478 E.02991
G1 X123.201 Y56.119 E.0223
G1 X124.075 Y55.737 E.02991
G1 X124.992 Y55.476 E.02989
G1 X125.694 Y55.363 E.02229
G1 X126.647 Y55.323 E.02991
G1 X127.597 Y55.411 E.02991
G1 X128.294 Y55.56 E.02235
G1 X128.973 Y55.778 E.02236
G1 X129.841 Y56.174 E.02991
G1 X130.449 Y56.544 E.02232
G1 X131.202 Y57.132 E.02996
M73 P1 R29
G1 X131.707 Y57.633 E.0223
G1 X132.299 Y58.378 E.02984
G1 X132.892 Y59.412 E.03737
G1 X133.304 Y60.529 E.03733
G1 X133.494 Y61.462 E.02985
G1 X133.554 Y62.169 E.02225
G1 X133.494 Y63.362 E.03745
G1 X133.304 Y64.292 E.02976
G1 X132.891 Y65.412 E.03743
