; generated by PrusaSlicer 2.7.1+MacOS-arm64 on 2024-02-11 at 01:44:24 UTC


;
;
; 

; external perimeters extrusion width = 0.60mm
; perimeters extrusion width = 0.50mm
; infill extrusion width = 0.50mm
; solid infill extrusion width = 0.50mm
; top infill extrusion width = 0.45mm
; first layer extrusion width = 0.42mm

M73 P0 R87
M73 Q0 S88
M201 X1000 Y1000 Z200 E5000 ; sets maximum accelerations, mm/sec^2
M203 X200 Y200 Z12 E120 ; sets maximum feedrates, mm / sec
M204 S1250 T1250 ; sets acceleration (S) and retract acceleration (R), mm/sec^2
M205 X8.00 Y8.00 Z0.40 E4.50 ; sets the jerk limits, mm/sec
M205 S0 T0 ; sets the minimum extruding and travel feed rate, mm/sec

; printing object Merged id:0 copy 0
; stop printing object Merged id:0 copy 0

;TYPE:Custom
M862.3 P "MK3S" ; printer model check
M862.1 P0.4 ; nozzle diameter check
M115 U3.13.2 ; tell printer latest fw version
G90 ; use absolute coordinates
M83 ; extruder relative mode
M104 S215 ; set extruder temp
M140 S60 ; set bed temp
M190 S60 ; wait for bed temp
M109 S215 ; wait for extruder temp
G28 W ; home all without mesh bed level
G80 X41.8114 Y36.4289 W165.676 H138.74 ; mesh bed levelling

G1 Z0.2 F720
G1 Y-3 F1000 ; go outside print area
G92 E0
G1 X60 E9 F1000 ; intro line
G1 X100 E12.5 F1000 ; intro line

G92 E0
M221 S95

; Don't change E values below. Excessive value can damage the printer.

M907 E538 ; set extruder motor current
G21 ; set units to millimeters
G90 ; use absolute coordinates
M83 ; use relative distances for extrusion
M900 K0.05 ; Filament gcode LA 1.5
M900 K30 ; Filament gcode LA 1.0

M107
;LAYER_CHANGE
;Z:0.2
;HEIGHT:0.2
;BEFORE_LAYER_CHANGE
G92 E0.0
;0.2


G1 E-.8 F2100
G1 Z.2 F720
;AFTER_LAYER_CHANGE
;0.2
; printing object Merged id:0 copy 0
G1 X54.09 Y94.707 F10800
G1 Z.2 F720
G1 E.8 F2100
M204 S800
;TYPE:Perimeter
;WIDTH:0.419999
G1 F1200
G1 X54.479 Y94.172 E.02074
G1 X55.055 Y93.706 E.02323
G1 X55.731 Y93.405 E.0232
G1 X56.418 Y93.295 E.02181
G1 X57.187 Y93.366 E.02421
G1 X57.889 Y93.632 E.02354
G1 X58.487 Y94.067 E.02319
G1 X58.953 Y94.643 E.02323
G1 X59.254 Y95.319 E.0232
G1 X59.37 Y96.05 E.02321
G1 X59.292 Y96.786 E.02321
G1 X59.053 Y97.413 E.02104
G1 X58.598 Y98.067 E.02498
G1 X58.017 Y98.541 E.02351
G1 X57.34 Y98.842 E.02323
G1 X56.609 Y98.958 E.02321
G1 X56.084 Y98.908 E.01654
G1 X55.731 Y98.842 E.01126
G1 X55.182 Y98.615 E.01863
G1 X54.584 Y98.18 E.02319
G1 X54.118 Y97.605 E.02321
;WIDTH:0.462156
G1 X53.798 Y96.937 E.02582
;WIDTH:0.501046
G1 X53.762 Y96.864 E.0031
;WIDTH:0.539935
G1 X53.726 Y96.791 E.00336
;WIDTH:0.578824
G1 X53.69 Y96.718 E.00363
G1 X53.639 Y96.206 E.02293
;WIDTH:0.584014
G1 X53.698 Y95.451 E.03407
G1 X53.784 Y95.281 E.00857
;WIDTH:0.543011
G1 X53.871 Y95.111 E.00794
;WIDTH:0.502007
G1 X53.958 Y94.941 E.00729
;WIDTH:0.461003
G1 X54.044 Y94.771 E.00662
;WIDTH:0.419999
G1 X54.055 Y94.756 E.00058
M204 S1000
G1 X54.386 Y94.931 F10800
M204 S800
;TYPE:External perimeter
G1 F1200
G1 X54.393 Y94.915 E.00055
G1 X54.778 Y94.401 E.02014
G1 X55.284 Y94.005 E.02015
G1 X55.875 Y93.754 E.02013
G1 X56.467 Y93.669 E.01875
G1 X57.145 Y93.74 E.02137
G1 X57.744 Y93.981 E.02024
G1 X58.258 Y94.367 E.02015
G1 X58.654 Y94.872 E.02012
G1 X58.906 Y95.463 E.02014
G1 X58.996 Y96.099 E.02014
G1 X58.918 Y96.737 E.02015
G1 X58.705 Y97.269 E.01797
G1 X58.295 Y97.843 E.02212
G1 X57.787 Y98.242 E.02025
G1 X57.196 Y98.494 E.02014
G1 X56.56 Y98.584 E.02014
G1 X55.923 Y98.507 E.02012
G1 X55.327 Y98.267 E.02015
G1 X54.813 Y97.881 E.02015
G1 X54.417 Y97.375 E.02015
G1 X54.165 Y96.784 E.02014
G1 X54.075 Y96.148 E.02014
G1 X54.153 Y95.511 E.02012
G1 X54.364 Y94.987 E.01771
M204 S1000
;WIPE_START
G1 F8640
G1 X54.386 Y94.931 E-.01389
G1 X54.393 Y94.915 E-.00403
G1 X54.778 Y94.401 E-.14829
G1 X55.284 Y94.005 E-.14836
G1 X55.875 Y93.754 E-.14826
G1 X56.467 Y93.669 E-.1381
G1 X57.145 Y93.74 E-.15741
G1 X57.312 Y93.807 E-.04166
;WIPE_END
G1 Z.6 F720
G1 X98.676 Y97.764 F10800
G1 Z.2 F720
G1 E.8 F2100
M204 S800
;TYPE:Perimeter
;WIDTH:0.494239
G1 F1200
G1 X98.458 Y97.763 E.00818
;WIDTH:0.457119
G1 X98.063 Y97.761 E.0136
;WIDTH:0.419999
G1 X84.215 Y97.761 E.43419
G1 X83.986 Y97.713 E.00734
G1 X83.82 Y97.6 E.0063
G1 X83.671 Y97.351 E.0091
G1 X83.649 Y97.195 E.00494
G1 X83.649 Y82.752 E.45285
G1 X83.723 Y82.474 E.00902
G1 X83.922 Y82.268 E.00898
G1 X84.215 Y82.187 E.00953
G1 X98.658 Y82.187 E.45285
G1 X98.896 Y82.239 E.00764
G1 X99.107 Y82.408 E.00848
G1 X99.212 Y82.638 E.00793
G1 X99.223 Y83.717 E.03383
G1 X99.223 Y97.195 E.42259
;WIDTH:0.464076
G1 X99.15 Y97.517 E.01156
;WIDTH:0.494181
G1 X99.092 Y97.601 E.00383
;WIDTH:0.524285
G1 X99.034 Y97.685 E.00409
G1 X98.853 Y97.765 E.00792
;WIDTH:0.494239
G1 X98.736 Y97.765 E.00439
M204 S1000
G1 X98.658 Y97.384 F10800
M204 S800
;TYPE:External perimeter
;WIDTH:0.419999
G1 F1200
G1 X84.215 Y97.384 E.45285
G1 X84.139 Y97.368 E.00244
G1 X84.034 Y97.247 E.00502
G1 X84.026 Y97.195 E.00165
G1 X84.026 Y82.752 E.45285
G1 X84.093 Y82.609 E.00495
G1 X84.215 Y82.564 E.00408
G1 X98.658 Y82.564 E.45285
G1 X98.807 Y82.638 E.00522
G1 X98.846 Y82.752 E.00378
G1 X98.846 Y97.195 E.45285
G1 X98.772 Y97.345 E.00524
G1 X98.715 Y97.364 E.00188
M204 S1000
;WIPE_START
G1 F8640
G1 X98.658 Y97.384 E-.01395
G1 X95.254 Y97.384 E-.78605
;WIPE_END
G1 Z.6 F720
G1 X102.301 Y99.67 F10800
G1 Z.2 F720
G1 E.8 F2100
M204 S800
;TYPE:Perimeter
;WIDTH:0.45434
G1 F1200
G1 X102.306 Y99.738 E.00233
;WIDTH:0.430985
G1 X102.217 Y100.223 E.01591
;WIDTH:0.419999
G1 X102.011 Y100.67 E.01543
G1 X101.696 Y101.048 E.01543
G1 X101.294 Y101.332 E.01543
G1 X100.823 Y101.504 E.01572
G1 X100.49 Y101.548 E.01053
G1 X100 Y101.503 E.01543
G1 X99.539 Y101.331 E.01543
;WIDTH:0.417676
G1 X99.037 Y100.94 E.01983
;WIDTH:0.419999
G1 X98.748 Y100.542 E.01542
G1 X98.577 Y100.08 E.01545
G1 X98.532 Y99.59 E.01543
G1 X98.615 Y99.105 E.01543
G1 X98.821 Y98.658 E.01543
;WIDTH:0.457119
G1 X98.967 Y98.454 E.00864
;WIDTH:0.494239
G1 X99.114 Y98.25 E.00944
;WIDTH:0.52552
G1 X99.378 Y98.027 E.01387
G1 X99.538 Y97.972 E.00679
;WIDTH:0.490347
G1 X99.698 Y97.918 E.00628
;WIDTH:0.455173
G1 X99.857 Y97.863 E.00577
;WIDTH:0.419999
G1 X100.307 Y97.784 E.01433
G1 X100.818 Y97.823 E.01607
G1 X101.294 Y97.995 E.01587
G1 X101.696 Y98.279 E.01543
G1 X102.011 Y98.658 E.01545
;WIDTH:0.45434
G1 X102.272 Y99.245 E.02198
G1 X102.297 Y99.61 E.01252
M204 S1000
G1 X101.924 Y99.703 F10800
M204 S800
;TYPE:External perimeter
;WIDTH:0.419999
G1 F1200
G1 X101.869 Y100.078 E.01188
G1 X101.712 Y100.44 E.01237
G1 X101.467 Y100.749 E.01236
G1 X101.15 Y100.984 E.01237
G1 X100.774 Y101.13 E.01265
G1 X100.441 Y101.174 E.01053
G1 X100.002 Y101.116 E.01388
G1 X99.64 Y100.959 E.01237
G1 X99.331 Y100.714 E.01236
G1 X99.096 Y100.398 E.01235
G1 X98.951 Y100.031 E.01237
G1 X98.906 Y99.639 E.01237
G1 X98.964 Y99.249 E.01236
G1 X99.121 Y98.887 E.01237
G1 X99.366 Y98.578 E.01236
G1 X99.682 Y98.343 E.01235
G1 X100.049 Y98.199 E.01236
G1 X100.4 Y98.158 E.01108
G1 X100.831 Y98.211 E.01362
G1 X101.193 Y98.368 E.01237
G1 X101.502 Y98.613 E.01236
G1 X101.736 Y98.93 E.01235
G1 X101.881 Y99.297 E.01237
G1 X101.921 Y99.644 E.01095
M204 S1000
;WIPE_START
G1 F8640
G1 X101.924 Y99.703 E-.01364
G1 X101.869 Y100.078 E-.08751
G1 X101.712 Y100.44 E-.09111
G1 X101.467 Y100.749 E-.09105
G1 X101.15 Y100.984 E-.09112
G1 X100.774 Y101.13 E-.09313
G1 X100.441 Y101.174 E-.07756
G1 X100.002 Y101.116 E-.10225
G1 X99.64 Y100.959 E-.09111
G1 X99.431 Y100.794 E-.06152
;WIPE_END
G1 Z.6 F720
G1 X102.72 Y117.54 F10800
G1 Z.2 F720
G1 E.8 F2100
M204 S800
;TYPE:Perimeter
G1 F1200
G1 X102.313 Y117.888 E.01679
G1 X101.805 Y118.132 E.01767
G1 X101.546 Y118.22 E.00858
G1 X101.035 Y118.288 E.01616
G1 X100.377 Y118.22 E.02074
G1 X99.839 Y118.018 E.01802
G1 X99.522 Y117.824 E.01165
G1 X99.121 Y117.48 E.01657
G1 X98.837 Y117.027 E.01676
G1 X98.73 Y116.677 E.01148
G1 X98.705 Y116.467 E.00663
G1 X98.604 Y116.591 E.00501
G1 X98.083 Y116.727 E.01688
G1 X97.532 Y116.793 E.0174
G1 X96.937 Y116.81 E.01866
G1 X84.214 Y116.811 E.39892
G1 X83.997 Y116.767 E.00694
G1 X83.762 Y116.584 E.00934
G1 X83.649 Y116.245 E.0112
G1 X83.649 Y101.802 E.45285
G1 X83.729 Y101.514 E.00937
G1 X83.902 Y101.331 E.0079
G1 X84.215 Y101.237 E.01025
G1 X98.658 Y101.237 E.45285
G1 X98.945 Y101.329 E.00945
M73 Q0 S87
;WIDTH:0.406315
G1 X99.133 Y101.508 E.00784
;WIDTH:0.419999
G1 X99.223 Y101.802 E.00964
G1 X99.22 Y113.951 E.38092
G1 X99.609 Y113.619 E.01604
G1 X100.229 Y113.327 E.02149
G1 X100.846 Y113.225 E.01961
G1 X101.535 Y113.286 E.02169
G1 X102.167 Y113.529 E.02123
G1 X102.703 Y113.952 E.02141
G1 X102.699 Y104.302 E.30257
G1 X102.781 Y104.009 E.00954
G1 X102.947 Y103.834 E.00756
G1 X103.173 Y103.744 E.00763
G1 X103.265 Y103.737 E.00289
G1 X117.708 Y103.737 E.45285
G1 X117.906 Y103.773 E.00631
G1 X118.156 Y103.958 E.00975
G1 X118.261 Y104.187 E.0079
G1 X118.273 Y105.267 E.03386
G1 X118.273 Y118.745 E.42259
G1 X118.243 Y118.928 E.00581
G1 X118.047 Y119.198 E.01046
G1 X117.906 Y119.275 E.00504
G1 X117.708 Y119.311 E.00631
G1 X103.265 Y119.31 E.45285
G1 X103.066 Y119.274 E.00634
G1 X102.853 Y119.133 E.00801
G1 X102.714 Y118.875 E.00919
G1 X102.72 Y117.6 E.03998
M204 S1000
;WIPE_START
G1 F8640
G1 X102.72 Y117.54 E-.01385
G1 X102.313 Y117.888 E-.12365
G1 X101.805 Y118.132 E-.13013
G1 X101.546 Y118.22 E-.06316
G1 X101.035 Y118.288 E-.11903
G1 X100.377 Y118.22 E-.15274
G1 X99.839 Y118.018 E-.13269
G1 X99.6 Y117.871 E-.06475
;WIPE_END
G1 Z.6 F720
G1 X98.509 Y116.226 F10800
G1 Z.2 F720
G1 E.8 F2100
M204 S800
;TYPE:External perimeter
G1 F1200
G1 X97.988 Y116.362 E.01688
G1 X97.491 Y116.418 E.01568
G1 X96.936 Y116.433 E.01741
G1 X84.215 Y116.434 E.39886
G1 X84.064 Y116.358 E.0053
G1 X84.026 Y116.245 E.00374
G1 X84.026 Y101.802 E.45285
G1 X84.09 Y101.661 E.00486
G1 X84.215 Y101.614 E.00419
G1 X98.658 Y101.614 E.45285
G1 X98.797 Y101.675 E.00476
G1 X98.846 Y101.802 E.00427
G1 X98.843 Y113.524 E.36753
G1 X98.823 Y114.033 E.01597
;WIDTH:0.428936
G1 X98.685 Y115.192 E.03746
;WIDTH:0.417132
G1 X98.647 Y115.524 E.0104
;WIDTH:0.423116
G1 X98.651 Y116.042 E.01638
G1 X98.546 Y116.178 E.00543
M204 S1000
;WIPE_START
G1 F8640
G1 X98.509 Y116.226 E-.01399
G1 X97.988 Y116.362 E-.12433
G1 X97.491 Y116.418 E-.11548
G1 X96.936 Y116.433 E-.1282
G1 X95.126 Y116.433 E-.418
;WIPE_END
G1 Z.6 F720
G1 X102.775 Y116.758 F10800
G1 Z.2 F720
G1 E.8 F2100
M204 S800
;WIDTH:0.441625
G1 F1200
G1 X102.499 Y117.22 E.01784
;WIDTH:0.419999
G1 X102.068 Y117.601 E.01804
G1 X101.546 Y117.833 E.01791
G1 X100.986 Y117.914 E.01774
G1 X100.426 Y117.847 E.01768
G1 X99.902 Y117.636 E.01771
G1 X99.455 Y117.287 E.01778
G1 X99.157 Y116.828 E.01716
G1 X99.105 Y116.632 E.00636
;WIDTH:0.424756
G1 X99.032 Y116.042 E.01888
G1 X99.019 Y115.563 E.01521
;WIDTH:0.435498
G1 X99.142 Y114.776 E.026
G1 X99.424 Y114.287 E.01843
;WIDTH:0.419999
G1 X99.854 Y113.906 E.01801
G1 X100.426 Y113.661 E.01951
G1 X100.923 Y113.597 E.01571
G1 X101.493 Y113.66 E.01798
G1 X102.02 Y113.876 E.01786
G1 X102.458 Y114.239 E.01784
;WIDTH:0.431429
G1 X102.733 Y114.683 E.01687
G1 X102.848 Y115.106 E.01416
;WIDTH:0.430266
G1 X102.912 Y115.737 E.02043
;WIDTH:0.419469
G1 X102.875 Y116.254 E.01623
;WIDTH:0.441625
G1 X102.788 Y116.7 E.01506
M204 S1000
;WIPE_START
G1 F8640
G1 X102.775 Y116.758 E-.01372
G1 X102.499 Y117.22 E-.12426
;WIPE_END
G1 E-.66202 F2100
G1 Z.6 F720
G1 X117.896 Y118.745 F10800
G1 Z.2 F720
G1 E.8 F2100
M204 S800
;WIDTH:0.419999
G1 F1200
G1 X117.821 Y118.896 E.00529
G1 X117.708 Y118.934 E.00374
G1 X103.265 Y118.933 E.45285
G1 X103.114 Y118.859 E.00527
G1 X103.076 Y118.742 E.00386
G1 X103.097 Y117.519 E.03835
;WIDTH:0.432632
G1 X103.144 Y117.001 E.01685
G1 X103.224 Y116.504 E.01631
;WIDTH:0.430628
G1 X103.273 Y116.006 E.01613
;WIDTH:0.417917
G1 X103.246 Y115.252 E.02353
;WIDTH:0.439748
G1 X103.105 Y114.09 E.03862
;WIDTH:0.419999
G1 X103.08 Y113.531 E.01754
G1 X103.076 Y104.302 E.28937
G1 X103.151 Y104.152 E.00526
G1 X103.265 Y104.114 E.00377
G1 X117.708 Y104.114 E.45285
G1 X117.857 Y104.187 E.0052
G1 X117.896 Y104.302 E.00381
G1 X117.896 Y118.685 E.45097
M204 S1000
;WIPE_START
G1 F8640
G1 X117.896 Y118.745 E-.01385
G1 X117.821 Y118.896 E-.03893
G1 X117.708 Y118.934 E-.02753
G1 X114.591 Y118.934 E-.71969
;WIPE_END
G1 Z.6 F720
G1 X98.693 Y135.845 F10800
G1 Z.2 F720
G1 E.8 F2100
M204 S800
;TYPE:Perimeter
;WIDTH:0.435836
G1 F1200
G1 X98.307 Y135.861 E.01262
;WIDTH:0.419999
G1 X84.214 Y135.861 E.44188
G1 X83.997 Y135.817 E.00694
G1 X83.762 Y135.634 E.00934
G1 X83.649 Y135.295 E.0112
G1 X83.649 Y120.852 E.45285
G1 X83.762 Y120.513 E.0112
G1 X83.997 Y120.33 E.00934
G1 X84.215 Y120.286 E.00697
G1 X98.658 Y120.286 E.45285
G1 X98.875 Y120.33 E.00694
G1 X99.098 Y120.497 E.00874
G1 X99.211 Y120.734 E.00823
G1 X99.223 Y121.816 E.03393
G1 X99.223 Y135.295 E.42262
;WIDTH:0.429335
G1 X99.146 Y135.59 E.0098
;WIDTH:0.439737
G1 X99.056 Y135.71 E.00495
G1 X98.838 Y135.839 E.00836
;WIDTH:0.435836
G1 X98.753 Y135.843 E.00278
M204 S1000
G1 X98.658 Y135.483 F10800
M204 S800
;TYPE:External perimeter
;WIDTH:0.419999
G1 F1200
G1 X84.215 Y135.483 E.45285
G1 X84.064 Y135.408 E.00529
G1 X84.026 Y135.295 E.00374
G1 X84.026 Y120.852 E.45285
G1 X84.064 Y120.739 E.00374
G1 X84.215 Y120.664 E.00529
G1 X98.658 Y120.664 E.45285
G1 X98.805 Y120.734 E.0051
G1 X98.846 Y120.852 E.00392
G1 X98.846 Y135.295 E.45285
G1 X98.788 Y135.431 E.00464
G1 X98.713 Y135.461 E.00253
M204 S1000
;WIPE_START
G1 F8640
G1 X98.658 Y135.483 E-.01368
G1 X95.252 Y135.483 E-.78632
;WIPE_END
G1 Z.6 F720
G1 X102.162 Y137.099 F10800
G1 Z.2 F720
G1 E.8 F2100
M204 S800
;TYPE:Perimeter
;WIDTH:0.499534
G1 F1200
G1 X102.205 Y137.192 E.00389
G1 X102.239 Y137.691 E.01899
;WIDTH:0.476889
G1 X102.183 Y137.932 E.00893
;WIDTH:0.448444
G1 X102.127 Y138.172 E.00831
;WIDTH:0.419999
G1 X101.921 Y138.619 E.01543
G1 X101.606 Y138.998 E.01545
G1 X101.204 Y139.282 E.01543
G1 X100.743 Y139.452 E.01541
G1 X100.252 Y139.498 E.01546
G1 X99.767 Y139.414 E.01543
;WIDTH:0.429
G1 X99.317 Y139.212 E.01583
;WIDTH:0.444797
G1 X99.039 Y139.008 E.01152
G1 X98.658 Y138.492 E.02143
;WIDTH:0.419999
G1 X98.487 Y138.03 E.01545
G1 X98.442 Y137.54 E.01543
G1 X98.525 Y137.054 E.01546
G1 X98.709 Y136.652 E.01386
;WIDTH:0.435836
G1 X99.041 Y136.223 E.01772
G1 X99.446 Y135.94 E.01614
;WIDTH:0.429335
G1 X99.91 Y135.774 E.01583
;WIDTH:0.419999
G1 X100.35 Y135.732 E.01386
G1 X100.885 Y135.813 E.01697
G1 X101.332 Y136.019 E.01543
G1 X101.711 Y136.333 E.01543
G1 X101.995 Y136.735 E.01543
;WIDTH:0.459767
G1 X102.1 Y136.964 E.00873
;WIDTH:0.499534
G1 X102.137 Y137.044 E.00335
M204 S1000
G1 X101.793 Y137.266 F10800
M204 S800
;TYPE:External perimeter
;WIDTH:0.419999
G1 F1200
G1 X101.827 Y137.713 E.01406
G1 X101.779 Y138.028 E.00999
G1 X101.622 Y138.39 E.01237
G1 X101.377 Y138.699 E.01236
G1 X101.06 Y138.934 E.01237
G1 X100.693 Y139.079 E.01237
G1 X100.302 Y139.124 E.01234
G1 X99.912 Y139.066 E.01236
G1 X99.468 Y138.846 E.01554
G1 X99.276 Y138.699 E.00758
G1 X99.006 Y138.347 E.01391
G1 X98.861 Y137.981 E.01234
G1 X98.816 Y137.589 E.01237
G1 X98.874 Y137.199 E.01236
G1 X99.014 Y136.874 E.0111
G1 X99.276 Y136.528 E.01361
G1 X99.592 Y136.293 E.01235
G1 X99.959 Y136.148 E.01237
G1 X100.31 Y136.107 E.01108
G1 X100.741 Y136.161 E.01362
G1 X101.103 Y136.318 E.01237
G1 X101.412 Y136.563 E.01236
G1 X101.647 Y136.88 E.01237
G1 X101.777 Y137.209 E.01109
M204 S1000
;WIPE_START
G1 F8640
G1 X101.793 Y137.266 E-.01367
G1 X101.827 Y137.713 E-.10351
G1 X101.779 Y138.028 E-.07357
G1 X101.622 Y138.39 E-.09111
G1 X101.377 Y138.699 E-.09105
G1 X101.06 Y138.934 E-.09112
G1 X100.693 Y139.079 E-.09112
G1 X100.302 Y139.124 E-.09088
G1 X99.912 Y139.066 E-.09104
G1 X99.668 Y138.945 E-.06293
;WIPE_END
G1 Z.6 F720
G1 X99.212 Y154.41 F10800
G1 Z.2 F720
G1 E.8 F2100
M204 S800
;TYPE:Perimeter
G1 F1200
G1 X99.187 Y154.543 E.00424
G1 X99.092 Y154.707 E.00594
G1 X98.839 Y154.88 E.00961
G1 X98.658 Y154.91 E.00575
G1 X84.215 Y154.91 E.45285
G1 X84.046 Y154.885 E.00536
M73 P0 R86
G1 X83.818 Y154.747 E.00836
G1 X83.674 Y154.509 E.00872
G1 X83.649 Y154.345 E.0052
G1 X83.649 Y139.902 E.45285
G1 X83.762 Y139.563 E.0112
G1 X83.997 Y139.38 E.00934
G1 X84.215 Y139.336 E.00697
G1 X98.378 Y139.336 E.44407
;WIDTH:0.444797
